%
(1)
(T3  D=1 CR=0 - ZMIN=-5 - flat end mill)
G90 G94
G17
G21
G28 G91 Z0
G90

(Back)
M9
T3 M6
S52521 M3
G54
M8
G0 X333.731 Y183.558
Z15
Z5
G1 Z2 F600
Z-0.9
G18 G3 X333.631 Z-1 I-0.1
G1 X333.531
G17 G3 X333.431 Y183.458 J-0.1
G1 Y160.958
G2 X332.931 Y160.458 I-0.5
G1 X328.431
Y135.958
G2 X327.931 Y135.458 I-0.5
G1 X310.431
Y130.958
G2 X309.931 Y130.458 I-0.5
G1 X289.931
G2 X289.431 Y130.958 J0.5
G1 Y135.458
X270.431
Y130.958
G2 X269.931 Y130.458 I-0.5
G1 X249.931
G2 X249.431 Y130.958 J0.5
G1 Y135.458
X229.931
G2 X229.431 Y135.958 J0.5
G1 Y160.458
X224.931
G2 X224.431 Y160.958 J0.5
G1 Y185.958
G2 X224.931 Y186.458 I0.5
G1 X229.431
Y210.458
X224.931
G2 X224.431 Y210.958 J0.5
G1 Y235.958
G2 X224.931 Y236.458 I0.5
G1 X332.931
G2 X333.431 Y235.958 J-0.5
G1 Y210.958
G2 X332.931 Y210.458 I-0.5
G1 X328.431
Y186.458
X332.931
G2 X333.431 Y185.958 J-0.5
G1 Y183.458
G3 X333.531 Y183.358 I0.1
G1 X333.631
G18 G2 X333.731 Z-0.9 K0.1
G1 Y183.558
Z-1.9
G3 X333.631 Z-2 I-0.1
G1 X333.531
G17 G3 X333.431 Y183.458 J-0.1
G1 Y160.958
G2 X332.931 Y160.458 I-0.5
G1 X328.431
Y135.958
G2 X327.931 Y135.458 I-0.5
G1 X310.431
Y130.958
G2 X309.931 Y130.458 I-0.5
G1 X289.931
G2 X289.431 Y130.958 J0.5
G1 Y135.458
X270.431
Y130.958
G2 X269.931 Y130.458 I-0.5
G1 X249.931
G2 X249.431 Y130.958 J0.5
G1 Y135.458
X229.931
G2 X229.431 Y135.958 J0.5
G1 Y160.458
X224.931
G2 X224.431 Y160.958 J0.5
G1 Y185.958
G2 X224.931 Y186.458 I0.5
G1 X229.431
Y210.458
X224.931
G2 X224.431 Y210.958 J0.5
G1 Y235.958
G2 X224.931 Y236.458 I0.5
G1 X332.931
G2 X333.431 Y235.958 J-0.5
G1 Y210.958
G2 X332.931 Y210.458 I-0.5
G1 X328.431
Y186.458
X332.931
G2 X333.431 Y185.958 J-0.5
G1 Y183.458
G3 X333.531 Y183.358 I0.1
G1 X333.631
G18 G2 X333.731 Z-1.9 K0.1
G1 Y183.558
Z-2.9
G3 X333.631 Z-3 I-0.1
G1 X333.531
G17 G3 X333.431 Y183.458 J-0.1
G1 Y160.958
G2 X332.931 Y160.458 I-0.5
G1 X328.431
Y135.958
G2 X327.931 Y135.458 I-0.5
G1 X310.431
Y130.958
G2 X309.931 Y130.458 I-0.5
G1 X289.931
G2 X289.431 Y130.958 J0.5
G1 Y135.458
X270.431
Y130.958
G2 X269.931 Y130.458 I-0.5
G1 X249.931
G2 X249.431 Y130.958 J0.5
G1 Y135.458
X229.931
G2 X229.431 Y135.958 J0.5
G1 Y160.458
X224.931
G2 X224.431 Y160.958 J0.5
G1 Y185.958
G2 X224.931 Y186.458 I0.5
G1 X229.431
Y210.458
X224.931
G2 X224.431 Y210.958 J0.5
G1 Y235.958
G2 X224.931 Y236.458 I0.5
G1 X332.931
G2 X333.431 Y235.958 J-0.5
G1 Y210.958
G2 X332.931 Y210.458 I-0.5
G1 X328.431
Y186.458
X332.931
G2 X333.431 Y185.958 J-0.5
G1 Y183.458
G3 X333.531 Y183.358 I0.1
G1 X333.631
G18 G2 X333.731 Z-2.9 K0.1
G1 Y183.558
Z-3.9
G3 X333.631 Z-4 I-0.1
G1 X333.531
G17 G3 X333.431 Y183.458 J-0.1
G1 Y160.958
G2 X332.931 Y160.458 I-0.5
G1 X328.431
Y135.958
G2 X327.931 Y135.458 I-0.5
G1 X310.431
Y130.958
G2 X309.931 Y130.458 I-0.5
G1 X289.931
G2 X289.431 Y130.958 J0.5
G1 Y135.458
X270.431
Y130.958
G2 X269.931 Y130.458 I-0.5
G1 X249.931
G2 X249.431 Y130.958 J0.5
G1 Y135.458
X229.931
G2 X229.431 Y135.958 J0.5
G1 Y160.458
X224.931
G2 X224.431 Y160.958 J0.5
G1 Y185.958
G2 X224.931 Y186.458 I0.5
G1 X229.431
Y210.458
X224.931
G2 X224.431 Y210.958 J0.5
G1 Y235.958
G2 X224.931 Y236.458 I0.5
G1 X332.931
G2 X333.431 Y235.958 J-0.5
G1 Y210.958
G2 X332.931 Y210.458 I-0.5
G1 X328.431
Y186.458
X332.931
G2 X333.431 Y185.958 J-0.5
G1 Y183.458
G3 X333.531 Y183.358 I0.1
G1 X333.631
G18 G2 X333.731 Z-3.9 K0.1
G1 Y183.558
Z-4.9
G3 X333.631 Z-5 I-0.1
G1 X333.531
G17 G3 X333.431 Y183.458 J-0.1
G1 Y160.958
G2 X332.931 Y160.458 I-0.5
G1 X328.431
Y135.958
G2 X327.931 Y135.458 I-0.5
G1 X310.431
Y130.958
G2 X309.931 Y130.458 I-0.5
G1 X289.931
G2 X289.431 Y130.958 J0.5
G1 Y135.458
X270.431
Y130.958
G2 X269.931 Y130.458 I-0.5
G1 X249.931
G2 X249.431 Y130.958 J0.5
G1 Y135.458
X229.931
G2 X229.431 Y135.958 J0.5
G1 Y160.458
X224.931
G2 X224.431 Y160.958 J0.5
G1 Y185.958
G2 X224.931 Y186.458 I0.5
G1 X229.431
Y210.458
X224.931
G2 X224.431 Y210.958 J0.5
G1 Y235.958
G2 X224.931 Y236.458 I0.5
G1 X332.931
G2 X333.431 Y235.958 J-0.5
G1 Y210.958
G2 X332.931 Y210.458 I-0.5
G1 X328.431
Y186.458
X332.931
G2 X333.431 Y185.958 J-0.5
G1 Y183.458
G3 X333.531 Y183.358 I0.1
G1 X333.631
G18 G2 X333.731 Z-4.9 K0.1
G0 Z15
G17
M9
G28 G91 Z0
G28 X0 Y0
M30
%
