%
(1)
(T3  D=1 CR=0 - ZMIN=-5 - flat end mill)
G90 G94
G17
G21
G28 G91 Z0
G90

(Back)
M9
T3 M6
S52521 M3
G54
M8
G0 X11.309 Y182.436
Z15
Z5
G1 Z2 F600
Z-0.9
G18 G2 X11.409 Z-1 I0.1
G1 X11.509
G17 G3 X11.609 Y182.536 J0.1
G1 Y184.536
G2 X12.109 Y185.036 I0.5
G1 X16.609
Y209.536
X12.109
G2 X11.609 Y210.036 J0.5
G1 Y235.036
G2 X12.109 Y235.536 I0.5
G1 X122.109
G2 X122.609 Y235.036 J-0.5
G1 Y210.036
G2 X122.109 Y209.536 I-0.5
G1 X117.609
Y185.036
X122.109
G2 X122.609 Y184.536 J-0.5
G1 Y160.536
G2 X122.109 Y160.036 I-0.5
G1 X117.609
Y135.036
G2 X117.109 Y134.536 I-0.5
G1 X97.109
Y130.036
G2 X96.609 Y129.536 I-0.5
G1 X77.609
G2 X77.109 Y130.036 J0.5
G1 Y134.536
X57.109
Y130.036
G2 X56.609 Y129.536 I-0.5
G1 X37.609
G2 X37.109 Y130.036 J0.5
G1 Y134.536
X17.109
G2 X16.609 Y135.036 J0.5
G1 Y160.036
X12.109
G2 X11.609 Y160.536 J0.5
G1 Y182.536
G3 X11.509 Y182.636 I-0.1
G1 X11.409
G18 G3 X11.309 Z-0.9 K0.1
G1 Y182.436
Z-1.9
G2 X11.409 Z-2 I0.1
G1 X11.509
G17 G3 X11.609 Y182.536 J0.1
G1 Y184.536
G2 X12.109 Y185.036 I0.5
G1 X16.609
Y209.536
X12.109
G2 X11.609 Y210.036 J0.5
G1 Y235.036
G2 X12.109 Y235.536 I0.5
G1 X122.109
G2 X122.609 Y235.036 J-0.5
G1 Y210.036
G2 X122.109 Y209.536 I-0.5
G1 X117.609
Y185.036
X122.109
G2 X122.609 Y184.536 J-0.5
G1 Y160.536
G2 X122.109 Y160.036 I-0.5
G1 X117.609
Y135.036
G2 X117.109 Y134.536 I-0.5
G1 X97.109
Y130.036
G2 X96.609 Y129.536 I-0.5
G1 X77.609
G2 X77.109 Y130.036 J0.5
G1 Y134.536
X57.109
Y130.036
G2 X56.609 Y129.536 I-0.5
G1 X37.609
G2 X37.109 Y130.036 J0.5
G1 Y134.536
X17.109
G2 X16.609 Y135.036 J0.5
G1 Y160.036
X12.109
G2 X11.609 Y160.536 J0.5
G1 Y182.536
G3 X11.509 Y182.636 I-0.1
G1 X11.409
G18 G3 X11.309 Z-1.9 K0.1
G1 Y182.436
Z-2.9
G2 X11.409 Z-3 I0.1
G1 X11.509
G17 G3 X11.609 Y182.536 J0.1
G1 Y184.536
G2 X12.109 Y185.036 I0.5
G1 X16.609
Y209.536
X12.109
G2 X11.609 Y210.036 J0.5
G1 Y235.036
G2 X12.109 Y235.536 I0.5
G1 X122.109
G2 X122.609 Y235.036 J-0.5
G1 Y210.036
G2 X122.109 Y209.536 I-0.5
G1 X117.609
Y185.036
X122.109
G2 X122.609 Y184.536 J-0.5
G1 Y160.536
G2 X122.109 Y160.036 I-0.5
G1 X117.609
Y135.036
G2 X117.109 Y134.536 I-0.5
G1 X97.109
Y130.036
G2 X96.609 Y129.536 I-0.5
G1 X77.609
G2 X77.109 Y130.036 J0.5
G1 Y134.536
X57.109
Y130.036
G2 X56.609 Y129.536 I-0.5
G1 X37.609
G2 X37.109 Y130.036 J0.5
G1 Y134.536
X17.109
G2 X16.609 Y135.036 J0.5
G1 Y160.036
X12.109
G2 X11.609 Y160.536 J0.5
G1 Y182.536
G3 X11.509 Y182.636 I-0.1
G1 X11.409
G18 G3 X11.309 Z-2.9 K0.1
G1 Y182.436
Z-3.9
G2 X11.409 Z-4 I0.1
G1 X11.509
G17 G3 X11.609 Y182.536 J0.1
G1 Y184.536
G2 X12.109 Y185.036 I0.5
G1 X16.609
Y209.536
X12.109
G2 X11.609 Y210.036 J0.5
G1 Y235.036
G2 X12.109 Y235.536 I0.5
G1 X122.109
G2 X122.609 Y235.036 J-0.5
G1 Y210.036
G2 X122.109 Y209.536 I-0.5
G1 X117.609
Y185.036
X122.109
G2 X122.609 Y184.536 J-0.5
G1 Y160.536
G2 X122.109 Y160.036 I-0.5
G1 X117.609
Y135.036
G2 X117.109 Y134.536 I-0.5
G1 X97.109
Y130.036
G2 X96.609 Y129.536 I-0.5
G1 X77.609
G2 X77.109 Y130.036 J0.5
G1 Y134.536
X57.109
Y130.036
G2 X56.609 Y129.536 I-0.5
G1 X37.609
G2 X37.109 Y130.036 J0.5
G1 Y134.536
X17.109
G2 X16.609 Y135.036 J0.5
G1 Y160.036
X12.109
G2 X11.609 Y160.536 J0.5
G1 Y182.536
G3 X11.509 Y182.636 I-0.1
G1 X11.409
G18 G3 X11.309 Z-3.9 K0.1
G1 Y182.436
Z-4.9
G2 X11.409 Z-5 I0.1
G1 X11.509
G17 G3 X11.609 Y182.536 J0.1
G1 Y184.536
G2 X12.109 Y185.036 I0.5
G1 X16.609
Y209.536
X12.109
G2 X11.609 Y210.036 J0.5
G1 Y235.036
G2 X12.109 Y235.536 I0.5
G1 X122.109
G2 X122.609 Y235.036 J-0.5
G1 Y210.036
G2 X122.109 Y209.536 I-0.5
G1 X117.609
Y185.036
X122.109
G2 X122.609 Y184.536 J-0.5
G1 Y160.536
G2 X122.109 Y160.036 I-0.5
G1 X117.609
Y135.036
G2 X117.109 Y134.536 I-0.5
G1 X97.109
Y130.036
G2 X96.609 Y129.536 I-0.5
G1 X77.609
G2 X77.109 Y130.036 J0.5
G1 Y134.536
X57.109
Y130.036
G2 X56.609 Y129.536 I-0.5
G1 X37.609
G2 X37.109 Y130.036 J0.5
G1 Y134.536
X17.109
G2 X16.609 Y135.036 J0.5
G1 Y160.036
X12.109
G2 X11.609 Y160.536 J0.5
G1 Y182.536
G3 X11.509 Y182.636 I-0.1
G1 X11.409
G18 G3 X11.309 Z-4.9 K0.1
G0 Z15
G17
M9
G28 G91 Z0
G28 X0 Y0
M30
%
