%
(1)
(T0  D=3.175 CR=0 - ZMIN=-4 - flat end mill)
G90 G94
G17
G21
G28 G91 Z0
G90

(2D Contour3)
M9
T0 M6
S16542 M3
G54
M8
G0 X215.518 Y125.931
Z15
Z5
G1 Z2 F600
Z-0.683
G19 G3 Y126.248 Z-1 J0.317
G1 Y126.566
G17 G3 X215.201 Y126.883 I-0.317
G1 X175.201
G2 X173.613 Y128.471 J1.587
G1 Y130.883
X136.788
Y128.471
G2 X135.201 Y126.883 I-1.587
G1 X95.201
G2 X93.614 Y128.471 J1.587
G1 Y130.883
X56.789
Y128.471
G2 X55.201 Y126.883 I-1.588
G1 X15.201
G2 X13.614 Y128.471 J1.587
G1 Y148.471
G2 X15.199 Y150.059 I1.588
G1 X17.614 Y150.062
Y166.889
X15.201
G2 X13.614 Y168.477 J1.588
G1 Y188.477
G2 X15.201 Y190.064 I1.588
G1 X17.614
Y206.889
X15.201
G2 X13.614 Y208.477 J1.588
G1 Y228.477
G2 X15.201 Y230.064 I1.588
G1 X55.201
G2 X56.789 Y228.477 J-1.587
G1 Y226.064
X93.614
Y228.477
G2 X95.201 Y230.064 I1.588
G1 X135.201
G2 X136.788 Y228.477 J-1.587
G1 Y226.064
X173.613
Y228.477
G2 X175.201 Y230.064 I1.588
G1 X215.201
G2 X216.788 Y228.477 J-1.587
G1 Y208.477
G2 X215.201 Y206.889 I-1.587
G1 X212.788
Y190.064
X215.201
G2 X216.788 Y188.477 J-1.587
G1 Y168.477
G2 X215.201 Y166.889 I-1.587
G1 X212.788
Y150.064
X215.201
G2 X216.788 Y148.477 J-1.587
G1 Y128.471
G2 X215.201 Y126.883 I-1.587
G3 X214.883 Y126.566 J-0.317
G1 Y126.248
G19 G2 Y125.931 Z-0.683 K0.317
G1 X215.518
Z-1.683
G3 Y126.248 Z-2 J0.317
G1 Y126.566
G17 G3 X215.201 Y126.883 I-0.317
G1 X175.201
G2 X173.613 Y128.471 J1.587
G1 Y130.883
X136.788
Y128.471
G2 X135.201 Y126.883 I-1.587
G1 X95.201
G2 X93.614 Y128.471 J1.587
G1 Y130.883
X56.789
Y128.471
G2 X55.201 Y126.883 I-1.588
G1 X15.201
G2 X13.614 Y128.471 J1.587
G1 Y148.471
G2 X15.199 Y150.059 I1.588
G1 X17.614 Y150.062
Y166.889
X15.201
G2 X13.614 Y168.477 J1.588
G1 Y188.477
G2 X15.201 Y190.064 I1.588
G1 X17.614
Y206.889
X15.201
G2 X13.614 Y208.477 J1.588
G1 Y228.477
G2 X15.201 Y230.064 I1.588
G1 X55.201
G2 X56.789 Y228.477 J-1.587
G1 Y226.064
X93.614
Y228.477
G2 X95.201 Y230.064 I1.588
G1 X135.201
G2 X136.788 Y228.477 J-1.587
G1 Y226.064
X173.613
Y228.477
G2 X175.201 Y230.064 I1.588
G1 X215.201
G2 X216.788 Y228.477 J-1.587
G1 Y208.477
G2 X215.201 Y206.889 I-1.587
G1 X212.788
Y190.064
X215.201
G2 X216.788 Y188.477 J-1.587
G1 Y168.477
G2 X215.201 Y166.889 I-1.587
G1 X212.788
Y150.064
X215.201
G2 X216.788 Y148.477 J-1.587
G1 Y128.471
G2 X215.201 Y126.883 I-1.587
G3 X214.883 Y126.566 J-0.317
G1 Y126.248
G19 G2 Y125.931 Z-1.683 K0.317
G1 X215.518
Z-2.683
G3 Y126.248 Z-3 J0.317
G1 Y126.566
G17 G3 X215.201 Y126.883 I-0.317
G1 X175.201
G2 X173.613 Y128.471 J1.587
G1 Y130.883
X136.788
Y128.471
G2 X135.201 Y126.883 I-1.587
G1 X95.201
G2 X93.614 Y128.471 J1.587
G1 Y130.883
X56.789
Y128.471
G2 X55.201 Y126.883 I-1.588
G1 X15.201
G2 X13.614 Y128.471 J1.587
G1 Y148.471
G2 X15.199 Y150.059 I1.588
G1 X17.614 Y150.062
Y166.889
X15.201
G2 X13.614 Y168.477 J1.588
G1 Y188.477
G2 X15.201 Y190.064 I1.588
G1 X17.614
Y206.889
X15.201
G2 X13.614 Y208.477 J1.588
G1 Y228.477
G2 X15.201 Y230.064 I1.588
G1 X55.201
G2 X56.789 Y228.477 J-1.587
G1 Y226.064
X93.614
Y228.477
G2 X95.201 Y230.064 I1.588
G1 X135.201
G2 X136.788 Y228.477 J-1.587
G1 Y226.064
X173.613
Y228.477
G2 X175.201 Y230.064 I1.588
G1 X215.201
G2 X216.788 Y228.477 J-1.587
G1 Y208.477
G2 X215.201 Y206.889 I-1.587
G1 X212.788
Y190.064
X215.201
G2 X216.788 Y188.477 J-1.587
G1 Y168.477
G2 X215.201 Y166.889 I-1.587
G1 X212.788
Y150.064
X215.201
G2 X216.788 Y148.477 J-1.587
G1 Y128.471
G2 X215.201 Y126.883 I-1.587
G3 X214.883 Y126.566 J-0.317
G1 Y126.248
G19 G2 Y125.931 Z-2.683 K0.318
G1 X215.518
Z-3.683
G3 Y126.248 Z-4 J0.317
G1 Y126.566
G17 G3 X215.201 Y126.883 I-0.317
G1 X175.201
G2 X173.613 Y128.471 J1.587
G1 Y130.883
X136.788
Y128.471
G2 X135.201 Y126.883 I-1.587
G1 X95.201
G2 X93.614 Y128.471 J1.587
G1 Y130.883
X56.789
Y128.471
G2 X55.201 Y126.883 I-1.588
G1 X15.201
G2 X13.614 Y128.471 J1.587
G1 Y148.471
G2 X15.199 Y150.059 I1.588
G1 X17.614 Y150.062
Y166.889
X15.201
G2 X13.614 Y168.477 J1.588
G1 Y188.477
G2 X15.201 Y190.064 I1.588
G1 X17.614
Y206.889
X15.201
G2 X13.614 Y208.477 J1.588
G1 Y228.477
G2 X15.201 Y230.064 I1.588
G1 X55.201
G2 X56.789 Y228.477 J-1.587
G1 Y226.064
X93.614
Y228.477
G2 X95.201 Y230.064 I1.588
G1 X135.201
G2 X136.788 Y228.477 J-1.587
G1 Y226.064
X173.613
Y228.477
G2 X175.201 Y230.064 I1.588
G1 X215.201
G2 X216.788 Y228.477 J-1.587
G1 Y208.477
G2 X215.201 Y206.889 I-1.587
G1 X212.788
Y190.064
X215.201
G2 X216.788 Y188.477 J-1.587
G1 Y168.477
G2 X215.201 Y166.889 I-1.587
G1 X212.788
Y150.064
X215.201
G2 X216.788 Y148.477 J-1.587
G1 Y128.471
G2 X215.201 Y126.883 I-1.587
G3 X214.883 Y126.566 J-0.317
G1 Y126.248
G19 G2 Y125.931 Z-3.683 K0.318
G0 Z15
G17
M9
G28 G91 Z0
G28 X0 Y0
M30
%
