%
(1)
(T2  D=2 CR=0 - ZMIN=-6 - flat end mill)
G90 G94
G17
G21
G28 G91 Z0
G90

(Front)
M9
T2 M6
S26261 M3
G54
M8
G0 X122.448 Y62.008
Z15
Z5
G1 Z1.5 F400
Z-0.3
G18 G3 X122.248 Z-0.5 I-0.2
G1 X122.048
G17 G3 X121.848 Y61.808 J-0.2
G1 Y42.808
Y41.808
X115.848
Y17.808
Y16.808
X99.848
Y11.808
Y10.808
X77.848
Y16.808
X59.848
Y11.808
Y10.808
X37.848
Y16.808
X18.848
X17.848
Y41.808
X12.848
X11.848
Y68.808
X17.848
Y91.808
X12.848
X11.848
Y112.808
X121.848
Y91.808
X115.848
Y68.808
X120.848
X121.848
Y61.808
G3 X122.048 Y61.608 I0.2
G1 X122.248
G18 G2 X122.448 Z-0.3 K0.2
G1 Y62.008
Z-0.8
G3 X122.248 Z-1 I-0.2
G1 X122.048
G17 G3 X121.848 Y61.808 J-0.2
G1 Y42.808
Y41.808
X115.848
Y17.808
Y16.808
X99.848
Y11.808
Y10.808
X77.848
Y16.808
X59.848
Y11.808
Y10.808
X37.848
Y16.808
X18.848
X17.848
Y41.808
X12.848
X11.848
Y68.808
X17.848
Y91.808
X12.848
X11.848
Y112.808
X121.848
Y91.808
X115.848
Y68.808
X120.848
X121.848
Y61.808
G3 X122.048 Y61.608 I0.2
G1 X122.248
G18 G2 X122.448 Z-0.8 K0.2
G1 Y62.008
Z-1.3
G3 X122.248 Z-1.5 I-0.2
G1 X122.048
G17 G3 X121.848 Y61.808 J-0.2
G1 Y42.808
Y41.808
X115.848
Y17.808
Y16.808
X99.848
Y11.808
Y10.808
X77.848
Y16.808
X59.848
Y11.808
Y10.808
X37.848
Y16.808
X18.848
X17.848
Y41.808
X12.848
X11.848
Y68.808
X17.848
Y91.808
X12.848
X11.848
Y112.808
X121.848
Y91.808
X115.848
Y68.808
X120.848
X121.848
Y61.808
G3 X122.048 Y61.608 I0.2
G1 X122.248
G18 G2 X122.448 Z-1.3 K0.2
G1 Y62.008
Z-1.8
G3 X122.248 Z-2 I-0.2
G1 X122.048
G17 G3 X121.848 Y61.808 J-0.2
G1 Y42.808
Y41.808
X115.848
Y17.808
Y16.808
X99.848
Y11.808
Y10.808
X77.848
Y16.808
X59.848
Y11.808
Y10.808
X37.848
Y16.808
X18.848
X17.848
Y41.808
X12.848
X11.848
Y68.808
X17.848
Y91.808
X12.848
X11.848
Y112.808
X121.848
Y91.808
X115.848
Y68.808
X120.848
X121.848
Y61.808
G3 X122.048 Y61.608 I0.2
G1 X122.248
G18 G2 X122.448 Z-1.8 K0.2
G1 Y62.008
Z-2.3
G3 X122.248 Z-2.5 I-0.2
G1 X122.048
G17 G3 X121.848 Y61.808 J-0.2
G1 Y42.808
Y41.808
X115.848
Y17.808
Y16.808
X99.848
Y11.808
Y10.808
X77.848
Y16.808
X59.848
Y11.808
Y10.808
X37.848
Y16.808
X18.848
X17.848
Y41.808
X12.848
X11.848
Y68.808
X17.848
Y91.808
X12.848
X11.848
Y112.808
X121.848
Y91.808
X115.848
Y68.808
X120.848
X121.848
Y61.808
G3 X122.048 Y61.608 I0.2
G1 X122.248
G18 G2 X122.448 Z-2.3 K0.2
G1 Y62.008
Z-2.8
G3 X122.248 Z-3 I-0.2
G1 X122.048
G17 G3 X121.848 Y61.808 J-0.2
G1 Y42.808
Y41.808
X115.848
Y17.808
Y16.808
X99.848
Y11.808
Y10.808
X77.848
Y16.808
X59.848
Y11.808
Y10.808
X37.848
Y16.808
X18.848
X17.848
Y41.808
X12.848
X11.848
Y68.808
X17.848
Y91.808
X12.848
X11.848
Y112.808
X121.848
Y91.808
X115.848
Y68.808
X120.848
X121.848
Y61.808
G3 X122.048 Y61.608 I0.2
G1 X122.248
G18 G2 X122.448 Z-2.8 K0.2
G1 Y62.008
Z-3.3
G3 X122.248 Z-3.5 I-0.2
G1 X122.048
G17 G3 X121.848 Y61.808 J-0.2
G1 Y42.808
Y41.808
X115.848
Y17.808
Y16.808
X99.848
Y11.808
Y10.808
X77.848
Y16.808
X59.848
Y11.808
Y10.808
X37.848
Y16.808
X18.848
X17.848
Y41.808
X12.848
X11.848
Y68.808
X17.848
Y91.808
X12.848
X11.848
Y112.808
X121.848
Y91.808
X115.848
Y68.808
X120.848
X121.848
Y61.808
G3 X122.048 Y61.608 I0.2
G1 X122.248
G18 G2 X122.448 Z-3.3 K0.2
G1 Y62.008
Z-3.8
G3 X122.248 Z-4 I-0.2
G1 X122.048
G17 G3 X121.848 Y61.808 J-0.2
G1 Y42.808
Y41.808
X115.848
Y17.808
Y16.808
X99.848
Y11.808
Y10.808
X77.848
Y16.808
X59.848
Y11.808
Y10.808
X37.848
Y16.808
X18.848
X17.848
Y41.808
X12.848
X11.848
Y68.808
X17.848
Y91.808
X12.848
X11.848
Y112.808
X121.848
Y91.808
X115.848
Y68.808
X120.848
X121.848
Y61.808
G3 X122.048 Y61.608 I0.2
G1 X122.248
G18 G2 X122.448 Z-3.8 K0.2
G1 Y62.008
Z-4.3
G3 X122.248 Z-4.5 I-0.2
G1 X122.048
G17 G3 X121.848 Y61.808 J-0.2
G1 Y42.808
Y41.808
X115.848
Y17.808
Y16.808
X99.848
Y11.808
Y10.808
X77.848
Y16.808
X59.848
Y11.808
Y10.808
X37.848
Y16.808
X18.848
X17.848
Y41.808
X12.848
X11.848
Y68.808
X17.848
Y91.808
X12.848
X11.848
Y112.808
X121.848
Y91.808
X115.848
Y68.808
X120.848
X121.848
Y61.808
G3 X122.048 Y61.608 I0.2
G1 X122.248
G18 G2 X122.448 Z-4.3 K0.2
G1 Y62.008
Z-4.8
G3 X122.248 Z-5 I-0.2
G1 X122.048
G17 G3 X121.848 Y61.808 J-0.2
G1 Y42.808
Y41.808
X115.848
Y17.808
Y16.808
X99.848
Y11.808
Y10.808
X77.848
Y16.808
X59.848
Y11.808
Y10.808
X37.848
Y16.808
X18.848
X17.848
Y41.808
X12.848
X11.848
Y68.808
X17.848
Y91.808
X12.848
X11.848
Y112.808
X121.848
Y91.808
X115.848
Y68.808
X120.848
X121.848
Y61.808
G3 X122.048 Y61.608 I0.2
G1 X122.248
G18 G2 X122.448 Z-4.8 K0.2
G1 Y62.008
Z-5.3
G3 X122.248 Z-5.5 I-0.2
G1 X122.048
G17 G3 X121.848 Y61.808 J-0.2
G1 Y42.808
Y41.808
X115.848
Y17.808
Y16.808
X99.848
Y11.808
Y10.808
X77.848
Y16.808
X59.848
Y11.808
Y10.808
X37.848
Y16.808
X18.848
X17.848
Y41.808
X12.848
X11.848
Y68.808
X17.848
Y91.808
X12.848
X11.848
Y112.808
X121.848
Y91.808
X115.848
Y68.808
X120.848
X121.848
Y61.808
G3 X122.048 Y61.608 I0.2
G1 X122.248
G18 G2 X122.448 Z-5.3 K0.2
G1 Y62.008
Z-5.8
G3 X122.248 Z-6 I-0.2
G1 X122.048
G17 G3 X121.848 Y61.808 J-0.2
G1 Y42.808
Y41.808
X115.848
Y17.808
Y16.808
X99.848
Y11.808
Y10.808
X77.848
Y16.808
X59.848
Y11.808
Y10.808
X37.848
Y16.808
X18.848
X17.848
Y41.808
X12.848
X11.848
Y68.808
X17.848
Y91.808
X12.848
X11.848
Y112.808
X121.848
Y91.808
X115.848
Y68.808
X120.848
X121.848
Y61.808
G3 X122.048 Y61.608 I0.2
G1 X122.248
G18 G2 X122.448 Z-5.8 K0.2
G0 Z15
G17
M9
G28 G91 Z0
G28 X0 Y0
M30
%
