%
(1)
(T3  D=1 CR=0 - ZMIN=-6 - flat end mill)
G90 G94
G17
G21
G28 G91 Z0
G90

(Front)
M9
T3 M6
S52521 M3
G54
M8
G0 X121.648 Y61.908
Z15
Z5
G1 Z1.5 F400
Z-0.4
G18 G3 X121.548 Z-0.5 I-0.1
G1 X121.448
G17 G3 X121.348 Y61.808 J-0.1
G1 Y42.808
Y42.308
X115.348
Y17.808
Y17.308
X99.348
Y11.808
Y11.308
X78.348
Y17.308
X59.348
Y11.808
Y11.308
X38.348
Y17.308
X18.848
X18.348
Y42.308
X12.848
X12.348
Y68.308
X18.348
Y92.308
X12.848
X12.348
Y112.308
X121.348
Y92.308
X115.348
Y68.308
X120.848
X121.348
Y61.808
G3 X121.448 Y61.708 I0.1
G1 X121.548
G18 G2 X121.648 Z-0.4 K0.1
G1 Y61.908
Z-0.9
G3 X121.548 Z-1 I-0.1
G1 X121.448
G17 G3 X121.348 Y61.808 J-0.1
G1 Y42.808
Y42.308
X115.348
Y17.808
Y17.308
X99.348
Y11.808
Y11.308
X78.348
Y17.308
X59.348
Y11.808
Y11.308
X38.348
Y17.308
X18.848
X18.348
Y42.308
X12.848
X12.348
Y68.308
X18.348
Y92.308
X12.848
X12.348
Y112.308
X121.348
Y92.308
X115.348
Y68.308
X120.848
X121.348
Y61.808
G3 X121.448 Y61.708 I0.1
G1 X121.548
G18 G2 X121.648 Z-0.9 K0.1
G1 Y61.908
Z-1.4
G3 X121.548 Z-1.5 I-0.1
G1 X121.448
G17 G3 X121.348 Y61.808 J-0.1
G1 Y42.808
Y42.308
X115.348
Y17.808
Y17.308
X99.348
Y11.808
Y11.308
X78.348
Y17.308
X59.348
Y11.808
Y11.308
X38.348
Y17.308
X18.848
X18.348
Y42.308
X12.848
X12.348
Y68.308
X18.348
Y92.308
X12.848
X12.348
Y112.308
X121.348
Y92.308
X115.348
Y68.308
X120.848
X121.348
Y61.808
G3 X121.448 Y61.708 I0.1
G1 X121.548
G18 G2 X121.648 Z-1.4 K0.1
G1 Y61.908
Z-1.9
G3 X121.548 Z-2 I-0.1
G1 X121.448
G17 G3 X121.348 Y61.808 J-0.1
G1 Y42.808
Y42.308
X115.348
Y17.808
Y17.308
X99.348
Y11.808
Y11.308
X78.348
Y17.308
X59.348
Y11.808
Y11.308
X38.348
Y17.308
X18.848
X18.348
Y42.308
X12.848
X12.348
Y68.308
X18.348
Y92.308
X12.848
X12.348
Y112.308
X121.348
Y92.308
X115.348
Y68.308
X120.848
X121.348
Y61.808
G3 X121.448 Y61.708 I0.1
G1 X121.548
G18 G2 X121.648 Z-1.9 K0.1
G1 Y61.908
Z-2.4
G3 X121.548 Z-2.5 I-0.1
G1 X121.448
G17 G3 X121.348 Y61.808 J-0.1
G1 Y42.808
Y42.308
X115.348
Y17.808
Y17.308
X99.348
Y11.808
Y11.308
X78.348
Y17.308
X59.348
Y11.808
Y11.308
X38.348
Y17.308
X18.848
X18.348
Y42.308
X12.848
X12.348
Y68.308
X18.348
Y92.308
X12.848
X12.348
Y112.308
X121.348
Y92.308
X115.348
Y68.308
X120.848
X121.348
Y61.808
G3 X121.448 Y61.708 I0.1
G1 X121.548
G18 G2 X121.648 Z-2.4 K0.1
G1 Y61.908
Z-2.9
G3 X121.548 Z-3 I-0.1
G1 X121.448
G17 G3 X121.348 Y61.808 J-0.1
G1 Y42.808
Y42.308
X115.348
Y17.808
Y17.308
X99.348
Y11.808
Y11.308
X78.348
Y17.308
X59.348
Y11.808
Y11.308
X38.348
Y17.308
X18.848
X18.348
Y42.308
X12.848
X12.348
Y68.308
X18.348
Y92.308
X12.848
X12.348
Y112.308
X121.348
Y92.308
X115.348
Y68.308
X120.848
X121.348
Y61.808
G3 X121.448 Y61.708 I0.1
G1 X121.548
G18 G2 X121.648 Z-2.9 K0.1
G1 Y61.908
Z-3.4
G3 X121.548 Z-3.5 I-0.1
G1 X121.448
G17 G3 X121.348 Y61.808 J-0.1
G1 Y42.808
Y42.308
X115.348
Y17.808
Y17.308
X99.348
Y11.808
Y11.308
X78.348
Y17.308
X59.348
Y11.808
Y11.308
X38.348
Y17.308
X18.848
X18.348
Y42.308
X12.848
X12.348
Y68.308
X18.348
Y92.308
X12.848
X12.348
Y112.308
X121.348
Y92.308
X115.348
Y68.308
X120.848
X121.348
Y61.808
G3 X121.448 Y61.708 I0.1
G1 X121.548
G18 G2 X121.648 Z-3.4 K0.1
G1 Y61.908
Z-3.9
G3 X121.548 Z-4 I-0.1
G1 X121.448
G17 G3 X121.348 Y61.808 J-0.1
G1 Y42.808
Y42.308
X115.348
Y17.808
Y17.308
X99.348
Y11.808
Y11.308
X78.348
Y17.308
X59.348
Y11.808
Y11.308
X38.348
Y17.308
X18.848
X18.348
Y42.308
X12.848
X12.348
Y68.308
X18.348
Y92.308
X12.848
X12.348
Y112.308
X121.348
Y92.308
X115.348
Y68.308
X120.848
X121.348
Y61.808
G3 X121.448 Y61.708 I0.1
G1 X121.548
G18 G2 X121.648 Z-3.9 K0.1
G1 Y61.908
Z-4.4
G3 X121.548 Z-4.5 I-0.1
G1 X121.448
G17 G3 X121.348 Y61.808 J-0.1
G1 Y42.808
Y42.308
X115.348
Y17.808
Y17.308
X99.348
Y11.808
Y11.308
X78.348
Y17.308
X59.348
Y11.808
Y11.308
X38.348
Y17.308
X18.848
X18.348
Y42.308
X12.848
X12.348
Y68.308
X18.348
Y92.308
X12.848
X12.348
Y112.308
X121.348
Y92.308
X115.348
Y68.308
X120.848
X121.348
Y61.808
G3 X121.448 Y61.708 I0.1
G1 X121.548
G18 G2 X121.648 Z-4.4 K0.1
G1 Y61.908
Z-4.9
G3 X121.548 Z-5 I-0.1
G1 X121.448
G17 G3 X121.348 Y61.808 J-0.1
G1 Y42.808
Y42.308
X115.348
Y17.808
Y17.308
X99.348
Y11.808
Y11.308
X78.348
Y17.308
X59.348
Y11.808
Y11.308
X38.348
Y17.308
X18.848
X18.348
Y42.308
X12.848
X12.348
Y68.308
X18.348
Y92.308
X12.848
X12.348
Y112.308
X121.348
Y92.308
X115.348
Y68.308
X120.848
X121.348
Y61.808
G3 X121.448 Y61.708 I0.1
G1 X121.548
G18 G2 X121.648 Z-4.9 K0.1
G1 Y61.908
Z-5.4
G3 X121.548 Z-5.5 I-0.1
G1 X121.448
G17 G3 X121.348 Y61.808 J-0.1
G1 Y42.808
Y42.308
X115.348
Y17.808
Y17.308
X99.348
Y11.808
Y11.308
X78.348
Y17.308
X59.348
Y11.808
Y11.308
X38.348
Y17.308
X18.848
X18.348
Y42.308
X12.848
X12.348
Y68.308
X18.348
Y92.308
X12.848
X12.348
Y112.308
X121.348
Y92.308
X115.348
Y68.308
X120.848
X121.348
Y61.808
G3 X121.448 Y61.708 I0.1
G1 X121.548
G18 G2 X121.648 Z-5.4 K0.1
G1 Y61.908
Z-5.9
G3 X121.548 Z-6 I-0.1
G1 X121.448
G17 G3 X121.348 Y61.808 J-0.1
G1 Y42.808
Y42.308
X115.348
Y17.808
Y17.308
X99.348
Y11.808
Y11.308
X78.348
Y17.308
X59.348
Y11.808
Y11.308
X38.348
Y17.308
X18.848
X18.348
Y42.308
X12.848
X12.348
Y68.308
X18.348
Y92.308
X12.848
X12.348
Y112.308
X121.348
Y92.308
X115.348
Y68.308
X120.848
X121.348
Y61.808
G3 X121.448 Y61.708 I0.1
G1 X121.548
G18 G2 X121.648 Z-5.9 K0.1
G0 Z15
G17
M9
G28 G91 Z0
G28 X0 Y0
M30
%
