%
(1)
(T3  D=1 CR=0 - ZMIN=-5 - flat end mill)
G90 G94
G17
G21
G28 G91 Z0
G90

(Front)
M9
T3 M6
S52521 M3
G54
M8
G0 X222.32 Y61.439
Z15
Z5
G1 Z2 F400
Z-0.9
G18 G2 X222.42 Z-1 I0.1
G1 X222.52
G17 G3 X222.62 Y61.539 J0.1
G1 Y68.539
Y69.039
X227.62
Y94.039
X223.12
X222.62
Y109.539
X333.62
Y94.039
X328.62
Y69.039
X333.12
X333.62
Y44.039
X328.62
Y19.039
Y18.539
X308.12
Y14.039
Y13.539
X288.12
Y18.539
X268.12
Y14.039
Y13.539
X248.12
Y18.539
X228.12
X227.62
Y44.039
X223.12
X222.62
Y61.539
G3 X222.52 Y61.639 I-0.1
G1 X222.42
G18 G3 X222.32 Z-0.9 K0.1
G1 Y61.439
Z-1.9
G2 X222.42 Z-2 I0.1
G1 X222.52
G17 G3 X222.62 Y61.539 J0.1
G1 Y68.539
Y69.039
X227.62
Y94.039
X223.12
X222.62
Y109.539
X333.62
Y94.039
X328.62
Y69.039
X333.12
X333.62
Y44.039
X328.62
Y19.039
Y18.539
X308.12
Y14.039
Y13.539
X288.12
Y18.539
X268.12
Y14.039
Y13.539
X248.12
Y18.539
X228.12
X227.62
Y44.039
X223.12
X222.62
Y61.539
G3 X222.52 Y61.639 I-0.1
G1 X222.42
G18 G3 X222.32 Z-1.9 K0.1
G1 Y61.439
Z-2.9
G2 X222.42 Z-3 I0.1
G1 X222.52
G17 G3 X222.62 Y61.539 J0.1
G1 Y68.539
Y69.039
X227.62
Y94.039
X223.12
X222.62
Y109.539
X333.62
Y94.039
X328.62
Y69.039
X333.12
X333.62
Y44.039
X328.62
Y19.039
Y18.539
X308.12
Y14.039
Y13.539
X288.12
Y18.539
X268.12
Y14.039
Y13.539
X248.12
Y18.539
X228.12
X227.62
Y44.039
X223.12
X222.62
Y61.539
G3 X222.52 Y61.639 I-0.1
G1 X222.42
G18 G3 X222.32 Z-2.9 K0.1
G1 Y61.439
Z-3.9
G2 X222.42 Z-4 I0.1
G1 X222.52
G17 G3 X222.62 Y61.539 J0.1
G1 Y68.539
Y69.039
X227.62
Y94.039
X223.12
X222.62
Y109.539
X333.62
Y94.039
X328.62
Y69.039
X333.12
X333.62
Y44.039
X328.62
Y19.039
Y18.539
X308.12
Y14.039
Y13.539
X288.12
Y18.539
X268.12
Y14.039
Y13.539
X248.12
Y18.539
X228.12
X227.62
Y44.039
X223.12
X222.62
Y61.539
G3 X222.52 Y61.639 I-0.1
G1 X222.42
G18 G3 X222.32 Z-3.9 K0.1
G1 Y61.439
Z-4.9
G2 X222.42 Z-5 I0.1
G1 X222.52
G17 G3 X222.62 Y61.539 J0.1
G1 Y68.539
Y69.039
X227.62
Y94.039
X223.12
X222.62
Y109.539
X333.62
Y94.039
X328.62
Y69.039
X333.12
X333.62
Y44.039
X328.62
Y19.039
Y18.539
X308.12
Y14.039
Y13.539
X288.12
Y18.539
X268.12
Y14.039
Y13.539
X248.12
Y18.539
X228.12
X227.62
Y44.039
X223.12
X222.62
Y61.539
G3 X222.52 Y61.639 I-0.1
G1 X222.42
G18 G3 X222.32 Z-4.9 K0.1
G0 Z15
G17
M9
G28 G91 Z0
G28 X0 Y0
M30
%
