%
(1)
(T3  D=1 CR=0 - ZMIN=-5 - flat end mill)
G90 G94
G17
G21
G28 G91 Z0
G90

(Slide Contour)
M9
T3 M6
S52521 M3
G54
M8
G0 X170.6 Y129.122
Z15
Z5
G1 Z2 F600
Z-0.9
G19 G3 Y129.222 Z-1 J0.1
G1 Y129.322
G17 G3 X170.5 Y129.422 I-0.1
G1 X129.5
Y134.422
X90.5
Y129.922
Y129.422
X49.5
Y134.422
X10
X9.5
Y160.422
X14.5
Y184.422
X10
X9.5
Y210.422
X14.5
Y234.922
Y235.422
X209.5
Y210.422
X214
X214.5
Y184.422
X209.5
Y160.422
X214
X214.5
Y134.422
X170.5
Y129.922
Y129.422
G3 X170.6 Y129.322 I0.1
G1 X170.7
G18 G2 X170.8 Z-0.9 K0.1
G1 X170.6 Y129.122
Z-1.9
G19 G3 Y129.222 Z-2 J0.1
G1 Y129.322
G17 G3 X170.5 Y129.422 I-0.1
G1 X129.5
Y134.422
X90.5
Y129.922
Y129.422
X49.5
Y134.422
X10
X9.5
Y160.422
X14.5
Y184.422
X10
X9.5
Y210.422
X14.5
Y234.922
Y235.422
X209.5
Y210.422
X214
X214.5
Y184.422
X209.5
Y160.422
X214
X214.5
Y134.422
X170.5
Y129.922
Y129.422
G3 X170.6 Y129.322 I0.1
G1 X170.7
G18 G2 X170.8 Z-1.9 K0.1
G1 X170.6 Y129.122
Z-2.9
G19 G3 Y129.222 Z-3 J0.1
G1 Y129.322
G17 G3 X170.5 Y129.422 I-0.1
G1 X129.5
Y134.422
X90.5
Y129.922
Y129.422
X49.5
Y134.422
X10
X9.5
Y160.422
X14.5
Y184.422
X10
X9.5
Y210.422
X14.5
Y234.922
Y235.422
X209.5
Y210.422
X214
X214.5
Y184.422
X209.5
Y160.422
X214
X214.5
Y134.422
X170.5
Y129.922
Y129.422
G3 X170.6 Y129.322 I0.1
G1 X170.7
G18 G2 X170.8 Z-2.9 K0.1
G1 X170.6 Y129.122
Z-3.9
G19 G3 Y129.222 Z-4 J0.1
G1 Y129.322
G17 G3 X170.5 Y129.422 I-0.1
G1 X129.5
Y134.422
X90.5
Y129.922
Y129.422
X49.5
Y134.422
X10
X9.5
Y160.422
X14.5
Y184.422
X10
X9.5
Y210.422
X14.5
Y234.922
Y235.422
X209.5
Y210.422
X214
X214.5
Y184.422
X209.5
Y160.422
X214
X214.5
Y134.422
X170.5
Y129.922
Y129.422
G3 X170.6 Y129.322 I0.1
G1 X170.7
G18 G2 X170.8 Z-3.9 K0.1
G1 X170.6 Y129.122
Z-4.9
G19 G3 Y129.222 Z-5 J0.1
G1 Y129.322
G17 G3 X170.5 Y129.422 I-0.1
G1 X129.5
Y134.422
X90.5
Y129.922
Y129.422
X49.5
Y134.422
X10
X9.5
Y160.422
X14.5
Y184.422
X10
X9.5
Y210.422
X14.5
Y234.922
Y235.422
X209.5
Y210.422
X214
X214.5
Y184.422
X209.5
Y160.422
X214
X214.5
Y134.422
X170.5
Y129.922
Y129.422
G3 X170.6 Y129.322 I0.1
G1 X170.7
G18 G2 X170.8 Z-4.9 K0.1
G0 Z15
G17
M9
G28 G91 Z0
G28 X0 Y0
M30
%
