%
(1)
(T3  D=1 CR=0 - ZMIN=-5 - flat end mill)
G90 G94
G17
G21
G28 G91 Z0
G90

(Side Holes)
M9
T3 M6
S52521 M3
G54
M8
G0 X139.711 Y49.466
Z15
Z5
G1 Z1.7 F400
Z-0.6
G18 G2 X139.811 Z-0.7 I0.1
G1 X139.911
G17 G3 X140.011 Y49.566 J0.1
X118.011 I-11
X140.011 I11
X139.911 Y49.666 I-0.1
G1 X139.811
G18 G3 X139.711 Z-0.6 K0.1
G1 Y49.466
Z-1.3
G2 X139.811 Z-1.4 I0.1
G1 X139.911
G17 G3 X140.011 Y49.566 J0.1
X118.011 I-11
X140.011 I11
X139.911 Y49.666 I-0.1
G1 X139.811
G18 G3 X139.711 Z-1.3 K0.1
G1 Y49.466
Z-2
G2 X139.811 Z-2.1 I0.1
G1 X139.911
G17 G3 X140.011 Y49.566 J0.1
X118.011 I-11
X140.011 I11
X139.911 Y49.666 I-0.1
G1 X139.811
G18 G3 X139.711 Z-2 K0.1
G1 Y49.466
Z-2.7
G2 X139.811 Z-2.8 I0.1
G1 X139.911
G17 G3 X140.011 Y49.566 J0.1
X118.011 I-11
X140.011 I11
X139.911 Y49.666 I-0.1
G1 X139.811
G18 G3 X139.711 Z-2.7 K0.1
G1 Y49.466
Z-3.4
G2 X139.811 Z-3.5 I0.1
G1 X139.911
G17 G3 X140.011 Y49.566 J0.1
X118.011 I-11
X140.011 I11
X139.911 Y49.666 I-0.1
G1 X139.811
G18 G3 X139.711 Z-3.4 K0.1
G1 Y49.466
Z-4.1
G2 X139.811 Z-4.2 I0.1
G1 X139.911
G17 G3 X140.011 Y49.566 J0.1
X118.011 I-11
X140.011 I11
X139.911 Y49.666 I-0.1
G1 X139.811
G18 G3 X139.711 Z-4.1 K0.1
G1 Y49.466
Z-4.5
G2 X139.811 Z-4.6 I0.1
G1 X139.911
G17 G3 X140.011 Y49.566 J0.1
X118.011 I-11
X140.011 I11
X139.911 Y49.666 I-0.1
G1 X139.811
G18 G3 X139.711 Z-4.5 K0.1
G1 Y49.466
Z-4.9
G2 X139.811 Z-5 I0.1
G1 X139.911
G17 G3 X140.011 Y49.566 J0.1
X118.011 I-11
X140.011 I11
X139.911 Y49.666 I-0.1
G1 X139.811
G18 G3 X139.711 Z-4.9 K0.1
G0 Z5
X176.378 Y49.466
G1 Z1.7 F400
Z-0.6
G2 X176.478 Z-0.7 I0.1
G1 X176.578
G17 G3 X176.678 Y49.566 J0.1
X154.678 I-11
X176.678 I11
X176.578 Y49.666 I-0.1
G1 X176.478
G18 G3 X176.378 Z-0.6 K0.1
G1 Y49.466
Z-1.3
G2 X176.478 Z-1.4 I0.1
G1 X176.578
G17 G3 X176.678 Y49.566 J0.1
X154.678 I-11
X176.678 I11
X176.578 Y49.666 I-0.1
G1 X176.478
G18 G3 X176.378 Z-1.3 K0.1
G1 Y49.466
Z-2
G2 X176.478 Z-2.1 I0.1
G1 X176.578
G17 G3 X176.678 Y49.566 J0.1
X154.678 I-11
X176.678 I11
X176.578 Y49.666 I-0.1
G1 X176.478
G18 G3 X176.378 Z-2 K0.1
G1 Y49.466
Z-2.7
G2 X176.478 Z-2.8 I0.1
G1 X176.578
G17 G3 X176.678 Y49.566 J0.1
X154.678 I-11
X176.678 I11
X176.578 Y49.666 I-0.1
G1 X176.478
G18 G3 X176.378 Z-2.7 K0.1
G1 Y49.466
Z-3.4
G2 X176.478 Z-3.5 I0.1
G1 X176.578
G17 G3 X176.678 Y49.566 J0.1
X154.678 I-11
X176.678 I11
X176.578 Y49.666 I-0.1
G1 X176.478
G18 G3 X176.378 Z-3.4 K0.1
G1 Y49.466
Z-4.1
G2 X176.478 Z-4.2 I0.1
G1 X176.578
G17 G3 X176.678 Y49.566 J0.1
X154.678 I-11
X176.678 I11
X176.578 Y49.666 I-0.1
G1 X176.478
G18 G3 X176.378 Z-4.1 K0.1
G1 Y49.466
Z-4.5
G2 X176.478 Z-4.6 I0.1
G1 X176.578
G17 G3 X176.678 Y49.566 J0.1
X154.678 I-11
X176.678 I11
X176.578 Y49.666 I-0.1
G1 X176.478
G18 G3 X176.378 Z-4.5 K0.1
G1 Y49.466
Z-4.9
G2 X176.478 Z-5 I0.1
G1 X176.578
G17 G3 X176.678 Y49.566 J0.1
X154.678 I-11
X176.678 I11
X176.578 Y49.666 I-0.1
G1 X176.478
G18 G3 X176.378 Z-4.9 K0.1
G0 Z5
X103.044 Y49.466
G1 Z1.7 F400
Z-0.6
G2 X103.144 Z-0.7 I0.1
G1 X103.244
G17 G3 X103.344 Y49.566 J0.1
X81.344 I-11
X103.344 I11
X103.244 Y49.666 I-0.1
G1 X103.144
G18 G3 X103.044 Z-0.6 K0.1
G1 Y49.466
Z-1.3
G2 X103.144 Z-1.4 I0.1
G1 X103.244
G17 G3 X103.344 Y49.566 J0.1
X81.344 I-11
X103.344 I11
X103.244 Y49.666 I-0.1
G1 X103.144
G18 G3 X103.044 Z-1.3 K0.1
G1 Y49.466
Z-2
G2 X103.144 Z-2.1 I0.1
G1 X103.244
G17 G3 X103.344 Y49.566 J0.1
X81.344 I-11
X103.344 I11
X103.244 Y49.666 I-0.1
G1 X103.144
G18 G3 X103.044 Z-2 K0.1
G1 Y49.466
Z-2.7
G2 X103.144 Z-2.8 I0.1
G1 X103.244
G17 G3 X103.344 Y49.566 J0.1
X81.344 I-11
X103.344 I11
X103.244 Y49.666 I-0.1
G1 X103.144
G18 G3 X103.044 Z-2.7 K0.1
G1 Y49.466
Z-3.4
G2 X103.144 Z-3.5 I0.1
G1 X103.244
G17 G3 X103.344 Y49.566 J0.1
X81.344 I-11
X103.344 I11
X103.244 Y49.666 I-0.1
G1 X103.144
G18 G3 X103.044 Z-3.4 K0.1
G1 Y49.466
Z-4.1
G2 X103.144 Z-4.2 I0.1
G1 X103.244
G17 G3 X103.344 Y49.566 J0.1
X81.344 I-11
X103.344 I11
X103.244 Y49.666 I-0.1
G1 X103.144
G18 G3 X103.044 Z-4.1 K0.1
G1 Y49.466
Z-4.5
G2 X103.144 Z-4.6 I0.1
G1 X103.244
G17 G3 X103.344 Y49.566 J0.1
X81.344 I-11
X103.344 I11
X103.244 Y49.666 I-0.1
G1 X103.144
G18 G3 X103.044 Z-4.5 K0.1
G1 Y49.466
Z-4.9
G2 X103.144 Z-5 I0.1
G1 X103.244
G17 G3 X103.344 Y49.566 J0.1
X81.344 I-11
X103.344 I11
X103.244 Y49.666 I-0.1
G1 X103.144
G18 G3 X103.044 Z-4.9 K0.1
G0 Z5
X66.378 Y49.466
G1 Z1.7 F400
Z-0.6
G2 X66.478 Z-0.7 I0.1
G1 X66.578
G17 G3 X66.678 Y49.566 J0.1
X44.678 I-11
X66.678 I11
X66.578 Y49.666 I-0.1
G1 X66.478
G18 G3 X66.378 Z-0.6 K0.1
G1 X66.377 Y49.728
Z-1.3
X66.385 Y49.729 Z-1.338
X66.406 Z-1.371
X66.439 Y49.73 Z-1.392
X66.477 Y49.731 Z-1.4
X66.577 Y49.733
G17 G3 X66.674 Y49.836 I-0.002 J0.1
X44.681 Y49.296 I-10.997 J-0.27
X66.678 Y49.566 I10.997 J0.27
X66.674 Y49.836 I-11
X66.572 Y49.933 I-0.1 J-0.002
G1 X66.472 Y49.931
X66.434 Y49.93 Z-1.392
X66.401 Y49.929 Z-1.371
X66.38 Z-1.338
X66.372 Y49.928 Z-1.3
X66.378 Y49.466
Z-2
G18 G2 X66.478 Z-2.1 I0.1
G1 X66.578
G17 G3 X66.678 Y49.566 J0.1
X44.678 I-11
X66.678 I11
X66.578 Y49.666 I-0.1
G1 X66.478
G18 G3 X66.378 Z-2 K0.1
G1 Y49.466
Z-2.7
G2 X66.478 Z-2.8 I0.1
G1 X66.578
G17 G3 X66.678 Y49.566 J0.1
X44.678 I-11
X66.678 I11
X66.578 Y49.666 I-0.1
G1 X66.478
G18 G3 X66.378 Z-2.7 K0.1
G1 Y49.466
Z-3.4
G2 X66.478 Z-3.5 I0.1
G1 X66.578
G17 G3 X66.678 Y49.566 J0.1
X44.678 I-11
X66.678 I11
X66.578 Y49.666 I-0.1
G1 X66.478
G18 G3 X66.378 Z-3.4 K0.1
G1 Y49.466
Z-4.1
G2 X66.478 Z-4.2 I0.1
G1 X66.578
G17 G3 X66.678 Y49.566 J0.1
X44.678 I-11
X66.678 I11
X66.578 Y49.666 I-0.1
G1 X66.478
G18 G3 X66.378 Z-4.1 K0.1
G1 Y49.466
Z-4.5
G2 X66.478 Z-4.6 I0.1
G1 X66.578
G17 G3 X66.678 Y49.566 J0.1
X44.678 I-11
X66.678 I11
X66.578 Y49.666 I-0.1
G1 X66.478
G18 G3 X66.378 Z-4.5 K0.1
G1 X66.377 Y49.728
Z-4.9
X66.385 Y49.729 Z-4.938
X66.406 Z-4.971
X66.439 Y49.73 Z-4.992
X66.477 Y49.731 Z-5
X66.577 Y49.733
G17 G3 X66.674 Y49.836 I-0.002 J0.1
X44.681 Y49.296 I-10.997 J-0.27
X66.678 Y49.566 I10.997 J0.27
X66.674 Y49.836 I-11
X66.572 Y49.933 I-0.1 J-0.002
G1 X66.472 Y49.931
X66.434 Y49.93 Z-4.992
X66.401 Y49.929 Z-4.971
X66.38 Z-4.938
X66.372 Y49.928 Z-4.9
G0 Z15
M9
G28 G91 Z0
G28 X0 Y0
M30
%
