%
(1)
(T4  D=3.175 CR=0 - ZMIN=-3 - flat end mill)
G90 G94
G17
G21
G28 G91 Z0
G90

(Side Slot)
M9
T4 M6
S16542 M3
G54
M8
G0 X12.686 Y107.824
Z15
Z5
G1 Z-0.214 F400
X12.693 Y107.823 Z-0.278
X12.714 Y107.82 Z-0.338
X12.748 Y107.814 Z-0.392
X12.793 Y107.807 Z-0.438
X12.846 Y107.799 Z-0.472
X12.906 Y107.789 Z-0.493
X12.969 Y107.779 Z-0.5
X14.155 Y107.591
G3 X14.205 Y107.588 I0.05 J0.314
G1 X205.678
X207.151
G3 X207.351 Y107.787 J0.2
G1 Y110.212
G3 X207.151 Y110.412 I-0.2
G1 X15.678
X14.205
G3 X14.011 Y110.264 J-0.2
G1 X13.384 Y107.888
G3 X13.561 Y107.637 I0.193 J-0.051
G1 X13.622 Y107.632 Z-0.506
X13.681 Y107.628 Z-0.524
X13.735 Y107.623 Z-0.552
X13.783 Y107.62 Z-0.591
X13.822 Y107.617 Z-0.638
X13.852 Y107.614 Z-0.692
X13.87 Y107.613 Z-0.75
X13.889 Y107.611 Z-0.808
X13.919 Y107.609 Z-0.862
X13.958 Y107.606 Z-0.909
X14.006 Y107.602 Z-0.948
X14.06 Y107.598 Z-0.976
X14.119 Y107.593 Z-0.994
X14.18 Y107.588 Z-1
G3 X14.205 I0.025 J0.315
G1 X205.678
X207.151
G3 X207.351 Y107.787 J0.2
G1 Y110.212
G3 X207.151 Y110.412 I-0.2
G1 X15.678
X14.205
G3 X14.011 Y110.264 J-0.2
G1 X13.384 Y107.888
G3 X13.561 Y107.637 I0.193 J-0.051
G1 X13.622 Y107.632 Z-1.006
X13.681 Y107.628 Z-1.024
X13.735 Y107.623 Z-1.052
X13.783 Y107.62 Z-1.091
X13.822 Y107.617 Z-1.138
X13.852 Y107.614 Z-1.192
X13.87 Y107.613 Z-1.25
X13.889 Y107.611 Z-1.308
X13.919 Y107.609 Z-1.362
X13.958 Y107.606 Z-1.409
X14.006 Y107.602 Z-1.448
X14.06 Y107.598 Z-1.476
X14.119 Y107.593 Z-1.494
X14.18 Y107.588 Z-1.5
G3 X14.205 I0.025 J0.315
G1 X205.678
X207.151
G3 X207.351 Y107.787 J0.2
G1 Y110.212
G3 X207.151 Y110.412 I-0.2
G1 X15.678
X14.205
G3 X14.011 Y110.264 J-0.2
G1 X13.384 Y107.888
G3 X13.561 Y107.637 I0.193 J-0.051
G1 X13.622 Y107.632 Z-1.506
X13.681 Y107.628 Z-1.524
X13.735 Y107.623 Z-1.552
X13.783 Y107.62 Z-1.591
X13.822 Y107.617 Z-1.638
X13.852 Y107.614 Z-1.692
X13.87 Y107.613 Z-1.75
X13.889 Y107.611 Z-1.808
X13.919 Y107.609 Z-1.862
X13.958 Y107.606 Z-1.909
X14.006 Y107.602 Z-1.948
X14.06 Y107.598 Z-1.976
X14.119 Y107.593 Z-1.994
X14.18 Y107.588 Z-2
G3 X14.205 I0.025 J0.315
G1 X205.678
X207.151
G3 X207.351 Y107.787 J0.2
G1 Y110.212
G3 X207.151 Y110.412 I-0.2
G1 X15.678
X14.205
G3 X14.011 Y110.264 J-0.2
G1 X13.384 Y107.888
G3 X13.561 Y107.637 I0.193 J-0.051
G1 X13.622 Y107.632 Z-2.006
X13.681 Y107.628 Z-2.024
X13.735 Y107.623 Z-2.052
X13.783 Y107.62 Z-2.091
X13.822 Y107.617 Z-2.138
X13.852 Y107.614 Z-2.192
X13.87 Y107.613 Z-2.25
X13.889 Y107.611 Z-2.308
X13.919 Y107.609 Z-2.362
X13.958 Y107.606 Z-2.409
X14.006 Y107.602 Z-2.448
X14.06 Y107.598 Z-2.476
X14.119 Y107.593 Z-2.494
X14.18 Y107.588 Z-2.5
G3 X14.205 I0.025 J0.315
G1 X205.678
X207.151
G3 X207.351 Y107.787 J0.2
G1 Y110.212
G3 X207.151 Y110.412 I-0.2
G1 X15.678
X14.205
G3 X14.011 Y110.264 J-0.2
G1 X13.384 Y107.888
G3 X13.561 Y107.637 I0.193 J-0.051
G1 X13.622 Y107.632 Z-2.506
X13.681 Y107.628 Z-2.524
X13.735 Y107.623 Z-2.552
X13.783 Y107.62 Z-2.591
X13.822 Y107.617 Z-2.638
X13.852 Y107.614 Z-2.692
X13.87 Y107.613 Z-2.75
X13.889 Y107.611 Z-2.808
X13.919 Y107.609 Z-2.862
X13.958 Y107.606 Z-2.909
X14.006 Y107.602 Z-2.948
X14.06 Y107.598 Z-2.976
X14.119 Y107.593 Z-2.994
X14.18 Y107.588 Z-3
G3 X14.205 I0.025 J0.315
G1 X205.678
X207.151
G3 X207.351 Y107.787 J0.2
G1 Y110.212
G3 X207.151 Y110.412 I-0.2
G1 X15.678
X14.205
G3 X14.155 Y110.409 J-0.317
G1 X13.028 Y110.23
X12.958 Y110.219 Z-2.992
X12.892 Y110.209 Z-2.969
X12.833 Y110.199 Z-2.931
X12.783 Y110.191 Z-2.88
X12.746 Y110.185 Z-2.82
X12.722 Y110.182 Z-2.753
X12.715 Y110.18 Z-2.682
G0 Z15
M9
G28 G91 Z0
G28 X0 Y0
M30
%
