%
(1)
(T1  D=3.175 CR=0 - ZMIN=-4 - flat end mill)
G90 G94
G17
G21
G28 G91 Z0
G90

(2D Contour4)
M9
T1 M6
S16542 M3
G54
M8
G0 X170.767 Y119.087
Z15
Z5
G1 Z2 F600
Z-0.683
X170.765 Y119.095 Z-0.753
X170.761 Y119.118 Z-0.82
X170.754 Y119.155 Z-0.88
X170.745 Y119.204 Z-0.931
X170.734 Y119.264 Z-0.969
X170.722 Y119.33 Z-0.992
X170.71 Y119.399 Z-1
X170.653 Y119.711
G3 X170.284 Y119.967 I-0.312 J-0.057
G2 X170 Y119.941 I-0.284 J1.562
G1 X130
G2 X128.413 Y121.529 J1.588
G1 Y123.941
X91.588
Y121.769
G2 X90 Y120.182 I-1.588
G1 X50
G2 X48.412 Y121.769 J1.587
G1 Y124.182
X10
G2 X8.413 Y125.769 J1.587
G1 Y150.769
G2 X10 Y152.357 I1.587
G1 X12.413
Y174.182
X10
G2 X8.413 Y175.769 J1.587
G1 Y200.769
G2 X10 Y202.357 I1.587
G1 X12.413
Y225.769
G2 X14 Y227.357 I1.587
G1 X209.993
G2 X211.581 Y225.769 J-1.588
G1 Y202.357
X213.993
G2 X215.581 Y200.769 J-1.588
G1 Y175.769
G2 X214.088 Y174.184 I-1.588
G1 X211.587 Y174.034
Y152.117
X214
G2 X215.587 Y150.529 J-1.587
G1 Y125.529
G2 X214 Y123.941 I-1.587
G1 X171.587
Y121.529
G2 X170.284 Y119.967 I-1.587
G3 X170.028 Y119.598 I0.057 J-0.312
G1 X170.085 Y119.286
X170.098 Y119.216 Z-0.992
X170.11 Y119.15 Z-0.969
X170.12 Y119.091 Z-0.931
X170.129 Y119.041 Z-0.88
X170.136 Y119.004 Z-0.82
X170.14 Y118.981 Z-0.753
X170.142 Y118.973 Z-0.683
X170.767 Y119.087
Z-1.683
X170.765 Y119.095 Z-1.753
X170.761 Y119.118 Z-1.82
X170.754 Y119.155 Z-1.88
X170.745 Y119.204 Z-1.931
X170.734 Y119.264 Z-1.969
X170.722 Y119.33 Z-1.992
X170.71 Y119.399 Z-2
X170.653 Y119.711
G3 X170.284 Y119.967 I-0.312 J-0.057
G2 X170 Y119.941 I-0.284 J1.562
G1 X130
G2 X128.413 Y121.529 J1.588
G1 Y123.941
X91.588
Y121.769
G2 X90 Y120.182 I-1.588
G1 X50
G2 X48.412 Y121.769 J1.587
G1 Y124.182
X10
G2 X8.413 Y125.769 J1.587
G1 Y150.769
G2 X10 Y152.357 I1.587
G1 X12.413
Y174.182
X10
G2 X8.413 Y175.769 J1.587
G1 Y200.769
G2 X10 Y202.357 I1.587
G1 X12.413
Y225.769
G2 X14 Y227.357 I1.587
G1 X209.993
G2 X211.581 Y225.769 J-1.588
G1 Y202.357
X213.993
G2 X215.581 Y200.769 J-1.588
G1 Y175.769
G2 X214.088 Y174.184 I-1.588
G1 X211.587 Y174.034
Y152.117
X214
G2 X215.587 Y150.529 J-1.587
G1 Y125.529
G2 X214 Y123.941 I-1.587
G1 X171.587
Y121.529
G2 X170.284 Y119.967 I-1.587
G3 X170.028 Y119.598 I0.057 J-0.312
G1 X170.085 Y119.286
X170.098 Y119.216 Z-1.992
X170.11 Y119.15 Z-1.969
X170.12 Y119.091 Z-1.931
X170.129 Y119.041 Z-1.88
X170.136 Y119.004 Z-1.82
X170.14 Y118.981 Z-1.753
X170.142 Y118.973 Z-1.683
X170.767 Y119.087
Z-2.683
X170.765 Y119.095 Z-2.753
X170.761 Y119.118 Z-2.82
X170.754 Y119.155 Z-2.88
X170.745 Y119.204 Z-2.931
X170.734 Y119.264 Z-2.969
X170.722 Y119.33 Z-2.992
X170.71 Y119.399 Z-3
X170.653 Y119.711
G3 X170.284 Y119.967 I-0.312 J-0.057
G2 X170 Y119.941 I-0.284 J1.562
G1 X130
G2 X128.413 Y121.529 J1.588
G1 Y123.941
X91.588
Y121.769
G2 X90 Y120.182 I-1.588
G1 X50
G2 X48.412 Y121.769 J1.587
G1 Y124.182
X10
G2 X8.413 Y125.769 J1.587
G1 Y150.769
G2 X10 Y152.357 I1.587
G1 X12.413
Y174.182
X10
G2 X8.413 Y175.769 J1.587
G1 Y200.769
G2 X10 Y202.357 I1.587
G1 X12.413
Y225.769
G2 X14 Y227.357 I1.587
G1 X209.993
G2 X211.581 Y225.769 J-1.588
G1 Y202.357
X213.993
G2 X215.581 Y200.769 J-1.588
G1 Y175.769
G2 X214.088 Y174.184 I-1.588
G1 X211.587 Y174.034
Y152.117
X214
G2 X215.587 Y150.529 J-1.587
G1 Y125.529
G2 X214 Y123.941 I-1.587
G1 X171.587
Y121.529
G2 X170.284 Y119.967 I-1.587
G3 X170.028 Y119.598 I0.057 J-0.312
G1 X170.085 Y119.286
X170.098 Y119.216 Z-2.992
X170.11 Y119.15 Z-2.969
X170.12 Y119.091 Z-2.931
X170.129 Y119.041 Z-2.88
X170.136 Y119.004 Z-2.82
X170.14 Y118.981 Z-2.753
X170.142 Y118.973 Z-2.683
X170.767 Y119.087
Z-3.683
X170.765 Y119.095 Z-3.753
X170.761 Y119.118 Z-3.82
X170.754 Y119.155 Z-3.88
X170.745 Y119.204 Z-3.931
X170.734 Y119.264 Z-3.969
X170.722 Y119.33 Z-3.992
X170.71 Y119.399 Z-4
X170.653 Y119.711
G3 X170.284 Y119.967 I-0.312 J-0.057
G2 X170 Y119.941 I-0.284 J1.562
G1 X130
G2 X128.413 Y121.529 J1.588
G1 Y123.941
X91.588
Y121.769
G2 X90 Y120.182 I-1.588
G1 X50
G2 X48.412 Y121.769 J1.587
G1 Y124.182
X10
G2 X8.413 Y125.769 J1.587
G1 Y150.769
G2 X10 Y152.357 I1.587
G1 X12.413
Y174.182
X10
G2 X8.413 Y175.769 J1.587
G1 Y200.769
G2 X10 Y202.357 I1.587
G1 X12.413
Y225.769
G2 X14 Y227.357 I1.587
G1 X209.993
G2 X211.581 Y225.769 J-1.588
G1 Y202.357
X213.993
G2 X215.581 Y200.769 J-1.588
G1 Y175.769
G2 X214.088 Y174.184 I-1.588
G1 X211.587 Y174.034
Y152.117
X214
G2 X215.587 Y150.529 J-1.587
G1 Y125.529
G2 X214 Y123.941 I-1.587
G1 X171.587
Y121.529
G2 X170.284 Y119.967 I-1.587
G3 X170.028 Y119.598 I0.057 J-0.312
G1 X170.085 Y119.286
X170.098 Y119.216 Z-3.992
X170.11 Y119.15 Z-3.969
X170.12 Y119.091 Z-3.931
X170.129 Y119.041 Z-3.88
X170.136 Y119.004 Z-3.82
X170.14 Y118.981 Z-3.753
X170.142 Y118.973 Z-3.683
G0 Z15
M9
G28 G91 Z0
G28 X0 Y0
M30
%
