%
(1)
(T2  D=2 CR=0 - ZMIN=-5 - flat end mill)
G90 G94
G17
G21
G28 G91 Z0
G90

(Side Holes)
M9
T2 M6
S26261 M3
G54
M8
G0 X138.911 Y49.766
Z15
Z5
G1 Z2 F400
Z-0.8 F200
G18 G2 X139.111 Z-1 I0.2
G1 X139.311 F400
G17 G2 X139.511 Y49.566 J-0.2
X118.511 I-10.5
X139.511 I10.5
X139.311 Y49.366 I-0.2
G1 X139.111
G18 G3 X138.911 Z-0.8 K0.2
G1 Y49.766
Z-1.8 F200
G2 X139.111 Z-2 I0.2
G1 X139.311 F400
G17 G2 X139.511 Y49.566 J-0.2
X118.511 I-10.5
X139.511 I10.5
X139.311 Y49.366 I-0.2
G1 X139.111
G18 G3 X138.911 Z-1.8 K0.2
G1 Y49.766
Z-2.8 F200
G2 X139.111 Z-3 I0.2
G1 X139.311 F400
G17 G2 X139.511 Y49.566 J-0.2
X118.511 I-10.5
X139.511 I10.5
X139.311 Y49.366 I-0.2
G1 X139.111
G18 G3 X138.911 Z-2.8 K0.2
G1 Y49.766
Z-3.8 F200
G2 X139.111 Z-4 I0.2
G1 X139.311 F400
G17 G2 X139.511 Y49.566 J-0.2
X118.511 I-10.5
X139.511 I10.5
X139.311 Y49.366 I-0.2
G1 X139.111
G18 G3 X138.911 Z-3.8 K0.2
G1 Y49.766
Z-4.8 F200
G2 X139.111 Z-5 I0.2
G1 X139.311 F400
G17 G2 X139.511 Y49.566 J-0.2
X118.511 I-10.5
X139.511 I10.5
X139.311 Y49.366 I-0.2
G1 X139.111
G18 G3 X138.911 Z-4.8 K0.2
G0 Z5
X175.578 Y49.766
G1 Z2 F400
Z-0.8 F200
G2 X175.778 Z-1 I0.2
G1 X175.978 F400
G17 G2 X176.178 Y49.566 J-0.2
X155.178 I-10.5
X176.178 I10.5
X175.978 Y49.366 I-0.2
G1 X175.778
G18 G3 X175.578 Z-0.8 K0.2
G1 Y49.766
Z-1.8 F200
G2 X175.778 Z-2 I0.2
G1 X175.978 F400
G17 G2 X176.178 Y49.566 J-0.2
X155.178 I-10.5
X176.178 I10.5
X175.978 Y49.366 I-0.2
G1 X175.778
G18 G3 X175.578 Z-1.8 K0.2
G1 Y49.766
Z-2.8 F200
G2 X175.778 Z-3 I0.2
G1 X175.978 F400
G17 G2 X176.178 Y49.566 J-0.2
X155.178 I-10.5
X176.178 I10.5
X175.978 Y49.366 I-0.2
G1 X175.778
G18 G3 X175.578 Z-2.8 K0.2
G1 Y49.766
Z-3.8 F200
G2 X175.778 Z-4 I0.2
G1 X175.978 F400
G17 G2 X176.178 Y49.566 J-0.2
X155.178 I-10.5
X176.178 I10.5
X175.978 Y49.366 I-0.2
G1 X175.778
G18 G3 X175.578 Z-3.8 K0.2
G1 Y49.766
Z-4.8 F200
G2 X175.778 Z-5 I0.2
G1 X175.978 F400
G17 G2 X176.178 Y49.566 J-0.2
X155.178 I-10.5
X176.178 I10.5
X175.978 Y49.366 I-0.2
G1 X175.778
G18 G3 X175.578 Z-4.8 K0.2
G0 Z5
X102.244 Y49.766
G1 Z2 F400
Z-0.8 F200
G2 X102.444 Z-1 I0.2
G1 X102.644 F400
G17 G2 X102.844 Y49.566 J-0.2
X81.844 I-10.5
X102.844 I10.5
X102.644 Y49.366 I-0.2
G1 X102.444
G18 G3 X102.244 Z-0.8 K0.2
G1 Y49.766
Z-1.8 F200
G2 X102.444 Z-2 I0.2
G1 X102.644 F400
G17 G2 X102.844 Y49.566 J-0.2
X81.844 I-10.5
X102.844 I10.5
X102.644 Y49.366 I-0.2
G1 X102.444
G18 G3 X102.244 Z-1.8 K0.2
G1 Y49.766
Z-2.8 F200
G2 X102.444 Z-3 I0.2
G1 X102.644 F400
G17 G2 X102.844 Y49.566 J-0.2
X81.844 I-10.5
X102.844 I10.5
X102.644 Y49.366 I-0.2
G1 X102.444
G18 G3 X102.244 Z-2.8 K0.2
G1 Y49.766
Z-3.8 F200
G2 X102.444 Z-4 I0.2
G1 X102.644 F400
G17 G2 X102.844 Y49.566 J-0.2
X81.844 I-10.5
X102.844 I10.5
X102.644 Y49.366 I-0.2
G1 X102.444
G18 G3 X102.244 Z-3.8 K0.2
G1 Y49.766
Z-4.8 F200
G2 X102.444 Z-5 I0.2
G1 X102.644 F400
G17 G2 X102.844 Y49.566 J-0.2
X81.844 I-10.5
X102.844 I10.5
X102.644 Y49.366 I-0.2
G1 X102.444
G18 G3 X102.244 Z-4.8 K0.2
G0 Z5
X65.578 Y49.766
G1 Z2 F400
Z-0.8 F200
G2 X65.778 Z-1 I0.2
G1 X65.978 F400
G17 G2 X66.178 Y49.566 J-0.2
X45.178 I-10.5
X66.178 I10.5
X65.978 Y49.366 I-0.2
G1 X65.778
G18 G3 X65.578 Z-0.8 K0.2
G1 Y49.766
Z-1.8 F200
G2 X65.778 Z-2 I0.2
G1 X65.978 F400
G17 G2 X66.178 Y49.566 J-0.2
X45.178 I-10.5
X66.178 I10.5
X65.978 Y49.366 I-0.2
G1 X65.778
G18 G3 X65.578 Z-1.8 K0.2
G1 Y49.766
Z-2.8 F200
G2 X65.778 Z-3 I0.2
G1 X65.978 F400
G17 G2 X66.178 Y49.566 J-0.2
X45.178 I-10.5
X66.178 I10.5
X65.978 Y49.366 I-0.2
G1 X65.778
G18 G3 X65.578 Z-2.8 K0.2
G1 Y49.766
Z-3.8 F200
G2 X65.778 Z-4 I0.2
G1 X65.978 F400
G17 G2 X66.178 Y49.566 J-0.2
X45.178 I-10.5
X66.178 I10.5
X65.978 Y49.366 I-0.2
G1 X65.778
G18 G3 X65.578 Z-3.8 K0.2
G1 Y49.766
Z-4.8 F200
G2 X65.778 Z-5 I0.2
G1 X65.978 F400
G17 G2 X66.178 Y49.566 J-0.2
X45.178 I-10.5
X66.178 I10.5
X65.978 Y49.366 I-0.2
G1 X65.778
G18 G3 X65.578 Z-4.8 K0.2
G0 Z15
G17
M9
G28 G91 Z0
G28 X0 Y0
M30
%
