%
(1)
(T3  D=1 CR=0 - ZMIN=-5 - flat end mill)
G90 G94
G17
G21
G28 G91 Z0
G90

(Side Contour)
M9
T3 M6
S52521 M3
G54
M8
G0 X170.778 Y15.161
Z15
Z5
G1 Z1.7 F600
Z-0.6
G19 G3 Y15.261 Z-0.7 J0.1
G1 Y15.361
G17 G3 X170.678 Y15.461 I-0.1
G1 X130.678
Y20.461
X90.678
Y15.961
Y15.461
X50.678
Y20.461
X10.678
X10.178
Y46.461
X15.178
Y70.461
X10.678
X10.178
Y96.461
X15.178
Y120.961
Y121.461
X206.178
Y96.461
X210.678
X211.178
Y70.461
X206.178
Y46.461
X210.678
X211.178
Y20.461
X170.678
Y15.961
Y15.461
G3 X170.778 Y15.361 I0.1
G1 X170.878
G18 G2 X170.978 Z-0.6 K0.1
G1 X170.778 Y15.161
Z-1.3
G19 G3 Y15.261 Z-1.4 J0.1
G1 Y15.361
G17 G3 X170.678 Y15.461 I-0.1
G1 X130.678
Y20.461
X90.678
Y15.961
Y15.461
X50.678
Y20.461
X10.678
X10.178
Y46.461
X15.178
Y70.461
X10.678
X10.178
Y96.461
X15.178
Y120.961
Y121.461
X206.178
Y96.461
X210.678
X211.178
Y70.461
X206.178
Y46.461
X210.678
X211.178
Y20.461
X170.678
Y15.961
Y15.461
G3 X170.778 Y15.361 I0.1
G1 X170.878
G18 G2 X170.978 Z-1.3 K0.1
G1 X170.778 Y15.161
Z-2
G19 G3 Y15.261 Z-2.1 J0.1
G1 Y15.361
G17 G3 X170.678 Y15.461 I-0.1
G1 X130.678
Y20.461
X90.678
Y15.961
Y15.461
X50.678
Y20.461
X10.678
X10.178
Y46.461
X15.178
Y70.461
X10.678
X10.178
Y96.461
X15.178
Y120.961
Y121.461
X206.178
Y96.461
X210.678
X211.178
Y70.461
X206.178
Y46.461
X210.678
X211.178
Y20.461
X170.678
Y15.961
Y15.461
G3 X170.778 Y15.361 I0.1
G1 X170.878
G18 G2 X170.978 Z-2 K0.1
G1 X170.778 Y15.161
Z-2.7
G19 G3 Y15.261 Z-2.8 J0.1
G1 Y15.361
G17 G3 X170.678 Y15.461 I-0.1
G1 X130.678
Y20.461
X90.678
Y15.961
Y15.461
X50.678
Y20.461
X10.678
X10.178
Y46.461
X15.178
Y70.461
X10.678
X10.178
Y96.461
X15.178
Y120.961
Y121.461
X206.178
Y96.461
X210.678
X211.178
Y70.461
X206.178
Y46.461
X210.678
X211.178
Y20.461
X170.678
Y15.961
Y15.461
G3 X170.778 Y15.361 I0.1
G1 X170.878
G18 G2 X170.978 Z-2.7 K0.1
G1 X170.778 Y15.161
Z-3.4
G19 G3 Y15.261 Z-3.5 J0.1
G1 Y15.361
G17 G3 X170.678 Y15.461 I-0.1
G1 X130.678
Y20.461
X90.678
Y15.961
Y15.461
X50.678
Y20.461
X10.678
X10.178
Y46.461
X15.178
Y70.461
X10.678
X10.178
Y96.461
X15.178
Y120.961
Y121.461
X206.178
Y96.461
X210.678
X211.178
Y70.461
X206.178
Y46.461
X210.678
X211.178
Y20.461
X170.678
Y15.961
Y15.461
G3 X170.778 Y15.361 I0.1
G1 X170.878
G18 G2 X170.978 Z-3.4 K0.1
G1 X170.778 Y15.161
Z-4.1
G19 G3 Y15.261 Z-4.2 J0.1
G1 Y15.361
G17 G3 X170.678 Y15.461 I-0.1
G1 X130.678
Y20.461
X90.678
Y15.961
Y15.461
X50.678
Y20.461
X10.678
X10.178
Y46.461
X15.178
Y70.461
X10.678
X10.178
Y96.461
X15.178
Y120.961
Y121.461
X206.178
Y96.461
X210.678
X211.178
Y70.461
X206.178
Y46.461
X210.678
X211.178
Y20.461
X170.678
Y15.961
Y15.461
G3 X170.778 Y15.361 I0.1
G1 X170.878
G18 G2 X170.978 Z-4.1 K0.1
G1 X170.778 Y15.161
Z-4.5
G19 G3 Y15.261 Z-4.6 J0.1
G1 Y15.361
G17 G3 X170.678 Y15.461 I-0.1
G1 X130.678
Y20.461
X90.678
Y15.961
Y15.461
X50.678
Y20.461
X10.678
X10.178
Y46.461
X15.178
Y70.461
X10.678
X10.178
Y96.461
X15.178
Y120.961
Y121.461
X206.178
Y96.461
X210.678
X211.178
Y70.461
X206.178
Y46.461
X210.678
X211.178
Y20.461
X170.678
Y15.961
Y15.461
G3 X170.778 Y15.361 I0.1
G1 X170.878
G18 G2 X170.978 Z-4.5 K0.1
G1 X170.778 Y15.161
Z-4.9
G19 G3 Y15.261 Z-5 J0.1
G1 Y15.361
G17 G3 X170.678 Y15.461 I-0.1
G1 X130.678
Y20.461
X90.678
Y15.961
Y15.461
X50.678
Y20.461
X10.678
X10.178
Y46.461
X15.178
Y70.461
X10.678
X10.178
Y96.461
X15.178
Y120.961
Y121.461
X206.178
Y96.461
X210.678
X211.178
Y70.461
X206.178
Y46.461
X210.678
X211.178
Y20.461
X170.678
Y15.961
Y15.461
G3 X170.778 Y15.361 I0.1
G1 X170.878
G18 G2 X170.978 Z-4.9 K0.1
G0 Z15
G17
M9
G28 G91 Z0
G28 X0 Y0
M30
%
