%
(1)
(T3  D=1 CR=0 - ZMIN=-5 - flat end mill)
G90 G94
G17
G21
G28 G91 Z0
G90

(Slide Contour)
M9
T3 M6
S52521 M3
G54
M8
G0 X170.778 Y9.2
Z15
Z5
G1 Z2 F600
Z-0.9
G19 G3 Y9.3 Z-1 J0.1
G1 Y9.4
G17 G3 X170.678 Y9.5 I-0.1
G1 X130.678
Y14.5
X90.678
Y10
Y9.5
X50.678
Y14.5
X10.678
X10.178
Y40.5
X15.178
Y64.5
X10.678
X10.178
Y90.5
X15.178
Y115
Y115.5
X206.178
Y90.5
X210.678
X211.178
Y64.5
X206.178
Y40.5
X210.678
X211.178
Y14.5
X170.678
Y10
Y9.5
G3 X170.778 Y9.4 I0.1
G1 X170.878
G18 G2 X170.978 Z-0.9 K0.1
G1 X170.778 Y9.2
Z-1.9
G19 G3 Y9.3 Z-2 J0.1
G1 Y9.4
G17 G3 X170.678 Y9.5 I-0.1
G1 X130.678
Y14.5
X90.678
Y10
Y9.5
X50.678
Y14.5
X10.678
X10.178
Y40.5
X15.178
Y64.5
X10.678
X10.178
Y90.5
X15.178
Y115
Y115.5
X206.178
Y90.5
X210.678
X211.178
Y64.5
X206.178
Y40.5
X210.678
X211.178
Y14.5
X170.678
Y10
Y9.5
G3 X170.778 Y9.4 I0.1
G1 X170.878
G18 G2 X170.978 Z-1.9 K0.1
G1 X170.778 Y9.2
Z-2.9
G19 G3 Y9.3 Z-3 J0.1
G1 Y9.4
G17 G3 X170.678 Y9.5 I-0.1
G1 X130.678
Y14.5
X90.678
Y10
Y9.5
X50.678
Y14.5
X10.678
X10.178
Y40.5
X15.178
Y64.5
X10.678
X10.178
Y90.5
X15.178
Y115
Y115.5
X206.178
Y90.5
X210.678
X211.178
Y64.5
X206.178
Y40.5
X210.678
X211.178
Y14.5
X170.678
Y10
Y9.5
G3 X170.778 Y9.4 I0.1
G1 X170.878
G18 G2 X170.978 Z-2.9 K0.1
G1 X170.778 Y9.2
Z-3.9
G19 G3 Y9.3 Z-4 J0.1
G1 Y9.4
G17 G3 X170.678 Y9.5 I-0.1
G1 X130.678
Y14.5
X90.678
Y10
Y9.5
X50.678
Y14.5
X10.678
X10.178
Y40.5
X15.178
Y64.5
X10.678
X10.178
Y90.5
X15.178
Y115
Y115.5
X206.178
Y90.5
X210.678
X211.178
Y64.5
X206.178
Y40.5
X210.678
X211.178
Y14.5
X170.678
Y10
Y9.5
G3 X170.778 Y9.4 I0.1
G1 X170.878
G18 G2 X170.978 Z-3.9 K0.1
G1 X170.778 Y9.2
Z-4.9
G19 G3 Y9.3 Z-5 J0.1
G1 Y9.4
G17 G3 X170.678 Y9.5 I-0.1
G1 X130.678
Y14.5
X90.678
Y10
Y9.5
X50.678
Y14.5
X10.678
X10.178
Y40.5
X15.178
Y64.5
X10.678
X10.178
Y90.5
X15.178
Y115
Y115.5
X206.178
Y90.5
X210.678
X211.178
Y64.5
X206.178
Y40.5
X210.678
X211.178
Y14.5
X170.678
Y10
Y9.5
G3 X170.778 Y9.4 I0.1
G1 X170.878
G18 G2 X170.978 Z-4.9 K0.1
G0 Z15
G17
M9
G28 G91 Z0
G28 X0 Y0
M30
%
