%
(1)
(T4  D=3.175 CR=0 - ZMIN=-3 - flat end mill)
G90 G94
G17
G21
G28 G91 Z0
G90

(Side Slot)
M9
T4 M6
S16542 M3
G54
M8
G0 X12.686 Y113.784
Z15
Z5
G1 Z-0.214 F400
X12.693 Y113.783 Z-0.278
X12.714 Y113.78 Z-0.338
X12.748 Y113.774 Z-0.392
X12.793 Y113.767 Z-0.438
X12.846 Y113.759 Z-0.472
X12.906 Y113.749 Z-0.493
X12.969 Y113.739 Z-0.5
X14.155 Y113.551
G3 X14.205 Y113.548 I0.05 J0.314
G1 X205.678
X207.151
G3 X207.351 Y113.747 J0.2
G1 Y116.172
G3 X207.151 Y116.372 I-0.2
G1 X15.678
X14.205
G3 X14.011 Y116.224 J-0.2
G1 X13.384 Y113.848
G3 X13.561 Y113.597 I0.193 J-0.051
G1 X13.622 Y113.592 Z-0.506
X13.681 Y113.588 Z-0.524
X13.735 Y113.583 Z-0.552
X13.783 Y113.58 Z-0.591
X13.822 Y113.577 Z-0.638
X13.852 Y113.574 Z-0.692
X13.87 Y113.573 Z-0.75
X13.889 Y113.571 Z-0.808
X13.919 Y113.569 Z-0.862
X13.958 Y113.566 Z-0.909
X14.006 Y113.562 Z-0.948
X14.06 Y113.558 Z-0.976
X14.119 Y113.553 Z-0.994
X14.18 Y113.548 Z-1
G3 X14.205 I0.025 J0.315
G1 X205.678
X207.151
G3 X207.351 Y113.747 J0.2
G1 Y116.172
G3 X207.151 Y116.372 I-0.2
G1 X15.678
X14.205
G3 X14.011 Y116.224 J-0.2
G1 X13.384 Y113.848
G3 X13.561 Y113.597 I0.193 J-0.051
G1 X13.622 Y113.592 Z-1.006
X13.681 Y113.588 Z-1.024
X13.735 Y113.583 Z-1.052
X13.783 Y113.58 Z-1.091
X13.822 Y113.577 Z-1.138
X13.852 Y113.574 Z-1.192
X13.87 Y113.573 Z-1.25
X13.889 Y113.571 Z-1.308
X13.919 Y113.569 Z-1.362
X13.958 Y113.566 Z-1.409
X14.006 Y113.562 Z-1.448
X14.06 Y113.558 Z-1.476
X14.119 Y113.553 Z-1.494
X14.18 Y113.548 Z-1.5
G3 X14.205 I0.025 J0.315
G1 X205.678
X207.151
G3 X207.351 Y113.747 J0.2
G1 Y116.172
G3 X207.151 Y116.372 I-0.2
G1 X15.678
X14.205
G3 X14.011 Y116.224 J-0.2
G1 X13.384 Y113.848
G3 X13.561 Y113.597 I0.193 J-0.051
G1 X13.622 Y113.592 Z-1.506
X13.681 Y113.588 Z-1.524
X13.735 Y113.583 Z-1.552
X13.783 Y113.58 Z-1.591
X13.822 Y113.577 Z-1.638
X13.852 Y113.574 Z-1.692
X13.87 Y113.573 Z-1.75
X13.889 Y113.571 Z-1.808
X13.919 Y113.569 Z-1.862
X13.958 Y113.566 Z-1.909
X14.006 Y113.562 Z-1.948
X14.06 Y113.558 Z-1.976
X14.119 Y113.553 Z-1.994
X14.18 Y113.548 Z-2
G3 X14.205 I0.025 J0.315
G1 X205.678
X207.151
G3 X207.351 Y113.747 J0.2
G1 Y116.172
G3 X207.151 Y116.372 I-0.2
G1 X15.678
X14.205
G3 X14.011 Y116.224 J-0.2
G1 X13.384 Y113.848
G3 X13.561 Y113.597 I0.193 J-0.051
G1 X13.622 Y113.592 Z-2.006
X13.681 Y113.588 Z-2.024
X13.735 Y113.583 Z-2.052
X13.783 Y113.58 Z-2.091
X13.822 Y113.577 Z-2.138
X13.852 Y113.574 Z-2.192
X13.87 Y113.573 Z-2.25
X13.889 Y113.571 Z-2.308
X13.919 Y113.569 Z-2.362
X13.958 Y113.566 Z-2.409
X14.006 Y113.562 Z-2.448
X14.06 Y113.558 Z-2.476
X14.119 Y113.553 Z-2.494
X14.18 Y113.548 Z-2.5
G3 X14.205 I0.025 J0.315
G1 X205.678
X207.151
G3 X207.351 Y113.747 J0.2
G1 Y116.172
G3 X207.151 Y116.372 I-0.2
G1 X15.678
X14.205
G3 X14.011 Y116.224 J-0.2
G1 X13.384 Y113.848
G3 X13.561 Y113.597 I0.193 J-0.051
G1 X13.622 Y113.592 Z-2.506
X13.681 Y113.588 Z-2.524
X13.735 Y113.583 Z-2.552
X13.783 Y113.58 Z-2.591
X13.822 Y113.577 Z-2.638
X13.852 Y113.574 Z-2.692
X13.87 Y113.573 Z-2.75
X13.889 Y113.571 Z-2.808
X13.919 Y113.569 Z-2.862
X13.958 Y113.566 Z-2.909
X14.006 Y113.562 Z-2.948
X14.06 Y113.558 Z-2.976
X14.119 Y113.553 Z-2.994
X14.18 Y113.548 Z-3
G3 X14.205 I0.025 J0.315
G1 X205.678
X207.151
G3 X207.351 Y113.747 J0.2
G1 Y116.172
G3 X207.151 Y116.372 I-0.2
G1 X15.678
X14.205
G3 X14.155 Y116.369 J-0.317
G1 X13.028 Y116.19
X12.958 Y116.179 Z-2.992
X12.892 Y116.169 Z-2.969
X12.833 Y116.159 Z-2.931
X12.783 Y116.151 Z-2.88
X12.746 Y116.145 Z-2.82
X12.722 Y116.142 Z-2.753
X12.715 Y116.14 Z-2.682
G0 Z15
M9
G28 G91 Z0
G28 X0 Y0
M30
%
