%
(1)
(T4  D=3.175 CR=0 - ZMIN=-3 - flat end mill)
G90 G94
G17
G21
G28 G91 Z0
G90

(Side Slot)
M9
T4 M6
S16542 M3
G54
M8
G0 X12.183 Y227.826
Z15
Z5
G1 Z-0.714 F400
X12.19 Y227.825 Z-0.778
X12.211 Y227.821 Z-0.838
X12.244 Y227.816 Z-0.892
X12.289 Y227.809 Z-0.938
X12.343 Y227.8 Z-0.972
X12.402 Y227.791 Z-0.993
X12.465 Y227.781 Z-1
X14.155 Y227.513
G3 X14.205 Y227.51 I0.05 J0.314
G1 X205.678
X207.151
G3 X207.351 Y227.709 J0.2
G1 Y230.134
G3 X207.151 Y230.335 I-0.2
G1 X15.678
X14.205
G3 X14.012 Y230.187 J-0.2
G1 X13.369 Y227.812
G3 X13.547 Y227.56 I0.193 J-0.052
G1 X13.617 Y227.555 Z-1.008
X13.684 Y227.549 Z-1.031
X13.744 Y227.545 Z-1.069
X13.794 Y227.541 Z-1.12
X13.832 Y227.538 Z-1.18
X13.855 Y227.536 Z-1.247
X13.863 Y227.535 Z-1.317
Z-1.683
X13.871 Z-1.753
X13.895 Y227.533 Z-1.82
X13.932 Y227.53 Z-1.88
X13.982 Y227.526 Z-1.931
X14.042 Y227.521 Z-1.969
X14.109 Y227.516 Z-1.992
X14.18 Y227.51 Z-2
G3 X14.205 I0.025 J0.315
G1 X205.678
X207.151
G3 X207.351 Y227.709 J0.2
G1 Y230.134
G3 X207.151 Y230.335 I-0.2
G1 X15.678
X14.205
G3 X14.012 Y230.187 J-0.2
G1 X13.369 Y227.812
G3 X13.547 Y227.56 I0.193 J-0.052
G1 X13.617 Y227.555 Z-2.008
X13.684 Y227.549 Z-2.031
X13.744 Y227.545 Z-2.069
X13.794 Y227.541 Z-2.12
X13.832 Y227.538 Z-2.18
X13.855 Y227.536 Z-2.247
X13.863 Y227.535 Z-2.318
Z-2.682
X13.871 Z-2.753
X13.895 Y227.533 Z-2.82
X13.932 Y227.53 Z-2.88
X13.982 Y227.526 Z-2.931
X14.042 Y227.521 Z-2.969
X14.109 Y227.516 Z-2.992
X14.18 Y227.51 Z-3
G3 X14.205 I0.025 J0.315
G1 X205.678
X207.151
G3 X207.351 Y227.709 J0.2
G1 Y230.134
G3 X207.151 Y230.335 I-0.2
G1 X15.678
X14.205
G3 X14.155 Y230.331 J-0.318
G1 X12.587 Y230.082
X12.517 Y230.071 Z-2.992
X12.451 Y230.061 Z-2.969
X12.392 Y230.051 Z-2.931
X12.342 Y230.043 Z-2.88
X12.305 Y230.037 Z-2.82
X12.281 Y230.034 Z-2.753
X12.274 Y230.033 Z-2.682
G0 Z15
M9
G28 G91 Z0
G28 X0 Y0
M30
%
