%
(1)
(T1  D=3.175 CR=0 - ZMIN=-2 - flat end mill)
G90 G94
G17
G21
G28 G91 Z0
G90

(Pocket1)
M9
T1 M6
S16542 M3
G54
M8
G0 X191.536 Y221.355
Z15
Z2
G1 Z1.367 F1538.4
G18 G2 X191.853 Z1.05 I0.317
G1 X209.993 Y221.354 Z1.004
Y222.181 Z1.002
X209.278 Y222.182 Z1
X14 Y222.183 Z0.504
Y221.353 Z0.502
X14.099 Y221.356
G17 G2 X14.122 I0.023 J-0.793
G1 X209.993 Y221.354 Z0.004
Y222.181 Z0.002
X209.278 Y222.182 Z0
X14 Y222.183 Z-0.496
Y221.353 Z-0.498
X14.099 Y221.356
G2 X14.122 I0.023 J-0.793
G1 X209.993 Y221.354 Z-0.996
Y222.181 Z-0.998
X209.278 Y222.182 Z-1
X14 Y222.183
Y221.353
X14.099 Y221.356
G2 X14.122 I0.023 J-0.793
G1 X209.993 Y221.354
Y222.181
X209.278 Y222.182
G3 X209.181 Y222.166 Z-0.984 J-0.318
X209.102 Y222.128 Z-0.939 I0.097 J-0.302
X209.048 Y222.083 Z-0.869 I0.176 J-0.264
X209.019 Y222.048 Z-0.781 I0.23 J-0.219
X209.011 Y222.036 Z-0.683 I0.258 J-0.184
G0 Z5
X191.536 Y221.355
Z0.367
G18 G2 X191.853 Z0.05 I0.317 F1538.4
G1 X209.993 Y221.354 Z0.004
Y222.181 Z0.002
X209.278 Y222.182 Z0
X14 Y222.183 Z-0.496
Y221.353 Z-0.498
X14.099 Y221.356
G17 G2 X14.122 I0.023 J-0.793
G1 X209.993 Y221.354 Z-0.996
Y222.181 Z-0.998
X209.278 Y222.182 Z-1
X14 Y222.183 Z-1.496
Y221.353 Z-1.498
X14.099 Y221.356
G2 X14.122 I0.023 J-0.793
G1 X209.993 Y221.354 Z-1.996
Y222.181 Z-1.998
X209.278 Y222.182 Z-2
X14 Y222.183
Y221.353
X14.099 Y221.356
G2 X14.122 I0.023 J-0.793
G1 X209.993 Y221.354
Y222.181
X209.278 Y222.182
G3 X209.181 Y222.166 Z-1.984 J-0.318
X209.102 Y222.128 Z-1.939 I0.097 J-0.302
X209.048 Y222.083 Z-1.869 I0.176 J-0.264
X209.019 Y222.048 Z-1.781 I0.23 J-0.219
X209.011 Y222.036 Z-1.683 I0.258 J-0.184
G0 Z15
M9
G28 G91 Z0
G28 X0 Y0
M30
%
