%
(1)
(T2  D=2 CR=0 - ZMIN=-3 - flat end mill)
G90 G94
G17
G21
G28 G91 Z0
G90

(Side Slot)
M9
T2 M6
S26261 M3
G54
M8
G0 X12.775 Y115.368
Z15
Z5
G1 Z-0.8 F400
X12.782 Z-0.852
X12.802 Z-0.9
X12.833 Z-0.941
X12.875 Z-0.973
X12.923 Z-0.993
X12.975 Z-1
X14.784
X205.678 Y115.346
X206.577
G2 X206.777 Y115.143 J-0.2
G1 X206.772 Y114.727
G2 X206.572 Y114.529 I-0.2 J0.002
G1 X14.781
G2 X14.581 Y114.73 J0.2
G1 X14.589 Y116.761
G2 X14.789 Y116.96 I0.2 J-0.001
G1 X206.577
G2 X206.777 Y116.759 J-0.2
G1 X206.767 Y113.159
G2 X206.567 Y112.96 I-0.2 J0.001
G1 X14.779
G2 X14.583 Y113.121 J0.2
G1 X14.18 Y115.129
G2 X14.376 Y115.368 I0.196 J0.039
G1 X14.428 Z-1.007
X14.476 Z-1.027
X14.518 Z-1.059
X14.549 Z-1.1
X14.569 Z-1.148
X14.576 Z-1.2
Z-1.8
X14.583 Z-1.852
X14.603 Z-1.9
X14.635 Z-1.941
X14.676 Z-1.973
X14.724 Z-1.993
X14.776 Z-2
X14.784
X205.678 Y115.346
X206.577
G2 X206.777 Y115.143 J-0.2
G1 X206.772 Y114.727
G2 X206.572 Y114.529 I-0.2 J0.002
G1 X14.781
G2 X14.581 Y114.73 J0.2
G1 X14.589 Y116.761
G2 X14.789 Y116.96 I0.2 J-0.001
G1 X206.577
G2 X206.777 Y116.759 J-0.2
G1 X206.767 Y113.159
G2 X206.567 Y112.96 I-0.2 J0.001
G1 X14.779
G2 X14.583 Y113.121 J0.2
G1 X14.18 Y115.129
G2 X14.376 Y115.368 I0.196 J0.039
G1 X14.428 Z-2.007
X14.476 Z-2.027
X14.518 Z-2.059
X14.549 Z-2.1
X14.569 Z-2.148
X14.576 Z-2.2
Z-2.8
X14.583 Z-2.852
X14.603 Z-2.9
X14.635 Z-2.941
X14.676 Z-2.973
X14.724 Z-2.993
X14.776 Z-3
X14.784
X205.678 Y115.346
X206.577
G2 X206.777 Y115.143 J-0.2
G1 X206.772 Y114.727
G2 X206.572 Y114.529 I-0.2 J0.002
G1 X14.781
G2 X14.581 Y114.73 J0.2
G1 X14.589 Y116.761
G2 X14.789 Y116.96 I0.2 J-0.001
G1 X206.577
G2 X206.777 Y116.759 J-0.2
G1 X206.767 Y113.159
G2 X206.567 Y112.96 I-0.2 J0.001
G1 X14.779
G2 X14.747 Y112.962 J0.2
G1 X13.76 Y113.119
X13.709 Y113.127 Z-2.993
X13.661 Y113.135 Z-2.973
X13.62 Y113.141 Z-2.941
X13.589 Y113.146 Z-2.9
X13.569 Y113.149 Z-2.852
X13.562 Y113.15 Z-2.8
G0 Z15
M9
G28 G91 Z0
G28 X0 Y0
M30
%
