%
(1)
(T5  D=1.984 CR=0 - ZMIN=-5 - flat end mill)
G90 G94
G17
G21
G28 G91 Z0
G90

(Side Contour)
M9
T5 M6
S26467 M3
G54
M8
G0 X171.369 Y14.373
Z15
Z5
G1 Z2 F400
Z-0.802 F200
G19 G3 Y14.572 Z-1 J0.198
G1 Y14.77 F400
G17 G3 X171.17 Y14.969 I-0.198
G1 X130.186
Y19.969
X91.17
Y15.961
Y14.969
X50.186
Y19.969
X10.678
X9.686
Y46.953
X14.686
Y69.969
X10.678
X9.686
Y96.953
X14.686
Y120.961
Y121.953
X205.678
X206.67
Y96.953
X210.678
X211.67
Y69.969
X206.67
Y46.953
X210.678
X211.67
Y19.969
X171.17
Y15.961
Y14.969
G3 X171.369 Y14.77 I0.198
G1 X171.567
G18 G2 X171.766 Z-0.802 K0.198
G1 X171.369 Y14.373
Z-1.802 F200
G19 G3 Y14.572 Z-2 J0.198
G1 Y14.77 F400
G17 G3 X171.17 Y14.969 I-0.198
G1 X130.186
Y19.969
X91.17
Y15.961
Y14.969
X50.186
Y19.969
X10.678
X9.686
Y46.953
X14.686
Y69.969
X10.678
X9.686
Y96.953
X14.686
Y120.961
Y121.953
X205.678
X206.67
Y96.953
X210.678
X211.67
Y69.969
X206.67
Y46.953
X210.678
X211.67
Y19.969
X171.17
Y15.961
Y14.969
G3 X171.369 Y14.77 I0.198
G1 X171.567
G18 G2 X171.766 Z-1.802 K0.198
G1 X171.369 Y14.373
Z-2.802 F200
G19 G3 Y14.572 Z-3 J0.198
G1 Y14.77 F400
G17 G3 X171.17 Y14.969 I-0.198
G1 X130.186
Y19.969
X91.17
Y15.961
Y14.969
X50.186
Y19.969
X10.678
X9.686
Y46.953
X14.686
Y69.969
X10.678
X9.686
Y96.953
X14.686
Y120.961
Y121.953
X205.678
X206.67
Y96.953
X210.678
X211.67
Y69.969
X206.67
Y46.953
X210.678
X211.67
Y19.969
X171.17
Y15.961
Y14.969
G3 X171.369 Y14.77 I0.198
G1 X171.567
G18 G2 X171.766 Z-2.802 K0.198
G1 X171.369 Y14.373
Z-3.802 F200
G19 G3 Y14.572 Z-4 J0.198
G1 Y14.77 F400
G17 G3 X171.17 Y14.969 I-0.198
G1 X130.186
Y19.969
X91.17
Y15.961
Y14.969
X50.186
Y19.969
X10.678
X9.686
Y46.953
X14.686
Y69.969
X10.678
X9.686
Y96.953
X14.686
Y120.961
Y121.953
X205.678
X206.67
Y96.953
X210.678
X211.67
Y69.969
X206.67
Y46.953
X210.678
X211.67
Y19.969
X171.17
Y15.961
Y14.969
G3 X171.369 Y14.77 I0.198
G1 X171.567
G18 G2 X171.766 Z-3.802 K0.198
G1 X171.369 Y14.373
Z-4.802 F200
G19 G3 Y14.572 Z-5 J0.198
G1 Y14.77 F400
G17 G3 X171.17 Y14.969 I-0.198
G1 X130.186
Y19.969
X91.17
Y15.961
Y14.969
X50.186
Y19.969
X10.678
X9.686
Y46.953
X14.686
Y69.969
X10.678
X9.686
Y96.953
X14.686
Y120.961
Y121.953
X205.678
X206.67
Y96.953
X210.678
X211.67
Y69.969
X206.67
Y46.953
X210.678
X211.67
Y19.969
X171.17
Y15.961
Y14.969
G3 X171.369 Y14.77 I0.198
G1 X171.567
G18 G2 X171.766 Z-4.802 K0.198
G0 Z15
G17
M9
G28 G91 Z0
G28 X0 Y0
M30
%
