%
(1)
(T2  D=2 CR=0 - ZMIN=-3 - flat end mill)
G90 G94
G17
G21
G28 G91 Z0
G90

(Side Lettering)
M9
T2 M6
S26261 M3
G54
M8
G0 X113.431 Y83.779
Z15
Z5
G1 Z2.7 F400
G2 X113.442 Y83.756 Z2.602 I-0.85 J-0.423 F200
X113.469 Y83.691 Z2.529 I-0.862 J-0.4
X113.499 Y83.599 Z2.5 I-0.889 J-0.335
X111.662 Y83.113 Z2.396 I-0.918 J-0.243
X113.499 Y83.599 Z2.292 I0.918 J0.243
X111.662 Y83.113 Z2.187 I-0.918 J-0.243
X113.499 Y83.599 Z2.083 I0.918 J0.243
X111.662 Y83.113 Z1.979 I-0.918 J-0.243
X113.499 Y83.599 Z1.875 I0.918 J0.243
X111.662 Y83.113 Z1.77 I-0.918 J-0.243
X113.499 Y83.599 Z1.666 I0.918 J0.243
X111.662 Y83.113 Z1.562 I-0.918 J-0.243
X113.499 Y83.599 Z1.458 I0.918 J0.243
X111.662 Y83.113 Z1.354 I-0.918 J-0.243
X113.499 Y83.599 Z1.249 I0.918 J0.243
X111.662 Y83.113 Z1.145 I-0.918 J-0.243
X113.499 Y83.599 Z1.041 I0.918 J0.243
X111.662 Y83.113 Z0.937 I-0.918 J-0.243
X113.499 Y83.599 Z0.832 I0.918 J0.243
X111.662 Y83.113 Z0.728 I-0.918 J-0.243
X113.499 Y83.599 Z0.624 I0.918 J0.243
X111.662 Y83.113 Z0.52 I-0.918 J-0.243
X113.499 Y83.599 Z0.416 I0.918 J0.243
X111.662 Y83.113 Z0.311 I-0.918 J-0.243
X113.499 Y83.599 Z0.207 I0.918 J0.243
X111.662 Y83.113 Z0.103 I-0.918 J-0.243
X113.499 Y83.599 Z-0.001 I0.918 J0.243
X111.662 Y83.113 Z-0.106 I-0.918 J-0.243
X113.499 Y83.599 Z-0.21 I0.918 J0.243
X111.662 Y83.113 Z-0.314 I-0.918 J-0.243
X113.499 Y83.599 Z-0.418 I0.918 J0.243
X111.662 Y83.113 Z-0.522 I-0.918 J-0.243
X113.499 Y83.599 Z-0.627 I0.918 J0.243
X111.662 Y83.113 Z-0.731 I-0.918 J-0.243
X113.499 Y83.599 Z-0.835 I0.918 J0.243
X111.662 Y83.113 Z-0.939 I-0.918 J-0.243
X112.58 Y84.306 Z-1 I0.918 J0.243
G1 X112.6 F400
G2 X112.91 Y84.049 J-0.315
G3 X112.933 Y83.93 I10.969 J2.061
G2 X112.685 Y83.628 I-0.248 J-0.049
G1 X109.136
G2 X108.93 Y83.919 J0.218
G3 X108.989 Y84.091 I-10.525 J3.714
G2 X109.288 Y84.306 I0.299 J-0.1
G1 X112.58
G3 X112.97 Y84.673 J0.391
G2 X113.503 Y84.731 I0.271 J-0.016
X113.514 Y84.68 I-0.361 J-0.103
G3 X113.821 Y83.226 I10.365 J1.43
G2 X113.598 Y82.931 I-0.223 J-0.064
G1 X108.069
G2 X107.889 Y83.213 J0.199
G3 X108.44 Y84.672 I-9.484 J4.42
G2 X108.884 Y85.004 I0.444 J-0.131
G1 X113.142
G2 X113.503 Y84.731 J-0.375
G3 X114.396 Y83.889 I1.155 J0.329
G2 X115.315 Y83.075 I-0.276 J-1.238
G3 X115.864 Y81.831 I8.564 J3.035
G2 X115.697 Y81.553 I-0.167 J-0.089
G1 X105.722
G2 X105.569 Y81.813 J0.175
X105.983 Y82.514 I12.897 J-7.129
G3 X106.396 Y83.216 I-12.484 J7.831
X106.992 Y84.596 I-6.763 J3.739
X107.353 Y86.056 I-10.566 J3.386
G2 X107.74 Y86.381 I0.388 J-0.068
G1 X114.474
G2 X114.793 Y86.063 J-0.32
G3 X115.315 Y83.075 I9.086 J0.047
X116.352 Y82.346 I1.031 J0.366
G2 X117.475 Y81.759 I0.007 J-1.355
G3 X118.309 Y80.739 I6.611 J4.551
G2 X118.082 Y80.205 I-0.227 J-0.219
G1 X103.437
G2 X103.283 Y80.465 J0.175
X105.127 Y83.768 I401.165 J-221.75
G3 X106.139 Y87.414 I-6.865 J3.869
G2 X106.464 Y87.729 I0.325 J-0.009
G1 X115.822
G2 X116.141 Y87.41 J-0.319
X116.121 Y86.76 I-10.412
G3 X116.101 Y86.11 I10.391 J-0.65
X116.683 Y83.21 I7.507
X117.475 Y81.759 I7.404 J3.1
X118.712 Y81.309 I0.934 J0.643
G2 X120.004 Y81.058 I0.393 J-1.422
G1 X120.007 Y81.055
G2 X120.097 Y80.584 I-0.219 J-0.285
G1 X119.257 Y79.187
G2 X118.632 Y78.834 I-0.624 J0.376
G1 X101.113
G2 X100.96 Y79.094 J0.175
G1 X104.017 Y84.531
G3 X104.712 Y86.609 I-5.294 J2.927
X104.664 Y88.799 I-6.705 J0.95
G2 X104.914 Y89.1 I0.25 J0.047
G1 X117.37
G2 X117.619 Y88.799 J-0.254
G3 X117.481 Y87.458 I8.15 J-1.518
X117.467 Y86.11 I63.191 J-1.348
X118.147 Y83.286 I6.201
X120.004 Y81.058 I5.868 J3.002
X120.903 Y80.938 I0.554 J0.722
G2 X121.494 Y80.249 I0.181 J-0.442
G1 X120.031 Y77.817
G2 X119.407 Y77.464 I-0.624 J0.376
G1 X99.219
G2 X98.9 Y77.783 J0.319
G1 Y78.054
G2 X98.97 Y78.327 I0.565
G1 X102.817 Y85.194
G3 X103.424 Y87.712 I-4.269 J2.36
X102.694 Y90.198 I-5.168 J-0.168
G2 X102.848 Y90.47 I0.154 J0.092
G1 X119.436
G2 X119.59 Y90.198 J-0.18
G3 X119.04 Y88.967 I4.895 J-2.927
X118.837 Y87.633 I4.281 J-1.333
G1 Y86.11
G3 X119.683 Y83.355 I4.908
X121.906 Y81.519 I4.251 J2.883
G2 X122.029 Y81.137 I-0.105 J-0.245
G1 X121.494 Y80.249
G2 X121.424 Y80.18 Z-0.973 I-0.171 J0.103
X121.356 Y80.155 Z-0.9 I-0.101 J0.173
X121.329 Y80.152 Z-0.8 I-0.032 J0.197
G1 Z2
X116.281 Y88.366
Z-0.8
X116.287 Y88.369 Z-0.852
X116.304 Y88.38 Z-0.9
X116.331 Y88.396 Z-0.941
X116.367 Y88.418 Z-0.973
X116.408 Y88.443 Z-0.993
X116.452 Y88.47 Z-1
G3 X119.092 Y90.088 I-246.325 J404.898
G2 X132.792 Y91.808 I8.735 J-14.15
X144.278 Y84.145 I-7.327 J-23.42
X144.296 Y84.076 I-0.065 J-0.054
G1 X144.262 Y83.887
G2 X144.094 Y83.902 I-0.083 J0.015
X144.099 Y83.951 I0.253 J-0.001
G1 X144.114 Y84.029
G2 X144.424 Y84.285 I0.31 J-0.059
G1 X151.84
G2 X152.059 Y83.989 J-0.229
G1 X152.022 Y83.871
G2 X151.721 Y83.649 I-0.301 J0.093
G1 X144.347
G2 X144.094 Y83.902 J0.253
G3 X143.781 Y84.335 I-0.454 J0.001
G2 X143.687 Y84.861 I0.094 J0.288
X143.921 Y84.942 I0.234 J-0.296
G1 X152.729
G2 X152.948 Y84.646 J-0.229
G1 X152.543 Y83.332
G2 X152.084 Y82.992 I-0.46 J0.142
G1 X143.493
G2 X143.268 Y83.288 J0.233
G3 X143.547 Y84.618 I-10.14 J2.822
G2 X143.687 Y84.861 I0.374 J-0.054
G3 X144.39 Y85.741 I-1.543 J1.954
G2 X145.343 Y86.342 I0.953 J-0.455
G1 X154.625
G2 X154.844 Y86.046 J-0.229
G1 X153.577 Y81.932
G2 X153.117 Y81.592 I-0.46 J0.142
G1 X141.377
G2 X141.209 Y81.871 J0.19
G3 X142.253 Y86.025 I-8.081 J4.239
G2 X142.573 Y86.342 I0.32 J-0.003
G1 X145.343
G3 X146.362 Y87.021 J1.104
G2 X147.38 Y87.7 I1.019 J-0.424
G1 X156.465
G2 X156.684 Y87.404 J-0.229
G1 X154.58 Y80.573
G2 X154.12 Y80.234 I-0.46 J0.142
G1 X138.98
G2 X138.824 Y80.51 J0.182
X139.324 Y81.298 I16.601 J-9.975
G3 X139.824 Y82.087 I-16.101 J10.763
X140.934 Y86.11 I-6.664 J4.004
X140.915 Y86.745 I-10.179
G2 X140.895 Y87.381 I10.159 J0.636
X141.214 Y87.7 I0.319
G1 X147.38
G3 X148.397 Y88.378 J1.101
G2 X149.413 Y89.056 I1.016 J-0.423
G1 X158.3
G2 X158.519 Y88.759 J-0.229
G1 X155.58 Y79.218
G2 X155.121 Y78.879 I-0.46 J0.142
G1 X137.884
G2 X137.399 Y79.056 J0.754
G3 X136.929 Y79.415 I-4.125 J-4.909
G2 X136.838 Y79.836 I0.18 J0.259
X138.638 Y82.786 I217.214 J-130.514
G3 X139.585 Y86.11 I-5.364 J3.324
X139.571 Y87.435 I-63.882
X139.441 Y88.754 I-8.558 J-0.178
G2 X139.693 Y89.056 I0.252 J0.045
G1 X149.413
G3 X150.463 Y89.756 J1.137
G2 X151.513 Y90.456 I1.05 J-0.438
G1 X160.411
G2 X160.566 Y90.183 J-0.181
G3 X160.28 Y89.666 I9.139 J-5.4
X160.056 Y89.119 I2.93 J-1.518
G1 X156.614 Y77.818
G2 X156.154 Y77.479 I-0.46 J0.142
G1 X137.532
G2 X136.696 Y77.808 J1.224
G3 X134.953 Y78.869 I-3.422 J-3.661
G2 X134.83 Y79.212 I0.079 J0.222
G1 X137.462 Y83.506
G3 X138.185 Y86.11 I-4.334 J2.604
G1 Y87.633
G3 X137.985 Y88.958 I-4.489
X137.443 Y90.183 I-5.479 J-1.692
G2 X137.598 Y90.456 I0.156 J0.092
G1 X151.513
G2 X151.609 Y90.431 Z-0.973 J-0.2
X151.665 Y90.385 Z-0.9 I-0.096 J-0.176
X151.681 Y90.364 Z-0.8 I-0.152 J-0.13
G1 Z2
X151.428 Y88.262
Z-0.8
X151.43 Y88.269 Z-0.852
X151.435 Y88.288 Z-0.9
X151.443 Y88.319 Z-0.941
X151.453 Y88.359 Z-0.973
X151.466 Y88.405 Z-0.993
X151.479 Y88.456 Z-1
G2 X160.49 Y92.859 I6.406 J-1.687
G1 X177.658 Y85.518
G2 X178.984 Y84.759 I-2.605 J-6.091
G1 X179.069 Y84.675
G2 X178.961 Y84.567 I-0.054 J-0.054
X178.939 Y84.619 I0.054 J0.054
X179.168 Y84.852 I0.229 J0.004
G1 X179.969
G2 X180.288 Y84.533 J-0.319
G1 Y83.401
G2 X179.969 Y83.082 I-0.319
G1 X179.762
G2 X179.301 Y83.421 J0.482
G1 X178.949 Y84.556
G2 X178.939 Y84.619 I0.218 J0.068
G3 X178.483 Y85.388 I-0.905 J-0.017
G2 X178.712 Y86.252 I0.229 J0.402
G1 X181.369
G2 X181.688 Y85.933 J-0.319
G1 Y82.001
G2 X181.369 Y81.682 I-0.319
G1 X178.73
G2 X178.269 Y82.021 J0.482
G1 X177.05 Y85.956
G2 X177.268 Y86.252 I0.218 J0.068
G1 X178.712
G3 X179.762 Y86.952 J1.137
G2 X180.812 Y87.652 I1.05 J-0.438
G1 X182.769
G2 X183.088 Y87.333 J-0.319
G1 Y80.601
G2 X182.769 Y80.282 I-0.319
G1 X177.698
G2 X177.238 Y80.621 J0.482
G1 X175.15 Y87.356
G2 X175.369 Y87.652 I0.218 J0.068
G1 X180.812
G3 X181.862 Y88.352 J1.137
G2 X182.912 Y89.052 I1.05 J-0.438
G1 X184.169
G2 X184.488 Y88.733 J-0.319
G1 Y79.201
G2 X184.169 Y78.882 I-0.319
G1 X176.666
G2 X176.206 Y79.221 J0.482
G1 X173.251 Y88.756
G2 X173.469 Y89.052 I0.218 J0.068
G1 X182.912
G3 X183.924 Y89.743 J1.086
G2 X184.955 Y90.406 I0.973 J-0.38
X185.843 Y89.467 I-0.052 J-0.939
G1 Y78.467
G2 X184.903 Y77.527 I-0.94
G1 X175.634 Y77.482
G2 X175.174 Y77.821 J0.482
G1 X171.708 Y89.128
G3 X171.486 Y89.669 I-3.14 J-0.973
X171.203 Y90.179 I-9.564 J-4.959
G2 X171.359 Y90.452 I0.156 J0.092
G1 X184.903 Y90.407
G2 X184.955 Y90.406 J-0.94
X185.049 Y90.376 Z-0.973 I-0.011 J-0.2
X185.103 Y90.327 Z-0.9 I-0.105 J-0.17
X185.118 Y90.305 Z-0.8 I-0.159 J-0.121
G0 Z5
X105.486 Y88.34
G1 Z2 F400
Z-0.8
X105.48 Y88.344 Z-0.852
X105.465 Y88.357 Z-0.9
X105.441 Y88.378 Z-0.941
X105.41 Y88.405 Z-0.973
X105.373 Y88.437 Z-0.993
X105.334 Y88.471 Z-1
G3 X90.817 Y92.696 I-11.862 J-13.702
X76.574 Y84.044 I3.144 J-21.225
X76.632 Y83.928 I0.059 J-0.043
G1 X76.826 Y83.926
G2 X76.897 Y83.853 I-0.001 J-0.073
X76.679 Y83.634 I-0.218 J-0.001
G1 X71.66
G2 X71.454 Y83.925 J0.218
G3 X71.509 Y84.085 I-10.533 J3.708
G2 X71.808 Y84.3 I0.299 J-0.1
G1 X76.531
G2 X76.83 Y84.085 J-0.315
G3 X76.885 Y83.925 I10.588 J3.548
G2 X76.897 Y83.853 I-0.206 J-0.073
G3 X77.108 Y83.41 I0.576 J0.002
G2 X76.942 Y82.948 I-0.165 J-0.201
G1 X70.613
G2 X70.432 Y83.231 J0.199
G3 X70.969 Y84.654 I-9.512 J4.402
G2 X71.414 Y84.986 I0.445 J-0.132
G1 X76.925
G2 X77.37 Y84.654 J-0.464
G3 X77.907 Y83.231 I10.049 J2.979
G2 X77.726 Y82.948 I-0.181 J-0.084
G1 X76.942
G3 X75.909 Y82.259 J-1.119
G2 X74.876 Y81.571 I-1.033 J0.431
G1 X68.271
G2 X68.108 Y81.849 J0.187
X68.497 Y82.492 I10.925 J-6.17
G3 X68.886 Y83.135 I-10.536 J6.813
X69.508 Y84.544 I-6.79 J3.834
X69.883 Y86.038 I-10.46 J3.422
G2 X70.271 Y86.364 I0.388 J-0.069
G1 X78.068
G2 X78.456 Y86.038 J-0.394
G3 X78.819 Y84.58 I10.95 J1.949
X79.416 Y83.2 I7.368 J2.371
X79.816 Y82.525 I11.972 J6.632
G2 X80.216 Y81.85 I-11.573 J-7.308
X80.051 Y81.571 I-0.164 J-0.091
G1 X74.876
G3 X73.851 Y80.887 J-1.11
G2 X72.826 Y80.204 I-1.025 J0.427
G1 X66.256
G2 X65.928 Y80.767 J0.377
X66.812 Y82.287 I59.826 J-33.786
G3 X67.696 Y83.807 I-58.942 J35.306
X68.395 Y85.552 I-6.166 J3.482
X68.654 Y87.415 I-8.321 J2.105
G2 X68.979 Y87.73 I0.325 J-0.009
G1 X79.36
G2 X79.685 Y87.415 J-0.325
G3 X80.694 Y83.778 I7.858 J0.222
G2 X82.535 Y80.483 I-453.82 J-255.717
X82.37 Y80.204 I-0.164 J-0.091
G1 X72.826
G3 X71.799 Y79.519 J-1.113
G2 X70.771 Y78.834 I-1.027 J0.428
G1 X65.477
G2 X64.983 Y79.125 J0.565
G1 X64.413 Y80.152
G2 X64.416 Y80.876 I0.648 J0.359
G1 X66.503 Y84.48
G3 X67.222 Y86.58 I-5.275 J2.979
X67.179 Y88.8 I-6.689 J0.981
G2 X67.429 Y89.1 I0.25 J0.047
G1 X80.91
G2 X81.159 Y88.8 J-0.254
G3 X81.112 Y86.606 I6.656 J-1.24
X81.81 Y84.526 I5.99 J0.852
X83.335 Y81.82 I187.611 J103.93
G2 X84.86 Y79.113 I-186.086 J-106.637
X84.695 Y78.834 I-0.164 J-0.091
G1 X70.771
G3 X69.744 Y78.149 J-1.113
G2 X68.716 Y77.464 I-1.027 J0.428
G1 X64.67
G2 X64.176 Y77.755 J0.565
G1 X62.844 Y80.158
G2 X62.846 Y80.882 I0.648 J0.359
G1 X65.271 Y85.176
G3 X65.209 Y90.198 I-4.351 J2.457
G2 X65.364 Y90.47 I0.155 J0.092
G1 X82.975
G2 X83.13 Y90.198 J-0.18
G3 X82.4 Y87.71 I4.438 J-2.653
X83.008 Y85.19 I4.875 J-0.156
X84.935 Y81.757 I301.247 J166.882
G2 X86.863 Y78.325 I-299.32 J-170.314
X86.933 Y78.051 I-0.494 J-0.274
G1 Y77.783
G2 X86.614 Y77.464 I-0.319
G1 X68.716
G2 X68.621 Y77.489 Z-0.973 J0.2
X68.564 Y77.535 Z-0.9 I0.096 J0.176
X68.548 Y77.556 Z-0.8 I0.152 J0.13
G1 Z2
X68.005 Y88.34
Z-0.8
X68 Y88.344 Z-0.852
X67.984 Y88.357 Z-0.9
X67.96 Y88.378 Z-0.941
X67.929 Y88.405 Z-0.973
X67.893 Y88.437 Z-0.993
X67.854 Y88.471 Z-1
G3 X44.831 Y89.311 I-12.031 J-13.834
G2 X41.388 Y87.108 I-16.622 J22.191
G3 X41.259 Y83.023 I1.124 J-2.08
G1 X41.557 Y82.989
G2 X41.616 Y82.927 I-0.006 J-0.064
X41.423 Y82.728 I-0.193 J-0.006
G1 X41.143
G2 X40.823 Y83.047 J0.319
G1 Y84.313
G2 X41.034 Y84.348 I0.108
G3 X41.595 Y83.008 I9.721 J3.285
G2 X41.616 Y82.927 I-0.172 J-0.087
G3 X42.027 Y82.344 I0.645 J0.019
G2 X41.896 Y81.643 I-0.131 J-0.338
G1 X40.058
G2 X39.739 Y81.963 J0.319
G1 Y85.972
G2 X40.058 Y86.291 I0.319
G1 X41.34
G2 X41.731 Y85.965 J-0.398
G3 X42.095 Y84.529 I11.115 J2.055
X42.686 Y83.169 I7.378 J2.396
X43.057 Y82.546 I10.226 J5.658
G2 X43.427 Y81.922 I-9.855 J-6.281
X43.263 Y81.643 I-0.165 J-0.091
G1 X41.896
G3 X40.869 Y80.958 J-1.113
G2 X39.841 Y80.273 I-1.028 J0.428
G1 X38.688
G2 X38.369 Y80.592 J0.319
G1 Y87.342
G2 X38.688 Y87.661 I0.319
G1 X42.626
G2 X42.954 Y87.345 J-0.328
G3 X43.924 Y83.854 I7.801 J0.288
G1 X45.707 Y80.632
G2 X45.496 Y80.273 I-0.211 J-0.117
G1 X39.841
G3 X38.791 Y79.573 J-1.138
G2 X37.741 Y78.873 I-1.05 J0.438
G1 X37.288
G2 X36.969 Y79.192 J0.319
G1 Y88.742
G2 X37.288 Y89.061 I0.319
G1 X44.196
G2 X44.448 Y88.76 J-0.256
G3 X45.149 Y84.532 I6.306 J-1.127
G1 X47.225 Y80.779
G2 X47.224 Y80.052 I-0.654 J-0.362
G1 X46.76 Y79.224
G2 X46.161 Y78.873 I-0.599 J0.336
G1 X37.741
G3 X36.892 Y78.156 J-0.861
G2 X35.815 Y77.883 I-0.599 J0.101
X35.614 Y78.467 I0.748 J0.584
G1 Y89.467
G2 X36.563 Y90.416 I0.949
G1 X46.294 Y90.461
G2 X46.45 Y90.188 J-0.181
G3 X46.374 Y85.21 I4.305 J-2.555
G1 X48.828 Y80.775
G2 X48.826 Y80.048 I-0.654 J-0.362
G1 X47.581 Y77.824
G2 X46.982 Y77.473 I-0.599 J0.336
G1 X36.563 Y77.518
G2 X35.815 Y77.883 J0.949
G3 X34.977 Y78.279 I-0.812 J-0.634
G2 X34.314 Y78.926 I-0.016 J0.647
G1 Y89.467
G2 X36.563 Y91.715 I2.248
G1 X184.903
G2 X187.151 Y89.467 J-2.248
G1 Y78.467
G2 X184.903 Y76.219 I-2.248
G1 X174.67 Y76.174
G2 X174.21 Y76.513 J0.482
G1 X170.467 Y88.744
G3 X166.883 Y91.385 I-3.584 J-1.111
G1 X164.881
G3 X161.295 Y88.738 J-3.752
G1 X157.577 Y76.513
G2 X157.118 Y76.174 I-0.46 J0.142
G1 X136.828
G2 X136.139 Y76.5 J0.892
G3 X134.86 Y77.506 I-2.925 J-2.402
X133.274 Y77.869 I-1.586 J-3.283
X133.038 Y77.861 J-3.784
G2 X132.801 Y77.854 I-0.236 J3.777
X132.651 Y78.119 J0.175
G1 X136.344 Y84.178
G3 X136.847 Y85.869 I-3.034 J1.823
X136.88 Y87.633 I-47.453 J1.764
X133.128 Y91.385 I-3.752
G1 X123.879
G3 X120.127 Y87.633 J-3.752
G1 Y86.11
G3 X121.235 Y83.478 I3.681
X123.879 Y82.4 I2.644 J2.704
X123.926 Y82.402 J0.76
G2 X123.974 Y82.403 I0.048 J-0.758
X124.13 Y82.127 J-0.182
G1 X120.761 Y76.527
G2 X120.137 Y76.174 I-0.624 J0.376
G1 X97.929
G2 X97.61 Y76.493 J0.319
G1 Y78.069
G2 X97.834 Y78.938 I1.795
G1 X101.688 Y85.818
G3 X98.405 Y91.385 I-3.284 J1.815
G1 X96.383
G3 X94.526 Y90.867 J-3.589
X93.176 Y89.492 I2.008 J-3.322
G2 X92.862 I-0.157 J0.091
G3 X91.512 Y90.867 I-3.358 J-1.946
X89.655 Y91.385 I-1.857 J-3.072
G1 X87.418
G3 X84.137 Y85.815 J-3.752
G1 X87.999 Y78.937
G2 X88.223 Y78.067 I-1.57 J-0.87
G1 Y76.493
G2 X87.904 Y76.174 I-0.319
G1 X63.91
G2 X63.416 Y76.465 J0.565
G1 X61.365 Y80.164
G2 X61.368 Y80.888 I0.648 J0.359
G1 X64.187 Y85.788
G3 X60.92 Y91.385 I-3.267 J1.845
G1 X58.86
G3 X57.361 Y91.048 J-3.502
X56.125 Y90.135 I1.708 J-3.606
G2 X55.726 I-0.2 J0.183
G3 X54.49 Y91.048 I-2.944 J-2.693
X52.991 Y91.385 I-1.499 J-3.165
G1 X50.754
G3 X47.472 Y85.817 J-3.752
G1 X50.315 Y80.772
G2 X50.313 Y80.044 I-0.654 J-0.362
G1 X48.343 Y76.525
G2 X47.743 Y76.174 I-0.599 J0.336
G1 X36.563 Y76.219
G2 X34.314 Y78.467 J2.248
G1 Y78.926
G3 X33.639 Y79.939 I-1.098
G2 X32.964 Y80.952 I0.422 J1.013
G1 Y89.467
G2 X36.563 Y93.066 I3.599
G1 X184.903
G2 X188.502 Y89.467 J-3.599
G1 Y78.467
G2 X184.903 Y74.868 I-3.599
G1 X173.675 Y74.823
G2 X173.214 Y75.162 J0.482
G1 X169.176 Y88.344
G3 X166.883 Y90.034 I-2.293 J-0.711
G1 X164.881
G3 X162.586 Y88.34 J-2.401
G1 X158.575 Y75.162
G2 X158.115 Y74.823 I-0.46 J0.142
G1 X135.906
G2 X135.411 Y75.139 J0.546
G3 X133.111 Y76.55 I-2.214 J-1.028
G2 X130.414 Y76.503 I-2.698 J76.574
X130.264 Y76.768 J0.175
G1 X135.186 Y84.873
G3 X135.545 Y86.23 I-2.16 J1.298
G2 X135.529 Y87.633 I60.239 J1.403
G3 X133.128 Y90.034 I-2.401
G1 X123.879
G3 X121.478 Y87.633 J-2.401
G1 Y86.11
G3 X123.879 Y83.709 I2.401
X125.121 Y83.731 J34.297
G2 X126.363 Y83.754 I1.242 J-34.275
X126.519 Y83.478 J-0.182
G1 X121.63 Y75.366
G3 X121.571 Y75.254 I0.935 J-0.563
G2 X121.518 Y75.139 I-13.062 J5.926
X121.023 Y74.823 I-0.495 J0.23
G1 X96.578
G2 X96.259 Y75.142 J0.319
G1 Y78.109
G2 X96.632 Y79.556 I2.991
G1 X100.506 Y86.472
G3 X98.405 Y90.034 I-2.101 J1.161
X96.179 Y89.979 J-44.599
X94.287 Y88.804 I0.115 J-2.295
X93.733 Y87.765 I26.901 J-15.023
G2 X93.178 Y86.726 I-27.455 J13.984
X92.863 I-0.158 J0.088
X91.708 Y88.816 I188.759 J105.716
G3 X89.655 Y90.034 I-2.053 J-1.12
G1 X87.418
G3 X85.318 Y86.47 J-2.401
G1 X89.201 Y79.554
G2 X89.574 Y78.109 I-2.607 J-1.444
G1 Y75.142
G2 X89.255 Y74.823 I-0.319
G1 X63.115
G2 X62.621 Y75.114 J0.565
G1 X59.817 Y80.17
G2 X59.82 Y80.894 I0.648 J0.359
G1 X63.011 Y86.453
G3 X60.92 Y90.034 I-2.091 J1.181
X58.682 Y89.986 J-52.374
X56.772 Y88.819 I0.099 J-2.308
X56.423 Y88.16 I10.763 J-6.116
G2 X56.074 Y87.5 I-11.112 J5.456
X55.758 Y87.502 I-0.158 J0.09
X55.424 Y88.15 I10.344 J5.742
G3 X55.09 Y88.799 I-10.678 J-5.094
X53.09 Y90.007 I-2.054 J-1.14
X50.754 Y90.034 I-2.336 J-100.391
X48.654 Y86.471 J-2.401
G1 X51.861 Y80.768
G2 X51.859 Y80.041 I-0.654 J-0.362
G1 X49.135 Y75.174
G2 X48.535 Y74.823 I-0.599 J0.336
G1 X36.563 Y74.868
G2 X32.964 Y78.467 J3.599
G1 Y80.952
G3 X32.263 Y82.003 I-1.138
G2 X31.563 Y83.053 I0.438 J1.051
G1 Y89.467
G2 X36.563 Y94.467 I5
G1 X184.903
G2 X189.903 Y89.467 J-5
G1 Y78.467
G2 X184.903 Y73.467 I-5
G1 X172.32
X167.838 Y87.929
G3 X166.883 Y88.633 I-0.955 J-0.296
G1 X164.881
G3 X163.925 Y87.928 J-1
G1 X159.472 Y73.467
X134.274
Y74.147
G3 X133.274 Y75.147 I-1
G1 X127.707
X133.985 Y85.595
G3 X134.128 Y86.11 I-0.857 J0.515
G1 Y87.633
G3 X133.128 Y88.633 I-1
G1 X123.879
G3 X122.879 Y87.633 J-1
G1 Y86.11
G3 X123.879 Y85.11 I1
G1 X129.083
X122.798 Y74.663
G3 X122.655 Y74.147 I0.857 J-0.516
G1 Y73.467
X94.903
Y79.231
X99.28 Y87.15
G3 X98.405 Y88.633 I-0.875 J0.484
G1 X96.383
G3 X95.51 Y88.121 J-1
G1 X93.023 Y83.666
X90.527 Y88.122
G3 X89.655 Y88.633 I-0.872 J-0.489
G1 X87.418
G3 X86.544 Y87.149 J-1
G1 X90.93 Y79.23
Y73.467
X61.984
X58.062 Y80.539
X61.791 Y87.142
G3 X60.92 Y88.633 I-0.871 J0.492
G1 X58.86
G3 X57.99 Y88.127 J-1
G1 X55.901 Y84.451
X53.865 Y88.119
G3 X52.991 Y88.633 I-0.874 J-0.485
G1 X50.754
G3 X49.879 Y87.149 J-1
G1 X53.614 Y80.4
X49.733 Y73.467
X36.563
G2 X31.563 Y78.467 J5
G1 Y83.053
G2 X31.779 Y83.253 I0.2
G1 X41.154 Y82.466
G2 X41.272 Y82.119 I-0.017 J-0.199
X39.988 Y83.519 Z-1.104 I-0.642 J0.7 F200
X41.272 Y82.119 Z-1.208 I0.642 J-0.7
X39.988 Y83.519 Z-1.313 I-0.642 J0.7
X41.272 Y82.119 Z-1.417 I0.642 J-0.7
X39.988 Y83.519 Z-1.521 I-0.642 J0.7
X41.272 Y82.119 Z-1.625 I0.642 J-0.7
X39.988 Y83.519 Z-1.73 I-0.642 J0.7
X41.272 Y82.119 Z-1.834 I0.642 J-0.7
X39.988 Y83.519 Z-1.938 I-0.642 J0.7
X41.488 Y83.227 Z-2 I0.642 J-0.7
G3 X41.595 Y83.008 I9.266 J4.406 F400
G2 X41.423 Y82.728 I-0.172 J-0.087
G1 X41.143
G2 X40.823 Y83.047 J0.319
G1 Y84.313
G2 X41.034 Y84.348 I0.108
G3 X41.488 Y83.227 I9.721 J3.285
X42.332 Y82.749 I0.762 J0.363
G2 X43.2 Y82.315 I0.089 J-0.906
X43.427 Y81.922 I-9.999 J-6.05
X43.263 Y81.643 I-0.165 J-0.091
G1 X40.058
G2 X39.739 Y81.963 J0.319
G1 Y85.972
G2 X40.058 Y86.291 I0.319
G1 X41.34
G2 X41.731 Y85.965 J-0.398
G3 X42.095 Y84.529 I11.115 J2.055
X42.686 Y83.169 I7.378 J2.396
X43.057 Y82.546 I10.226 J5.658
G2 X43.2 Y82.315 I-9.855 J-6.281
G3 X44.297 Y81.777 I0.967 J0.585
G2 X45.383 Y81.218 I0.126 J-1.09
G1 X45.707 Y80.632
G2 X45.496 Y80.273 I-0.211 J-0.117
G1 X38.688
G2 X38.369 Y80.592 J0.319
G1 Y87.342
G2 X38.688 Y87.661 I0.319
G1 X42.626
G2 X42.954 Y87.345 J-0.328
G3 X43.924 Y83.854 I7.801 J0.288
G1 X45.383 Y81.218
G3 X46.446 Y80.842 I0.744 J0.412
G2 X47.192 Y79.996 I0.224 J-0.554
G1 X46.76 Y79.224
G2 X46.161 Y78.873 I-0.599 J0.336
G1 X37.288
G2 X36.969 Y79.192 J0.319
G1 Y88.742
G2 X37.288 Y89.061 I0.319
G1 X44.196
G2 X44.448 Y88.76 J-0.256
G3 X45.149 Y84.532 I6.306 J-1.127
G1 X47.225 Y80.779
G2 X47.224 Y80.052 I-0.654 J-0.362
G1 X47.192 Y79.996
G3 X47.422 Y78.703 I0.903 J-0.506
G2 X46.965 Y77.473 I-0.455 J-0.531
G1 X36.563 Y77.518
G2 X35.614 Y78.467 J0.949
G1 Y89.467
G2 X36.563 Y90.416 I0.949
G1 X46.294 Y90.461
G2 X46.45 Y90.188 J-0.181
G3 X46.374 Y85.21 I4.305 J-2.555
G1 X48.828 Y80.775
G2 X48.826 Y80.048 I-0.654 J-0.362
G1 X47.581 Y77.824
G2 X46.982 Y77.473 I-0.599 J0.336
G1 X46.965
G2 X46.869 Y77.498 Z-1.973 J0.2
X46.812 Y77.544 Z-1.9 I0.096 J0.176
X46.796 Y77.565 Z-1.8 I0.152 J0.13
G1 Z1
X42.701 Y88.326
Z-1.8
X42.706 Y88.33 Z-1.852
X42.722 Y88.342 Z-1.9
X42.748 Y88.361 Z-1.941
X42.781 Y88.386 Z-1.973
X42.82 Y88.414 Z-1.993
X42.861 Y88.445 Z-2
G2 X48.8 Y91.306 I10.381 J-13.953
X61.409 Y91.237 I6.175 J-23.374
X71.765 Y84.044 I-5.064 J-18.343
X71.751 Y83.944 I-0.059 J-0.043
G1 X71.559 Y83.792
G2 X71.441 Y83.847 I-0.045 J0.057
X71.454 Y83.925 I0.218 J0.006
G3 X71.509 Y84.085 I-10.533 J3.708
G2 X71.808 Y84.3 I0.299 J-0.1
G1 X76.531
G2 X76.83 Y84.085 J-0.315
G3 X76.885 Y83.925 I10.588 J3.548
G2 X76.679 Y83.634 I-0.206 J-0.073
G1 X71.66
G2 X71.441 Y83.847 J0.218
G3 X71.161 Y84.321 I-0.566 J-0.014
G2 X71.107 Y84.87 I0.171 J0.294
X71.414 Y84.986 I0.307 J-0.348
G1 X76.925
G2 X77.37 Y84.654 J-0.464
G3 X77.907 Y83.231 I10.049 J2.979
G2 X77.726 Y82.948 I-0.181 J-0.084
G1 X70.613
G2 X70.432 Y83.231 J0.199
G3 X70.969 Y84.654 I-9.512 J4.402
G2 X71.107 Y84.87 I0.445 J-0.132
G3 X71.678 Y85.746 I-1.297 J1.47
G2 X72.523 Y86.364 I0.844 J-0.269
G1 X78.068
G2 X78.456 Y86.038 J-0.394
G3 X78.819 Y84.58 I10.95 J1.949
X79.416 Y83.2 I7.368 J2.371
X79.816 Y82.525 I11.972 J6.632
G2 X80.216 Y81.85 I-11.573 J-7.308
X80.051 Y81.571 I-0.164 J-0.091
G1 X68.271
G2 X68.108 Y81.849 J0.187
X68.497 Y82.492 I10.925 J-6.17
G3 X68.886 Y83.135 I-10.536 J6.813
X69.508 Y84.544 I-6.79 J3.834
X69.883 Y86.038 I-10.46 J3.422
G2 X70.271 Y86.364 I0.388 J-0.069
G1 X72.523
G3 X73.548 Y87.047 J1.11
G2 X74.573 Y87.73 I1.025 J-0.427
G1 X79.36
G2 X79.685 Y87.415 J-0.325
G3 X80.694 Y83.778 I7.858 J0.222
G2 X82.535 Y80.483 I-453.82 J-255.717
X82.37 Y80.204 I-0.164 J-0.091
G1 X66.256
G2 X65.928 Y80.767 J0.377
X66.812 Y82.287 I59.826 J-33.786
G3 X67.696 Y83.807 I-58.942 J35.306
X68.395 Y85.552 I-6.166 J3.482
X68.654 Y87.415 I-8.321 J2.105
G2 X68.979 Y87.73 I0.325 J-0.009
G1 X74.573
G3 X75.6 Y88.415 J1.113
G2 X76.628 Y89.1 I1.027 J-0.428
G1 X80.91
G2 X81.159 Y88.8 J-0.254
G3 X81.112 Y86.606 I6.656 J-1.24
X81.81 Y84.526 I5.99 J0.852
X83.335 Y81.82 I187.611 J103.93
G2 X84.86 Y79.113 I-186.086 J-106.637
X84.695 Y78.834 I-0.164 J-0.091
G1 X65.477
G2 X64.983 Y79.125 J0.565
G1 X64.413 Y80.152
G2 X64.416 Y80.876 I0.648 J0.359
G1 X66.503 Y84.48
G3 X67.222 Y86.58 I-5.275 J2.979
X67.179 Y88.8 I-6.689 J0.981
G2 X67.429 Y89.1 I0.25 J0.047
G1 X76.628
G3 X77.655 Y89.785 J1.113
G2 X78.682 Y90.47 I1.027 J-0.428
G1 X82.975
G2 X83.13 Y90.198 J-0.18
G3 X82.4 Y87.71 I4.438 J-2.653
X83.008 Y85.19 I4.875 J-0.156
X84.935 Y81.757 I301.247 J166.882
G2 X86.863 Y78.325 I-299.32 J-170.314
X86.933 Y78.051 I-0.494 J-0.274
G1 Y77.783
G2 X86.614 Y77.464 I-0.319
G1 X64.67
G2 X64.176 Y77.755 J0.565
G1 X62.844 Y80.158
G2 X62.846 Y80.882 I0.648 J0.359
G1 X65.271 Y85.176
G3 X65.209 Y90.198 I-4.351 J2.457
G2 X65.364 Y90.47 I0.155 J0.092
G1 X78.682
G2 X78.778 Y90.446 Z-1.973 J-0.2
X78.835 Y90.4 Z-1.9 I-0.096 J-0.176
X78.851 Y90.378 Z-1.8 I-0.152 J-0.13
G1 Z1
X80.047 Y88.354
Z-1.8
X80.053 Y88.358 Z-1.852
X80.069 Y88.37 Z-1.9
X80.095 Y88.388 Z-1.941
X80.128 Y88.412 Z-1.973
X80.168 Y88.441 Z-1.993
X80.21 Y88.471 Z-2
G2 X82.632 Y90.088 I23.929 J-33.22
X97.142 Y92.296 I9.852 J-15.958
X109.265 Y84.022 I-5.348 J-20.856
X109.244 Y83.918 I-0.059 J-0.042
G1 X109.028 Y83.785
G2 X108.918 Y83.847 I-0.038 J0.062
X108.93 Y83.919 I0.218 J-0.001
G3 X108.989 Y84.091 I-10.525 J3.714
G2 X109.288 Y84.306 I0.299 J-0.1
G1 X112.6
G2 X112.91 Y84.049 J-0.315
G3 X112.933 Y83.93 I10.969 J2.061
G2 X112.685 Y83.628 I-0.248 J-0.049
G1 X109.136
G2 X108.918 Y83.847 J0.218
G3 X108.637 Y84.334 I-0.558 J0.002
G2 X108.584 Y84.893 I0.17 J0.298
X108.884 Y85.004 I0.3 J-0.352
G1 X113.142
G2 X113.514 Y84.68 J-0.375
G3 X113.821 Y83.226 I10.365 J1.43
G2 X113.598 Y82.931 I-0.223 J-0.064
G1 X108.069
G2 X107.889 Y83.213 J0.199
G3 X108.44 Y84.672 I-9.484 J4.42
G2 X108.584 Y84.893 I0.444 J-0.131
G3 X109.182 Y85.767 I-1.313 J1.541
G2 X110.046 Y86.381 I0.864 J-0.301
G1 X114.474
G2 X114.793 Y86.063 J-0.32
G3 X115.864 Y81.831 I9.086 J0.047
G2 X115.697 Y81.553 I-0.167 J-0.089
G1 X105.722
G2 X105.569 Y81.813 J0.175
X105.983 Y82.514 I12.897 J-7.129
G3 X106.396 Y83.216 I-12.484 J7.831
X106.992 Y84.596 I-6.763 J3.739
X107.353 Y86.056 I-10.566 J3.386
G2 X107.74 Y86.381 I0.388 J-0.068
G1 X110.046
G3 X111.057 Y87.055 J1.095
G2 X112.069 Y87.729 I1.011 J-0.421
G1 X115.822
G2 X116.141 Y87.41 J-0.319
X116.121 Y86.76 I-10.412
G3 X116.101 Y86.11 I10.391 J-0.65
X116.683 Y83.21 I7.507
X118.309 Y80.739 I7.404 J3.1
G2 X118.082 Y80.205 I-0.227 J-0.219
G1 X103.437
G2 X103.283 Y80.465 J0.175
X105.127 Y83.768 I401.165 J-221.75
G3 X106.139 Y87.414 I-6.865 J3.869
G2 X106.464 Y87.729 I0.325 J-0.009
G1 X112.069
G3 X113.096 Y88.415 J1.113
G2 X114.124 Y89.1 I1.028 J-0.428
G1 X117.37
G2 X117.619 Y88.799 J-0.254
G3 X117.481 Y87.458 I8.15 J-1.518
X117.467 Y86.11 I63.191 J-1.348
X118.147 Y83.286 I6.201
X120.007 Y81.055 I5.868 J3.002
G2 X120.097 Y80.584 I-0.219 J-0.285
G1 X119.257 Y79.187
G2 X118.632 Y78.834 I-0.624 J0.376
G1 X101.113
G2 X100.96 Y79.094 J0.175
G1 X104.017 Y84.531
G3 X104.712 Y86.609 I-5.294 J2.927
X104.664 Y88.799 I-6.705 J0.95
G2 X104.914 Y89.1 I0.25 J0.047
G1 X114.124
G3 X115.152 Y89.785 J1.113
G2 X116.18 Y90.47 I1.028 J-0.428
G1 X119.436
G2 X119.59 Y90.198 J-0.18
G3 X119.04 Y88.967 I4.895 J-2.927
X118.837 Y87.633 I4.281 J-1.333
G1 Y86.11
G3 X119.683 Y83.355 I4.908
X121.906 Y81.519 I4.251 J2.883
G2 X122.029 Y81.137 I-0.105 J-0.245
G1 X120.031 Y77.817
G2 X119.407 Y77.464 I-0.624 J0.376
G1 X99.219
G2 X98.9 Y77.783 J0.319
G1 Y78.054
G2 X98.97 Y78.327 I0.565
G1 X102.817 Y85.194
G3 X103.424 Y87.712 I-4.269 J2.36
X102.694 Y90.198 I-5.168 J-0.168
G2 X102.848 Y90.47 I0.154 J0.092
G1 X116.18
G2 X116.276 Y90.446 Z-1.973 J-0.2
X116.332 Y90.4 Z-1.9 I-0.096 J-0.176
X116.348 Y90.378 Z-1.8 I-0.152 J-0.13
G1 Z1
X116.281 Y88.366
Z-1.8
X116.287 Y88.369 Z-1.852
X116.304 Y88.38 Z-1.9
X116.331 Y88.396 Z-1.941
X116.367 Y88.418 Z-1.973
X116.408 Y88.443 Z-1.993
X116.452 Y88.47 Z-2
G3 X119.092 Y90.088 I-246.325 J404.898
G2 X132.792 Y91.808 I8.735 J-14.15
X144.278 Y84.145 I-7.327 J-23.42
X144.296 Y84.076 I-0.065 J-0.054
G1 X144.262 Y83.887
G2 X144.094 Y83.902 I-0.083 J0.015
X144.099 Y83.951 I0.253 J-0.001
G1 X144.114 Y84.029
G2 X144.424 Y84.285 I0.31 J-0.059
G1 X151.84
G2 X152.059 Y83.989 J-0.229
G1 X152.022 Y83.871
G2 X151.721 Y83.649 I-0.301 J0.093
G1 X144.347
G2 X144.094 Y83.902 J0.253
G3 X143.781 Y84.335 I-0.454 J0.001
G2 X143.687 Y84.861 I0.094 J0.288
X143.921 Y84.942 I0.234 J-0.296
G1 X152.729
G2 X152.948 Y84.646 J-0.229
G1 X152.543 Y83.332
G2 X152.084 Y82.992 I-0.46 J0.142
G1 X143.493
G2 X143.268 Y83.288 J0.233
G3 X143.547 Y84.618 I-10.14 J2.822
G2 X143.687 Y84.861 I0.374 J-0.054
G3 X144.39 Y85.741 I-1.543 J1.954
G2 X145.343 Y86.342 I0.953 J-0.455
G1 X154.625
G2 X154.844 Y86.046 J-0.229
G1 X153.577 Y81.932
G2 X153.117 Y81.592 I-0.46 J0.142
G1 X141.377
G2 X141.209 Y81.871 J0.19
G3 X142.253 Y86.025 I-8.081 J4.239
G2 X142.573 Y86.342 I0.32 J-0.003
G1 X145.343
G3 X146.362 Y87.021 J1.104
G2 X147.38 Y87.7 I1.019 J-0.424
G1 X156.465
G2 X156.684 Y87.404 J-0.229
G1 X154.58 Y80.573
G2 X154.12 Y80.234 I-0.46 J0.142
G1 X138.98
G2 X138.824 Y80.51 J0.182
X139.324 Y81.298 I16.601 J-9.975
G3 X139.824 Y82.087 I-16.101 J10.763
X140.934 Y86.11 I-6.664 J4.004
X140.915 Y86.745 I-10.179
G2 X140.895 Y87.381 I10.159 J0.636
X141.214 Y87.7 I0.319
G1 X147.38
G3 X148.397 Y88.378 J1.101
G2 X149.413 Y89.056 I1.016 J-0.423
G1 X158.3
G2 X158.519 Y88.759 J-0.229
G1 X155.58 Y79.218
G2 X155.121 Y78.879 I-0.46 J0.142
G1 X137.884
G2 X137.399 Y79.056 J0.754
G3 X136.929 Y79.415 I-4.125 J-4.909
G2 X136.838 Y79.836 I0.18 J0.259
X138.638 Y82.786 I217.214 J-130.514
G3 X139.585 Y86.11 I-5.364 J3.324
X139.571 Y87.435 I-63.882
X139.441 Y88.754 I-8.558 J-0.178
G2 X139.693 Y89.056 I0.252 J0.045
G1 X149.413
G3 X150.463 Y89.756 J1.137
G2 X151.513 Y90.456 I1.05 J-0.438
G1 X160.411
G2 X160.566 Y90.183 J-0.181
G3 X160.28 Y89.666 I9.139 J-5.4
X160.056 Y89.119 I2.93 J-1.518
G1 X156.614 Y77.818
G2 X156.154 Y77.479 I-0.46 J0.142
G1 X137.532
G2 X136.696 Y77.808 J1.224
G3 X134.953 Y78.869 I-3.422 J-3.661
G2 X134.83 Y79.212 I0.079 J0.222
G1 X137.462 Y83.506
G3 X138.185 Y86.11 I-4.334 J2.604
G1 Y87.633
G3 X137.985 Y88.958 I-4.489
X137.443 Y90.183 I-5.479 J-1.692
G2 X137.598 Y90.456 I0.156 J0.092
G1 X151.513
G2 X151.609 Y90.431 Z-1.973 J-0.2
X151.665 Y90.385 Z-1.9 I-0.096 J-0.176
X151.681 Y90.364 Z-1.8 I-0.152 J-0.13
G1 Z1
X151.428 Y88.262
Z-1.8
X151.43 Y88.269 Z-1.852
X151.435 Y88.288 Z-1.9
X151.443 Y88.319 Z-1.941
X151.453 Y88.359 Z-1.973
X151.466 Y88.405 Z-1.993
X151.479 Y88.456 Z-2
G2 X160.49 Y92.859 I6.406 J-1.687
G1 X177.658 Y85.518
G2 X178.984 Y84.759 I-2.605 J-6.091
G1 X179.069 Y84.675
G2 X178.961 Y84.567 I-0.054 J-0.054
X178.939 Y84.619 I0.054 J0.054
X179.168 Y84.852 I0.229 J0.004
G1 X179.969
G2 X180.288 Y84.533 J-0.319
G1 Y83.401
G2 X179.969 Y83.082 I-0.319
G1 X179.762
G2 X179.301 Y83.421 J0.482
G1 X178.949 Y84.556
G2 X178.939 Y84.619 I0.218 J0.068
G3 X178.483 Y85.388 I-0.905 J-0.017
G2 X178.712 Y86.252 I0.229 J0.402
G1 X181.369
G2 X181.688 Y85.933 J-0.319
G1 Y82.001
G2 X181.369 Y81.682 I-0.319
G1 X178.73
G2 X178.269 Y82.021 J0.482
G1 X177.05 Y85.956
G2 X177.268 Y86.252 I0.218 J0.068
G1 X178.712
G3 X179.762 Y86.952 J1.137
G2 X180.812 Y87.652 I1.05 J-0.438
G1 X182.769
G2 X183.088 Y87.333 J-0.319
G1 Y80.601
G2 X182.769 Y80.282 I-0.319
G1 X177.698
G2 X177.238 Y80.621 J0.482
G1 X175.15 Y87.356
G2 X175.369 Y87.652 I0.218 J0.068
G1 X180.812
G3 X181.862 Y88.352 J1.137
G2 X182.912 Y89.052 I1.05 J-0.438
G1 X184.169
G2 X184.488 Y88.733 J-0.319
G1 Y79.201
G2 X184.169 Y78.882 I-0.319
G1 X176.666
G2 X176.206 Y79.221 J0.482
G1 X173.251 Y88.756
G2 X173.469 Y89.052 I0.218 J0.068
G1 X182.912
G3 X183.924 Y89.743 J1.086
G2 X184.955 Y90.406 I0.973 J-0.38
X185.843 Y89.467 I-0.052 J-0.939
G1 Y78.467
G2 X184.903 Y77.527 I-0.94
G1 X175.634 Y77.482
G2 X175.174 Y77.821 J0.482
G1 X171.708 Y89.128
G3 X171.486 Y89.669 I-3.14 J-0.973
X171.203 Y90.179 I-9.564 J-4.959
G2 X171.359 Y90.452 I0.156 J0.092
G1 X184.903 Y90.407
G2 X184.955 Y90.406 J-0.94
G3 X185.783 Y90.804 I0.052 J0.951
G2 X186.702 Y90.815 I0.464 J-0.33
X187.151 Y89.467 I-1.799 J-1.348
G1 Y78.467
G2 X184.903 Y76.219 I-2.248
G1 X174.67 Y76.174
G2 X174.21 Y76.513 J0.482
G1 X170.467 Y88.744
G3 X166.883 Y91.385 I-3.584 J-1.111
G1 X164.881
G3 X161.295 Y88.738 J-3.752
G1 X157.577 Y76.513
G2 X157.118 Y76.174 I-0.46 J0.142
G1 X136.828
G2 X136.139 Y76.5 J0.892
G3 X134.86 Y77.506 I-2.925 J-2.402
X133.274 Y77.869 I-1.586 J-3.283
X133.038 Y77.861 J-3.784
G2 X132.801 Y77.854 I-0.236 J3.777
X132.651 Y78.119 J0.175
G1 X136.344 Y84.178
G3 X136.847 Y85.869 I-3.034 J1.823
X136.88 Y87.633 I-47.453 J1.764
X133.128 Y91.385 I-3.752
G1 X123.879
G3 X120.127 Y87.633 J-3.752
G1 Y86.11
G3 X121.235 Y83.478 I3.681
X123.879 Y82.4 I2.644 J2.704
X123.926 Y82.402 J0.76
G2 X123.974 Y82.403 I0.048 J-0.758
X124.13 Y82.127 J-0.182
G1 X120.761 Y76.527
G2 X120.137 Y76.174 I-0.624 J0.376
G1 X97.929
G2 X97.61 Y76.493 J0.319
G1 Y78.069
G2 X97.834 Y78.938 I1.795
G1 X101.688 Y85.818
G3 X98.405 Y91.385 I-3.284 J1.815
G1 X96.383
G3 X94.526 Y90.867 J-3.589
X93.176 Y89.492 I2.008 J-3.322
G2 X92.862 I-0.157 J0.091
G3 X91.512 Y90.867 I-3.358 J-1.946
X89.655 Y91.385 I-1.857 J-3.072
G1 X87.418
G3 X84.137 Y85.815 J-3.752
G1 X87.999 Y78.937
G2 X88.223 Y78.067 I-1.57 J-0.87
G1 Y76.493
G2 X87.904 Y76.174 I-0.319
G1 X63.91
G2 X63.416 Y76.465 J0.565
G1 X61.365 Y80.164
G2 X61.368 Y80.888 I0.648 J0.359
G1 X64.187 Y85.788
G3 X60.92 Y91.385 I-3.267 J1.845
G1 X58.86
G3 X57.361 Y91.048 J-3.502
X56.125 Y90.135 I1.708 J-3.606
G2 X55.726 I-0.2 J0.183
G3 X54.49 Y91.048 I-2.944 J-2.693
X52.991 Y91.385 I-1.499 J-3.165
G1 X50.754
G3 X47.472 Y85.817 J-3.752
G1 X50.315 Y80.772
G2 X50.313 Y80.044 I-0.654 J-0.362
G1 X48.343 Y76.525
G2 X47.743 Y76.174 I-0.599 J0.336
G1 X36.563 Y76.219
G2 X34.314 Y78.467 J2.248
G1 Y89.467
G2 X36.563 Y91.715 I2.248
G1 X184.903
G2 X186.702 Y90.815 J-2.248
G3 X187.672 Y90.412 I0.826 J0.619
G2 X188.491 Y89.755 I0.1 J-0.715
X188.502 Y89.467 I-3.588 J-0.288
G1 Y78.467
G2 X184.903 Y74.868 I-3.599
G1 X173.675 Y74.823
G2 X173.214 Y75.162 J0.482
G1 X169.176 Y88.344
G3 X166.883 Y90.034 I-2.293 J-0.711
G1 X164.881
G3 X162.586 Y88.34 J-2.401
G1 X158.575 Y75.162
G2 X158.115 Y74.823 I-0.46 J0.142
G1 X135.906
G2 X135.411 Y75.139 J0.546
G3 X133.111 Y76.55 I-2.214 J-1.028
G2 X130.414 Y76.503 I-2.698 J76.574
X130.264 Y76.768 J0.175
G1 X135.186 Y84.873
G3 X135.545 Y86.23 I-2.16 J1.298
G2 X135.529 Y87.633 I60.239 J1.403
G3 X133.128 Y90.034 I-2.401
G1 X123.879
G3 X121.478 Y87.633 J-2.401
G1 Y86.11
G3 X123.879 Y83.709 I2.401
X125.121 Y83.731 J34.297
G2 X126.363 Y83.754 I1.242 J-34.275
X126.519 Y83.478 J-0.182
G1 X121.63 Y75.366
G3 X121.571 Y75.254 I0.935 J-0.563
G2 X121.518 Y75.139 I-13.062 J5.926
X121.023 Y74.823 I-0.495 J0.23
G1 X96.578
G2 X96.259 Y75.142 J0.319
G1 Y78.109
G2 X96.632 Y79.556 I2.991
G1 X100.506 Y86.472
G3 X98.405 Y90.034 I-2.101 J1.161
X96.179 Y89.979 J-44.599
X94.287 Y88.804 I0.115 J-2.295
X93.733 Y87.765 I26.901 J-15.023
G2 X93.178 Y86.726 I-27.455 J13.984
X92.863 I-0.158 J0.088
X91.708 Y88.816 I188.759 J105.716
G3 X89.655 Y90.034 I-2.053 J-1.12
G1 X87.418
G3 X85.318 Y86.47 J-2.401
G1 X89.201 Y79.554
G2 X89.574 Y78.109 I-2.607 J-1.444
G1 Y75.142
G2 X89.255 Y74.823 I-0.319
G1 X63.115
G2 X62.621 Y75.114 J0.565
G1 X59.817 Y80.17
G2 X59.82 Y80.894 I0.648 J0.359
G1 X63.011 Y86.453
G3 X60.92 Y90.034 I-2.091 J1.181
X58.682 Y89.986 J-52.374
X56.772 Y88.819 I0.099 J-2.308
X56.423 Y88.16 I10.763 J-6.116
G2 X56.074 Y87.5 I-11.112 J5.456
X55.758 Y87.502 I-0.158 J0.09
X55.424 Y88.15 I10.344 J5.742
G3 X55.09 Y88.799 I-10.678 J-5.094
X53.09 Y90.007 I-2.054 J-1.14
X50.754 Y90.034 I-2.336 J-100.391
X48.654 Y86.471 J-2.401
G1 X51.861 Y80.768
G2 X51.859 Y80.041 I-0.654 J-0.362
G1 X49.135 Y75.174
G2 X48.535 Y74.823 I-0.599 J0.336
G1 X36.563 Y74.868
G2 X32.964 Y78.467 J3.599
G1 Y89.467
G2 X36.563 Y93.066 I3.599
G1 X184.903
G2 X188.491 Y89.755 J-3.599
G3 X189.217 Y88.774 I1.149 J0.092
G2 X189.903 Y87.766 I-0.398 J-1.009
G1 Y78.467
G2 X184.903 Y73.467 I-5
G1 X172.32
X167.838 Y87.929
G3 X166.883 Y88.633 I-0.955 J-0.296
G1 X164.881
G3 X163.925 Y87.928 J-1
G1 X159.472 Y73.467
X134.274
Y74.147
G3 X133.274 Y75.147 I-1
G1 X127.707
X133.985 Y85.595
G3 X134.128 Y86.11 I-0.857 J0.515
G1 Y87.633
G3 X133.128 Y88.633 I-1
G1 X123.879
G3 X122.879 Y87.633 J-1
G1 Y86.11
G3 X123.879 Y85.11 I1
G1 X129.083
X122.798 Y74.663
G3 X122.655 Y74.147 I0.857 J-0.516
G1 Y73.467
X94.903
Y79.231
X99.28 Y87.15
G3 X98.405 Y88.633 I-0.875 J0.484
G1 X96.383
G3 X95.51 Y88.121 J-1
G1 X93.023 Y83.666
X90.527 Y88.122
G3 X89.655 Y88.633 I-0.872 J-0.489
G1 X87.418
G3 X86.544 Y87.149 J-1
G1 X90.93 Y79.23
Y73.467
X61.984
X58.062 Y80.539
X61.791 Y87.142
G3 X60.92 Y88.633 I-0.871 J0.492
G1 X58.86
G3 X57.99 Y88.127 J-1
G1 X55.901 Y84.451
X53.865 Y88.119
G3 X52.991 Y88.633 I-0.874 J-0.485
G1 X50.754
G3 X49.879 Y87.149 J-1
G1 X53.614 Y80.4
X49.733 Y73.467
X36.563
G2 X31.563 Y78.467 J5
G1 Y89.467
G2 X36.563 Y94.467 I5
G1 X184.903
G2 X189.903 Y89.467 J-5
G1 Y87.766
G2 X189.78 Y87.581 I-0.2
G1 X179.617 Y83.337
G2 X179.059 Y85.153 Z-2.104 I-0.279 J0.908 F200
X179.617 Y83.337 Z-2.208 I0.279 J-0.908
X179.059 Y85.153 Z-2.313 I-0.279 J0.908
X179.617 Y83.337 Z-2.417 I0.279 J-0.908
X179.059 Y85.153 Z-2.521 I-0.279 J0.908
X179.617 Y83.337 Z-2.625 I0.279 J-0.908
X179.059 Y85.153 Z-2.73 I-0.279 J0.908
X179.617 Y83.337 Z-2.834 I0.279 J-0.908
X179.059 Y85.153 Z-2.938 I-0.279 J0.908
X180.288 Y84.245 Z-3 I0.279 J-0.908
G1 Y83.401 F400
G2 X179.969 Y83.082 I-0.319
G1 X179.762
G2 X179.301 Y83.421 J0.482
G1 X178.949 Y84.556
G2 X179.168 Y84.852 I0.218 J0.068
G1 X179.969
G2 X180.288 Y84.533 J-0.319
G1 Y84.245
G3 X180.988 Y83.195 I1.137
G2 X181.688 Y82.145 I-0.438 J-1.05
G1 Y82.001
G2 X181.369 Y81.682 I-0.319
G1 X178.73
G2 X178.269 Y82.021 J0.482
G1 X177.05 Y85.956
G2 X177.268 Y86.252 I0.218 J0.068
G1 X181.369
G2 X181.688 Y85.933 J-0.319
G1 Y82.145
G3 X182.237 Y81.281 I0.954
G2 X182.015 Y80.282 I-0.223 J-0.475
G1 X177.698
G2 X177.238 Y80.621 J0.482
G1 X175.15 Y87.356
G2 X175.369 Y87.652 I0.218 J0.068
G1 X182.769
G2 X183.088 Y87.333 J-0.319
G1 Y80.601
G2 X182.769 Y80.282 I-0.319
G1 X182.015
G3 X180.965 Y79.582 J-1.138
G2 X179.915 Y78.882 I-1.05 J0.438
G1 X176.666
G2 X176.206 Y79.221 J0.482
G1 X173.251 Y88.756
G2 X173.469 Y89.052 I0.218 J0.068
G1 X184.169
G2 X184.488 Y88.733 J-0.319
G1 Y79.201
G2 X184.169 Y78.882 I-0.319
G1 X179.915
G3 X178.88 Y78.187 J-1.118
G2 X177.846 Y77.493 I-1.04 J0.431
G1 X175.634 Y77.482
G2 X175.174 Y77.821 J0.482
G1 X171.708 Y89.128
G3 X171.486 Y89.669 I-3.14 J-0.973
X171.203 Y90.179 I-9.564 J-4.959
G2 X171.359 Y90.452 I0.156 J0.092
G1 X184.903 Y90.407
G2 X185.843 Y89.467 J-0.94
G1 Y78.467
G2 X184.903 Y77.527 I-0.94
G1 X177.846 Y77.493
G2 X177.75 Y77.517 Z-2.973 J0.2
X177.693 Y77.563 Z-2.9 I0.096 J0.176
X177.677 Y77.585 Z-2.8 I0.152 J0.13
G1 Z0
X175.418 Y84.216
Z-2.8
X175.411 Z-2.852
X175.391 Z-2.9
X175.359 Z-2.941
X175.318 Z-2.973
X175.27 Y84.215 Z-2.993
X175.218 Z-3
G2 X175.128 Y84.271 I-0.001 J0.1
G1 X172.509 Y89.53
G3 X170.202 Y90.039 I-1.742 J-2.413
G1 X154.48 Y87
G3 X152.069 Y84.058 I0.565 J-2.922
G2 X152.059 Y83.989 I-0.229 J-0.002
G1 X152.022 Y83.871
G2 X151.721 Y83.649 I-0.301 J0.093
G1 X144.347
G2 X144.099 Y83.951 J0.253
G1 X144.114 Y84.029
G2 X144.424 Y84.285 I0.31 J-0.059
G1 X151.84
G2 X152.069 Y84.058 J-0.229
G3 X152.337 Y83.615 I0.506 J0.003
G2 X152.386 Y83.099 I-0.146 J-0.274
X152.084 Y82.992 I-0.303 J0.374
G1 X143.493
G2 X143.268 Y83.288 J0.233
G3 X143.547 Y84.618 I-10.14 J2.822
G2 X143.921 Y84.942 I0.374 J-0.054
G1 X152.729
G2 X152.948 Y84.646 J-0.229
G1 X152.543 Y83.332
G2 X152.386 Y83.099 I-0.46 J0.142
G3 X151.785 Y82.22 I1.172 J-1.446
G2 X150.925 Y81.592 I-0.86 J0.275
G1 X141.377
G2 X141.209 Y81.871 J0.19
G3 X142.253 Y86.025 I-8.081 J4.239
G2 X142.573 Y86.342 I0.32 J-0.003
G1 X154.625
G2 X154.844 Y86.046 J-0.229
G1 X153.577 Y81.932
G2 X153.117 Y81.592 I-0.46 J0.142
G1 X150.925
G3 X149.907 Y80.913 J-1.104
G2 X148.888 Y80.234 I-1.019 J0.424
G1 X138.98
G2 X138.824 Y80.51 J0.182
X139.324 Y81.298 I16.601 J-9.975
G3 X139.824 Y82.087 I-16.101 J10.763
X140.934 Y86.11 I-6.664 J4.004
X140.915 Y86.745 I-10.179
G2 X140.895 Y87.381 I10.159 J0.636
X141.214 Y87.7 I0.319
G1 X156.465
G2 X156.684 Y87.404 J-0.229
G1 X154.58 Y80.573
G2 X154.12 Y80.234 I-0.46 J0.142
G1 X148.888
G3 X147.872 Y79.556 J-1.101
G2 X146.855 Y78.879 I-1.016 J0.423
G1 X137.884
G2 X137.399 Y79.056 J0.754
G3 X136.929 Y79.415 I-4.125 J-4.909
G2 X136.838 Y79.836 I0.18 J0.259
X138.638 Y82.786 I217.214 J-130.514
G3 X139.585 Y86.11 I-5.364 J3.324
X139.571 Y87.435 I-63.882
X139.441 Y88.754 I-8.558 J-0.178
G2 X139.693 Y89.056 I0.252 J0.045
G1 X158.3
G2 X158.519 Y88.759 J-0.229
G1 X155.58 Y79.218
G2 X155.121 Y78.879 I-0.46 J0.142
G1 X146.855
G3 X145.805 Y78.179 J-1.137
G2 X144.755 Y77.479 I-1.05 J0.438
G1 X137.532
G2 X136.696 Y77.808 J1.224
G3 X134.953 Y78.869 I-3.422 J-3.661
G2 X134.83 Y79.212 I0.079 J0.222
G1 X137.462 Y83.506
G3 X138.185 Y86.11 I-4.334 J2.604
G1 Y87.633
G3 X137.985 Y88.958 I-4.489
X137.443 Y90.183 I-5.479 J-1.692
G2 X137.598 Y90.456 I0.156 J0.092
G1 X160.411
G2 X160.566 Y90.183 J-0.181
G3 X160.28 Y89.666 I9.139 J-5.4
X160.056 Y89.119 I2.93 J-1.518
G1 X156.614 Y77.818
G2 X156.154 Y77.479 I-0.46 J0.142
G1 X144.755
G2 X144.659 Y77.503 Z-2.973 J0.2
X144.603 Y77.549 Z-2.9 I0.096 J0.176
X144.587 Y77.571 Z-2.8 I0.152 J0.13
G1 Z0
X140.284 Y88.072
Z-2.8
X140.278 Y88.076 Z-2.852
X140.262 Y88.088 Z-2.9
X140.237 Y88.107 Z-2.941
X140.204 Y88.132 Z-2.973
X140.165 Y88.16 Z-2.993
X140.123 Y88.191 Z-3
G3 X126.946 Y91.759 I-11.12 J-14.954
X112.717 Y84.131 I2.394 J-21.55
X112.758 Y83.996 I0.064 J-0.054
G1 X112.877 Y83.962
G2 X112.937 Y83.881 I-0.023 J-0.081
X112.685 Y83.628 I-0.252 J-0.001
G1 X109.136
G2 X108.93 Y83.919 J0.218
G3 X108.989 Y84.091 I-10.525 J3.714
G2 X109.288 Y84.306 I0.299 J-0.1
G1 X112.6
G2 X112.91 Y84.049 J-0.315
G3 X112.933 Y83.93 I10.969 J2.061
G2 X112.937 Y83.881 I-0.248 J-0.049
G3 X113.211 Y83.438 I0.499 J0.001
G2 X113.09 Y82.931 I-0.121 J-0.239
G1 X108.069
G2 X107.889 Y83.213 J0.199
G3 X108.44 Y84.672 I-9.484 J4.42
G2 X108.884 Y85.004 I0.444 J-0.131
G1 X113.142
G2 X113.514 Y84.68 J-0.375
G3 X113.821 Y83.226 I10.365 J1.43
G2 X113.598 Y82.931 I-0.223 J-0.064
G1 X113.09
G3 X112.057 Y82.242 J-1.119
G2 X111.024 Y81.553 I-1.033 J0.431
G1 X105.722
G2 X105.569 Y81.813 J0.175
X105.983 Y82.514 I12.897 J-7.129
G3 X106.396 Y83.216 I-12.484 J7.831
X106.992 Y84.596 I-6.763 J3.739
X107.353 Y86.056 I-10.566 J3.386
G2 X107.74 Y86.381 I0.388 J-0.068
G1 X114.474
G2 X114.793 Y86.063 J-0.32
G3 X115.864 Y81.831 I9.086 J0.047
G2 X115.697 Y81.553 I-0.167 J-0.089
G1 X111.024
G3 X110.013 Y80.879 J-1.095
G2 X109.001 Y80.205 I-1.011 J0.421
G1 X103.437
G2 X103.283 Y80.465 J0.175
X105.127 Y83.768 I401.165 J-221.75
G3 X106.139 Y87.414 I-6.865 J3.869
G2 X106.464 Y87.729 I0.325 J-0.009
G1 X115.822
G2 X116.141 Y87.41 J-0.319
X116.121 Y86.76 I-10.412
G3 X116.101 Y86.11 I10.391 J-0.65
X116.683 Y83.21 I7.507
X118.309 Y80.739 I7.404 J3.1
G2 X118.082 Y80.205 I-0.227 J-0.219
G1 X109.001
G3 X107.974 Y79.52 J-1.113
G2 X106.946 Y78.834 I-1.028 J0.428
G1 X101.113
G2 X100.96 Y79.094 J0.175
G1 X104.017 Y84.531
G3 X104.712 Y86.609 I-5.294 J2.927
X104.664 Y88.799 I-6.705 J0.95
G2 X104.914 Y89.1 I0.25 J0.047
G1 X117.37
G2 X117.619 Y88.799 J-0.254
G3 X117.481 Y87.458 I8.15 J-1.518
X117.467 Y86.11 I63.191 J-1.348
X118.147 Y83.286 I6.201
X120.007 Y81.055 I5.868 J3.002
G2 X120.097 Y80.584 I-0.219 J-0.285
G1 X119.257 Y79.187
G2 X118.632 Y78.834 I-0.624 J0.376
G1 X106.946
G3 X105.918 Y78.149 J-1.113
G2 X104.89 Y77.464 I-1.028 J0.428
G1 X99.219
G2 X98.9 Y77.783 J0.319
G1 Y78.054
G2 X98.97 Y78.327 I0.565
G1 X102.817 Y85.194
G3 X103.424 Y87.712 I-4.269 J2.36
X102.694 Y90.198 I-5.168 J-0.168
G2 X102.848 Y90.47 I0.154 J0.092
G1 X119.436
G2 X119.59 Y90.198 J-0.18
G3 X119.04 Y88.967 I4.895 J-2.927
X118.837 Y87.633 I4.281 J-1.333
G1 Y86.11
G3 X119.683 Y83.355 I4.908
X121.906 Y81.519 I4.251 J2.883
G2 X122.029 Y81.137 I-0.105 J-0.245
G1 X120.031 Y77.817
G2 X119.407 Y77.464 I-0.624 J0.376
G1 X104.89
G2 X104.794 Y77.489 Z-2.973 J0.2
X104.738 Y77.535 Z-2.9 I0.096 J0.176
X104.722 Y77.556 Z-2.8 I0.152 J0.13
G1 Z0
X105.486 Y88.34
Z-2.8
X105.48 Y88.344 Z-2.852
X105.465 Y88.357 Z-2.9
X105.441 Y88.378 Z-2.941
X105.41 Y88.405 Z-2.973
X105.373 Y88.437 Z-2.993
X105.334 Y88.471 Z-3
G3 X90.817 Y92.696 I-11.862 J-13.702
X76.574 Y84.044 I3.144 J-21.225
X76.632 Y83.928 I0.059 J-0.043
G1 X76.826 Y83.926
G2 X76.897 Y83.853 I-0.001 J-0.073
X76.679 Y83.634 I-0.218 J-0.001
G1 X71.66
G2 X71.454 Y83.925 J0.218
G3 X71.509 Y84.085 I-10.533 J3.708
G2 X71.808 Y84.3 I0.299 J-0.1
G1 X76.531
G2 X76.83 Y84.085 J-0.315
G3 X76.885 Y83.925 I10.588 J3.548
G2 X76.897 Y83.853 I-0.206 J-0.073
G3 X77.108 Y83.41 I0.576 J0.002
G2 X76.942 Y82.948 I-0.165 J-0.201
G1 X70.613
G2 X70.432 Y83.231 J0.199
G3 X70.969 Y84.654 I-9.512 J4.402
G2 X71.414 Y84.986 I0.445 J-0.132
G1 X76.925
G2 X77.37 Y84.654 J-0.464
G3 X77.907 Y83.231 I10.049 J2.979
G2 X77.726 Y82.948 I-0.181 J-0.084
G1 X76.942
G3 X75.909 Y82.259 J-1.119
G2 X74.876 Y81.571 I-1.033 J0.431
G1 X68.271
G2 X68.108 Y81.849 J0.187
X68.497 Y82.492 I10.925 J-6.17
G3 X68.886 Y83.135 I-10.536 J6.813
X69.508 Y84.544 I-6.79 J3.834
X69.883 Y86.038 I-10.46 J3.422
G2 X70.271 Y86.364 I0.388 J-0.069
G1 X78.068
G2 X78.456 Y86.038 J-0.394
G3 X78.819 Y84.58 I10.95 J1.949
X79.416 Y83.2 I7.368 J2.371
X79.816 Y82.525 I11.972 J6.632
G2 X80.216 Y81.85 I-11.573 J-7.308
X80.051 Y81.571 I-0.164 J-0.091
G1 X74.876
G3 X73.851 Y80.887 J-1.11
G2 X72.826 Y80.204 I-1.025 J0.427
G1 X66.256
G2 X65.928 Y80.767 J0.377
X66.812 Y82.287 I59.826 J-33.786
G3 X67.696 Y83.807 I-58.942 J35.306
X68.395 Y85.552 I-6.166 J3.482
X68.654 Y87.415 I-8.321 J2.105
G2 X68.979 Y87.73 I0.325 J-0.009
G1 X79.36
G2 X79.685 Y87.415 J-0.325
G3 X80.694 Y83.778 I7.858 J0.222
G2 X82.535 Y80.483 I-453.82 J-255.717
X82.37 Y80.204 I-0.164 J-0.091
G1 X72.826
G3 X71.799 Y79.519 J-1.113
G2 X70.771 Y78.834 I-1.027 J0.428
G1 X65.477
G2 X64.983 Y79.125 J0.565
G1 X64.413 Y80.152
G2 X64.416 Y80.876 I0.648 J0.359
G1 X66.503 Y84.48
G3 X67.222 Y86.58 I-5.275 J2.979
X67.179 Y88.8 I-6.689 J0.981
G2 X67.429 Y89.1 I0.25 J0.047
G1 X80.91
G2 X81.159 Y88.8 J-0.254
G3 X81.112 Y86.606 I6.656 J-1.24
X81.81 Y84.526 I5.99 J0.852
X83.335 Y81.82 I187.611 J103.93
G2 X84.86 Y79.113 I-186.086 J-106.637
X84.695 Y78.834 I-0.164 J-0.091
G1 X70.771
G3 X69.744 Y78.149 J-1.113
G2 X68.716 Y77.464 I-1.027 J0.428
G1 X64.67
G2 X64.176 Y77.755 J0.565
G1 X62.844 Y80.158
G2 X62.846 Y80.882 I0.648 J0.359
G1 X65.271 Y85.176
G3 X65.209 Y90.198 I-4.351 J2.457
G2 X65.364 Y90.47 I0.155 J0.092
G1 X82.975
G2 X83.13 Y90.198 J-0.18
G3 X82.4 Y87.71 I4.438 J-2.653
X83.008 Y85.19 I4.875 J-0.156
X84.935 Y81.757 I301.247 J166.882
G2 X86.863 Y78.325 I-299.32 J-170.314
X86.933 Y78.051 I-0.494 J-0.274
G1 Y77.783
G2 X86.614 Y77.464 I-0.319
G1 X68.716
G2 X68.621 Y77.489 Z-2.973 J0.2
X68.564 Y77.535 Z-2.9 I0.096 J0.176
X68.548 Y77.556 Z-2.8 I0.152 J0.13
G1 Z0
X68.005 Y88.34
Z-2.8
X68 Y88.344 Z-2.852
X67.984 Y88.357 Z-2.9
X67.96 Y88.378 Z-2.941
X67.929 Y88.405 Z-2.973
X67.893 Y88.437 Z-2.993
X67.854 Y88.471 Z-3
G3 X44.831 Y89.311 I-12.031 J-13.834
G2 X41.388 Y87.108 I-16.622 J22.191
G3 X41.259 Y83.023 I1.124 J-2.08
G1 X41.557 Y82.989
G2 X41.616 Y82.927 I-0.006 J-0.064
X41.423 Y82.728 I-0.193 J-0.006
G1 X41.143
G2 X40.823 Y83.047 J0.319
G1 Y84.313
G2 X41.034 Y84.348 I0.108
G3 X41.595 Y83.008 I9.721 J3.285
G2 X41.616 Y82.927 I-0.172 J-0.087
G3 X42.027 Y82.344 I0.645 J0.019
G2 X41.896 Y81.643 I-0.131 J-0.338
G1 X40.058
G2 X39.739 Y81.963 J0.319
G1 Y85.972
G2 X40.058 Y86.291 I0.319
G1 X41.34
G2 X41.731 Y85.965 J-0.398
G3 X42.095 Y84.529 I11.115 J2.055
X42.686 Y83.169 I7.378 J2.396
X43.057 Y82.546 I10.226 J5.658
G2 X43.427 Y81.922 I-9.855 J-6.281
X43.263 Y81.643 I-0.165 J-0.091
G1 X41.896
G3 X40.869 Y80.958 J-1.113
G2 X39.841 Y80.273 I-1.028 J0.428
G1 X38.688
G2 X38.369 Y80.592 J0.319
G1 Y87.342
G2 X38.688 Y87.661 I0.319
G1 X42.626
G2 X42.954 Y87.345 J-0.328
G3 X43.924 Y83.854 I7.801 J0.288
G1 X45.707 Y80.632
G2 X45.496 Y80.273 I-0.211 J-0.117
G1 X39.841
G3 X38.791 Y79.573 J-1.138
G2 X37.741 Y78.873 I-1.05 J0.438
G1 X37.288
G2 X36.969 Y79.192 J0.319
G1 Y88.742
G2 X37.288 Y89.061 I0.319
G1 X44.196
G2 X44.448 Y88.76 J-0.256
G3 X45.149 Y84.532 I6.306 J-1.127
G1 X47.225 Y80.779
G2 X47.224 Y80.052 I-0.654 J-0.362
G1 X46.76 Y79.224
G2 X46.161 Y78.873 I-0.599 J0.336
G1 X37.741
G3 X36.892 Y78.156 J-0.861
G2 X35.815 Y77.883 I-0.599 J0.101
X35.614 Y78.467 I0.748 J0.584
G1 Y89.467
G2 X36.563 Y90.416 I0.949
G1 X46.294 Y90.461
G2 X46.45 Y90.188 J-0.181
G3 X46.374 Y85.21 I4.305 J-2.555
G1 X48.828 Y80.775
G2 X48.826 Y80.048 I-0.654 J-0.362
G1 X47.581 Y77.824
G2 X46.982 Y77.473 I-0.599 J0.336
G1 X36.563 Y77.518
G2 X35.815 Y77.883 J0.949
G3 X34.977 Y78.279 I-0.812 J-0.634
G2 X34.314 Y78.926 I-0.016 J0.647
G1 Y89.467
G2 X36.563 Y91.715 I2.248
G1 X184.903
G2 X187.151 Y89.467 J-2.248
G1 Y78.467
G2 X184.903 Y76.219 I-2.248
G1 X174.67 Y76.174
G2 X174.21 Y76.513 J0.482
G1 X170.467 Y88.744
G3 X166.883 Y91.385 I-3.584 J-1.111
G1 X164.881
G3 X161.295 Y88.738 J-3.752
G1 X157.577 Y76.513
G2 X157.118 Y76.174 I-0.46 J0.142
G1 X136.828
G2 X136.139 Y76.5 J0.892
G3 X134.86 Y77.506 I-2.925 J-2.402
X133.274 Y77.869 I-1.586 J-3.283
X133.038 Y77.861 J-3.784
G2 X132.801 Y77.854 I-0.236 J3.777
X132.651 Y78.119 J0.175
G1 X136.344 Y84.178
G3 X136.847 Y85.869 I-3.034 J1.823
X136.88 Y87.633 I-47.453 J1.764
X133.128 Y91.385 I-3.752
G1 X123.879
G3 X120.127 Y87.633 J-3.752
G1 Y86.11
G3 X121.235 Y83.478 I3.681
X123.879 Y82.4 I2.644 J2.704
X123.926 Y82.402 J0.76
G2 X123.974 Y82.403 I0.048 J-0.758
X124.13 Y82.127 J-0.182
G1 X120.761 Y76.527
G2 X120.137 Y76.174 I-0.624 J0.376
G1 X97.929
G2 X97.61 Y76.493 J0.319
G1 Y78.069
G2 X97.834 Y78.938 I1.795
G1 X101.688 Y85.818
G3 X98.405 Y91.385 I-3.284 J1.815
G1 X96.383
G3 X94.526 Y90.867 J-3.589
X93.176 Y89.492 I2.008 J-3.322
G2 X92.862 I-0.157 J0.091
G3 X91.512 Y90.867 I-3.358 J-1.946
X89.655 Y91.385 I-1.857 J-3.072
G1 X87.418
G3 X84.137 Y85.815 J-3.752
G1 X87.999 Y78.937
G2 X88.223 Y78.067 I-1.57 J-0.87
G1 Y76.493
G2 X87.904 Y76.174 I-0.319
G1 X63.91
G2 X63.416 Y76.465 J0.565
G1 X61.365 Y80.164
G2 X61.368 Y80.888 I0.648 J0.359
G1 X64.187 Y85.788
G3 X60.92 Y91.385 I-3.267 J1.845
G1 X58.86
G3 X57.361 Y91.048 J-3.502
X56.125 Y90.135 I1.708 J-3.606
G2 X55.726 I-0.2 J0.183
G3 X54.49 Y91.048 I-2.944 J-2.693
X52.991 Y91.385 I-1.499 J-3.165
G1 X50.754
G3 X47.472 Y85.817 J-3.752
G1 X50.315 Y80.772
G2 X50.313 Y80.044 I-0.654 J-0.362
G1 X48.343 Y76.525
G2 X47.743 Y76.174 I-0.599 J0.336
G1 X36.563 Y76.219
G2 X34.314 Y78.467 J2.248
G1 Y78.926
G3 X33.639 Y79.939 I-1.098
G2 X32.964 Y80.952 I0.422 J1.013
G1 Y89.467
G2 X36.563 Y93.066 I3.599
G1 X184.903
G2 X188.502 Y89.467 J-3.599
G1 Y78.467
G2 X184.903 Y74.868 I-3.599
G1 X173.675 Y74.823
G2 X173.214 Y75.162 J0.482
G1 X169.176 Y88.344
G3 X166.883 Y90.034 I-2.293 J-0.711
G1 X164.881
G3 X162.586 Y88.34 J-2.401
G1 X158.575 Y75.162
G2 X158.115 Y74.823 I-0.46 J0.142
G1 X135.906
G2 X135.411 Y75.139 J0.546
G3 X133.111 Y76.55 I-2.214 J-1.028
G2 X130.414 Y76.503 I-2.698 J76.574
X130.264 Y76.768 J0.175
G1 X135.186 Y84.873
G3 X135.545 Y86.23 I-2.16 J1.298
G2 X135.529 Y87.633 I60.239 J1.403
G3 X133.128 Y90.034 I-2.401
G1 X123.879
G3 X121.478 Y87.633 J-2.401
G1 Y86.11
G3 X123.879 Y83.709 I2.401
X125.121 Y83.731 J34.297
G2 X126.363 Y83.754 I1.242 J-34.275
X126.519 Y83.478 J-0.182
G1 X121.63 Y75.366
G3 X121.571 Y75.254 I0.935 J-0.563
G2 X121.518 Y75.139 I-13.062 J5.926
X121.023 Y74.823 I-0.495 J0.23
G1 X96.578
G2 X96.259 Y75.142 J0.319
G1 Y78.109
G2 X96.632 Y79.556 I2.991
G1 X100.506 Y86.472
G3 X98.405 Y90.034 I-2.101 J1.161
X96.179 Y89.979 J-44.599
X94.287 Y88.804 I0.115 J-2.295
X93.733 Y87.765 I26.901 J-15.023
G2 X93.178 Y86.726 I-27.455 J13.984
X92.863 I-0.158 J0.088
X91.708 Y88.816 I188.759 J105.716
G3 X89.655 Y90.034 I-2.053 J-1.12
G1 X87.418
G3 X85.318 Y86.47 J-2.401
G1 X89.201 Y79.554
G2 X89.574 Y78.109 I-2.607 J-1.444
G1 Y75.142
G2 X89.255 Y74.823 I-0.319
G1 X63.115
G2 X62.621 Y75.114 J0.565
G1 X59.817 Y80.17
G2 X59.82 Y80.894 I0.648 J0.359
G1 X63.011 Y86.453
G3 X60.92 Y90.034 I-2.091 J1.181
X58.682 Y89.986 J-52.374
X56.772 Y88.819 I0.099 J-2.308
X56.423 Y88.16 I10.763 J-6.116
G2 X56.074 Y87.5 I-11.112 J5.456
X55.758 Y87.502 I-0.158 J0.09
X55.424 Y88.15 I10.344 J5.742
G3 X55.09 Y88.799 I-10.678 J-5.094
X53.09 Y90.007 I-2.054 J-1.14
X50.754 Y90.034 I-2.336 J-100.391
X48.654 Y86.471 J-2.401
G1 X51.861 Y80.768
G2 X51.859 Y80.041 I-0.654 J-0.362
G1 X49.135 Y75.174
G2 X48.535 Y74.823 I-0.599 J0.336
G1 X36.563 Y74.868
G2 X32.964 Y78.467 J3.599
G1 Y80.952
G3 X32.263 Y82.003 I-1.138
G2 X31.563 Y83.053 I0.438 J1.051
G1 Y89.467
G2 X36.563 Y94.467 I5
G1 X184.903
G2 X189.903 Y89.467 J-5
G1 Y78.467
G2 X184.903 Y73.467 I-5
G1 X172.32
X167.838 Y87.929
G3 X166.883 Y88.633 I-0.955 J-0.296
G1 X164.881
G3 X163.925 Y87.928 J-1
G1 X159.472 Y73.467
X134.274
Y74.147
G3 X133.274 Y75.147 I-1
G1 X127.707
X133.985 Y85.595
G3 X134.128 Y86.11 I-0.857 J0.515
G1 Y87.633
G3 X133.128 Y88.633 I-1
G1 X123.879
G3 X122.879 Y87.633 J-1
G1 Y86.11
G3 X123.879 Y85.11 I1
G1 X129.083
X122.798 Y74.663
G3 X122.655 Y74.147 I0.857 J-0.516
G1 Y73.467
X94.903
Y79.231
X99.28 Y87.15
G3 X98.405 Y88.633 I-0.875 J0.484
G1 X96.383
G3 X95.51 Y88.121 J-1
G1 X93.023 Y83.666
X90.527 Y88.122
G3 X89.655 Y88.633 I-0.872 J-0.489
G1 X87.418
G3 X86.544 Y87.149 J-1
G1 X90.93 Y79.23
Y73.467
X61.984
X58.062 Y80.539
X61.791 Y87.142
G3 X60.92 Y88.633 I-0.871 J0.492
G1 X58.86
G3 X57.99 Y88.127 J-1
G1 X55.901 Y84.451
X53.865 Y88.119
G3 X52.991 Y88.633 I-0.874 J-0.485
G1 X50.754
G3 X49.879 Y87.149 J-1
G1 X53.614 Y80.4
X49.733 Y73.467
X36.563
G2 X31.563 Y78.467 J5
G1 Y83.053
G2 X31.587 Y83.149 Z-2.973 I0.2
X31.633 Y83.206 Z-2.9 I0.176 J-0.096
X31.655 Y83.222 Z-2.8 I0.13 J-0.152
G0 Z5
X54.982 Y74.99
G1 Z2.7 F400
G2 X54.997 Y75.011 Z2.602 I0.781 J-0.541 F200
X55.041 Y75.066 Z2.529 I0.766 J-0.562
X55.107 Y75.137 Z2.5 I0.723 J-0.617
X56.419 Y73.762 Z2.396 I0.656 J-0.687
X55.107 Y75.137 Z2.292 I-0.656 J0.687
X56.419 Y73.762 Z2.187 I0.656 J-0.687
X55.107 Y75.137 Z2.083 I-0.656 J0.687
X56.419 Y73.762 Z1.979 I0.656 J-0.687
X55.107 Y75.137 Z1.875 I-0.656 J0.687
X56.419 Y73.762 Z1.77 I0.656 J-0.687
X55.107 Y75.137 Z1.666 I-0.656 J0.687
X56.419 Y73.762 Z1.562 I0.656 J-0.687
X55.107 Y75.137 Z1.458 I-0.656 J0.687
X56.419 Y73.762 Z1.354 I0.656 J-0.687
X55.107 Y75.137 Z1.249 I-0.656 J0.687
X56.419 Y73.762 Z1.145 I0.656 J-0.687
X55.107 Y75.137 Z1.041 I-0.656 J0.687
X56.419 Y73.762 Z0.937 I0.656 J-0.687
X55.107 Y75.137 Z0.832 I-0.656 J0.687
X56.419 Y73.762 Z0.728 I0.656 J-0.687
X55.107 Y75.137 Z0.624 I-0.656 J0.687
X56.419 Y73.762 Z0.52 I0.656 J-0.687
X55.107 Y75.137 Z0.416 I-0.656 J0.687
X56.419 Y73.762 Z0.311 I0.656 J-0.687
X55.107 Y75.137 Z0.207 I-0.656 J0.687
X56.419 Y73.762 Z0.103 I0.656 J-0.687
X55.107 Y75.137 Z-0.001 I-0.656 J0.687
X56.419 Y73.762 Z-0.106 I0.656 J-0.687
X55.107 Y75.137 Z-0.21 I-0.656 J0.687
X56.419 Y73.762 Z-0.314 I0.656 J-0.687
X55.107 Y75.137 Z-0.418 I-0.656 J0.687
X56.419 Y73.762 Z-0.522 I0.656 J-0.687
X55.107 Y75.137 Z-0.627 I-0.656 J0.687
X56.419 Y73.762 Z-0.731 I0.656 J-0.687
X55.107 Y75.137 Z-0.835 I-0.656 J0.687
X56.419 Y73.762 Z-0.939 I0.656 J-0.687
X54.931 Y73.991 Z-1 I-0.656 J0.687
X56.043 Y74.604 I0.556 J0.306
G1 X56.15 Y74.41 F400
G2 X55.985 Y74.13 I-0.165 J-0.091
G1 X55.537
G2 X55.374 Y74.409 J0.187
G1 X55.608 Y74.824
G2 X55.923 Y74.822 I0.157 J-0.088
G1 X56.043 Y74.604
G3 X56.574 Y74.328 I0.472 J0.26
G2 X57.104 Y74.052 I0.058 J-0.536
G1 X57.427 Y73.467
X54.081
X55.773 Y76.468
X57.104 Y74.052
G2 X56.827 Y73.784 I-0.175 J-0.097
G1 X55.122 Y74.799
G2 X55.081 Y75.11 I0.102 J0.172
X56.446 Y73.789 Z-1.104 I0.683 J-0.661 F200
X55.081 Y75.11 Z-1.208 I-0.683 J0.661
X56.446 Y73.789 Z-1.313 I0.683 J-0.661
X55.081 Y75.11 Z-1.417 I-0.683 J0.661
X56.446 Y73.789 Z-1.521 I0.683 J-0.661
X55.081 Y75.11 Z-1.625 I-0.683 J0.661
X56.446 Y73.789 Z-1.73 I0.683 J-0.661
X55.081 Y75.11 Z-1.834 I-0.683 J0.661
X56.446 Y73.789 Z-1.938 I0.683 J-0.661
X54.931 Y73.991 Z-2 I-0.683 J0.661
X56.043 Y74.604 I0.556 J0.306
G1 X56.15 Y74.41 F400
G2 X55.985 Y74.13 I-0.165 J-0.091
G1 X55.537
G2 X55.374 Y74.409 J0.187
G1 X55.608 Y74.824
G2 X55.923 Y74.822 I0.157 J-0.088
G1 X56.043 Y74.604
G3 X56.574 Y74.328 I0.472 J0.26
G2 X57.104 Y74.052 I0.058 J-0.536
G1 X57.427 Y73.467
X54.081
X55.773 Y76.468
X57.104 Y74.052
G2 X56.827 Y73.784 I-0.175 J-0.097
G1 X55.122 Y74.799
G2 X55.081 Y75.11 I0.102 J0.172
X56.446 Y73.789 Z-2.104 I0.683 J-0.661 F200
X55.081 Y75.11 Z-2.208 I-0.683 J0.661
X56.446 Y73.789 Z-2.313 I0.683 J-0.661
X55.081 Y75.11 Z-2.417 I-0.683 J0.661
X56.446 Y73.789 Z-2.521 I0.683 J-0.661
X55.081 Y75.11 Z-2.625 I-0.683 J0.661
X56.446 Y73.789 Z-2.73 I0.683 J-0.661
X55.081 Y75.11 Z-2.834 I-0.683 J0.661
X56.446 Y73.789 Z-2.938 I0.683 J-0.661
X54.931 Y73.991 Z-3 I-0.683 J0.661
X56.043 Y74.604 I0.556 J0.306
G1 X56.15 Y74.41 F400
G2 X55.985 Y74.13 I-0.165 J-0.091
G1 X55.537
G2 X55.374 Y74.409 J0.187
G1 X55.608 Y74.824
G2 X55.923 Y74.822 I0.157 J-0.088
G1 X56.043 Y74.604
G3 X56.574 Y74.328 I0.472 J0.26
G2 X57.104 Y74.052 I0.058 J-0.536
G1 X57.427 Y73.467
X54.081
X55.773 Y76.468
X57.104 Y74.052
G2 X57.129 Y73.956 Z-2.973 I-0.175 J-0.097
X57.116 Y73.885 Z-2.9 I-0.2 J-0.001
X57.105 Y73.861 Z-2.8 I-0.187 J0.071
G0 Z5
X165.367 Y73.467
G1 Z2.7 F400
G18 G3 X165.174 Z2.5 I-0.2 F200
G1 X163.459 Z2.44
X163.872 Y74.807 Z2.391
X167.729 Z2.256
X168.145 Y73.467 Z2.207
X163.459 Z2.044
X163.872 Y74.807 Z1.995
X167.729 Z1.86
X168.145 Y73.467 Z1.811
X163.459 Z1.648
X163.872 Y74.807 Z1.599
X167.729 Z1.464
X168.145 Y73.467 Z1.415
X163.459 Z1.251
X163.872 Y74.807 Z1.202
X167.729 Z1.068
X168.145 Y73.467 Z1.019
X163.459 Z0.855
X163.872 Y74.807 Z0.806
X167.729 Z0.671
X168.145 Y73.467 Z0.622
X163.459 Z0.459
X163.872 Y74.807 Z0.41
X167.729 Z0.275
X168.145 Y73.467 Z0.226
X163.459 Z0.062
X163.872 Y74.807 Z0.013
X167.729 Z-0.121
X168.145 Y73.467 Z-0.17
X163.459 Z-0.334
X163.872 Y74.807 Z-0.383
X167.729 Z-0.518
X168.145 Y73.467 Z-0.567
X163.459 Z-0.73
X163.872 Y74.807 Z-0.779
X167.729 Z-0.914
X168.145 Y73.467 Z-0.963
X167.085 Z-1
X163.459 F400
X163.872 Y74.807
X167.729
X168.145 Y73.467
X167.085
X163.459 Z-1.127 F200
X163.872 Y74.807 Z-1.176
X167.729 Z-1.31
X168.145 Y73.467 Z-1.359
X163.459 Z-1.523
X163.872 Y74.807 Z-1.572
X167.729 Z-1.707
X168.145 Y73.467 Z-1.756
X163.459 Z-1.919
X163.872 Y74.807 Z-1.968
X164.782 Z-2
X167.729 F400
X168.145 Y73.467
X163.459
X163.872 Y74.807
X164.782
X167.729 Z-2.103 F200
X168.145 Y73.467 Z-2.152
X163.459 Z-2.316
X163.872 Y74.807 Z-2.365
X167.729 Z-2.499
X168.145 Y73.467 Z-2.548
X163.459 Z-2.712
X163.872 Y74.807 Z-2.761
X167.729 Z-2.896
X168.145 Y73.467 Z-2.945
X166.556 Z-3
X163.459 F400
X163.872 Y74.807
X167.729
X168.145 Y73.467
X166.556
G17 G2 X166.46 Y73.492 Z-2.973 J0.2
X166.404 Y73.538 Z-2.9 I0.096 J0.176
X166.388 Y73.559 Z-2.8 I0.152 J0.13
G0 Z15
X165.073 Y78.684
Z5
G1 Z2.7 F400
X165.075 Y78.691 Z2.649 F200
X165.08 Y78.709 Z2.602
X165.089 Y78.738 Z2.561
X165.101 Y78.776 Z2.529
X165.115 Y78.821 Z2.508
X165.13 Y78.869 Z2.5
X165.8 Y81.027 Z2.421
X166.659 Y78.321 Z2.322
X164.96 Z2.263
X165.8 Y81.027 Z2.164
X166.659 Y78.321 Z2.065
X164.96 Z2.005
X165.8 Y81.027 Z1.906
X166.659 Y78.321 Z1.807
X164.96 Z1.748
X165.8 Y81.027 Z1.649
X166.659 Y78.321 Z1.55
X164.96 Z1.49
X165.8 Y81.027 Z1.391
X166.659 Y78.321 Z1.292
X164.96 Z1.233
X165.8 Y81.027 Z1.134
X166.659 Y78.321 Z1.035
X164.96 Z0.975
X165.8 Y81.027 Z0.877
X166.659 Y78.321 Z0.777
X164.96 Z0.718
X165.8 Y81.027 Z0.619
X166.659 Y78.321 Z0.52
X164.96 Z0.461
X165.8 Y81.027 Z0.362
X166.659 Y78.321 Z0.263
X164.96 Z0.203
X165.8 Y81.027 Z0.104
X166.659 Y78.321 Z0.005
X164.96 Z-0.054
X165.8 Y81.027 Z-0.153
X166.659 Y78.321 Z-0.252
X164.96 Z-0.312
X165.8 Y81.027 Z-0.411
X166.659 Y78.321 Z-0.51
X164.96 Z-0.569
X165.8 Y81.027 Z-0.668
X166.659 Y78.321 Z-0.767
X164.96 Z-0.826
X165.8 Y81.027 Z-0.925
X166.447 Y78.99 Z-1
X166.659 Y78.321 F400
X164.96
X165.8 Y81.027
X166.447 Y78.99
G2 X166.452 Y78.892 Z-0.973 I-0.191 J-0.061
X166.426 Y78.824 Z-0.9 I-0.196 J0.038
X166.41 Y78.802 Z-0.8 I-0.17 J0.106
G0 Z15
M9
G28 G91 Z0
G28 X0 Y0
M30
%
