%
(1)
(T4  D=3.175 CR=0 - ZMIN=-3 - flat end mill)
G90 G94
G17
G21
G28 G91 Z0
G90

(Side Slot)
M9
T4 M6
S16542 M3
G54
M8
G0 X11.51 Y227.823
Z15
Z5
G1 Z-0.714 F400
X11.517 Y227.822 Z-0.778
X11.538 Y227.819 Z-0.838
X11.571 Y227.814 Z-0.892
X11.616 Y227.806 Z-0.938
X11.67 Y227.798 Z-0.972
X11.729 Y227.789 Z-0.993
X11.792 Y227.779 Z-1
X13.467 Y227.513
G3 X13.516 Y227.51 I0.05 J0.314
G1 X209
X210.473
G3 X210.673 Y227.709 J0.2
G1 X210.684 Y230.134
G3 X210.484 Y230.335 I-0.2 J0.001
G1 X15
X13.527
G3 X13.334 Y230.187 J-0.2
G1 X12.693 Y227.811
G3 X12.871 Y227.56 I0.193 J-0.052
G1 X12.941 Y227.554 Z-1.008
X13.008 Y227.549 Z-1.031
X13.068 Y227.544 Z-1.069
X13.118 Y227.54 Z-1.12
X13.156 Y227.537 Z-1.18
X13.179 Y227.536 Z-1.247
X13.187 Y227.535 Z-1.317
Z-1.683
X13.195 Y227.534 Z-1.753
X13.219 Y227.532 Z-1.82
X13.256 Y227.529 Z-1.88
X13.306 Y227.526 Z-1.931
X13.366 Y227.521 Z-1.969
X13.433 Y227.516 Z-1.992
X13.504 Y227.51 Z-2
G3 X13.516 I0.012 J0.157
G1 X209
X210.473
G3 X210.673 Y227.709 J0.2
G1 X210.684 Y230.134
G3 X210.484 Y230.335 I-0.2 J0.001
G1 X15
X13.527
G3 X13.334 Y230.187 J-0.2
G1 X12.693 Y227.811
G3 X12.871 Y227.56 I0.193 J-0.052
G1 X12.941 Y227.554 Z-2.008
X13.008 Y227.549 Z-2.031
X13.068 Y227.544 Z-2.069
X13.118 Y227.54 Z-2.12
X13.156 Y227.537 Z-2.18
X13.179 Y227.536 Z-2.247
X13.187 Y227.535 Z-2.318
Z-2.682
X13.195 Y227.534 Z-2.753
X13.219 Y227.532 Z-2.82
X13.256 Y227.529 Z-2.88
X13.306 Y227.526 Z-2.931
X13.366 Y227.521 Z-2.969
X13.433 Y227.516 Z-2.992
X13.504 Y227.51 Z-3
G3 X13.516 I0.012 J0.157
G1 X209
X210.473
G3 X210.673 Y227.709 J0.2
G1 X210.684 Y230.134
G3 X210.484 Y230.335 I-0.2 J0.001
G1 X15
X13.527
G3 X13.477 Y230.331 J-0.318
G1 X11.909 Y230.082
X11.84 Y230.071 Z-2.992
X11.773 Y230.061 Z-2.969
X11.714 Y230.051 Z-2.931
X11.664 Y230.043 Z-2.88
X11.627 Y230.037 Z-2.82
X11.604 Y230.034 Z-2.753
X11.596 Y230.033 Z-2.682
G0 Z15
M9
G28 G91 Z0
G28 X0 Y0
M30
%
