%
(1)
(T1  D=1.984 CR=0 - ZMIN=-6 - flat end mill)
G90 G94
G17
G21
G28 G91 Z0
G90

(Fix-Y-1)
M9
T1 M6
S26467 M3
G54
M8
G0 X44.097 Y36.927
Z15
Z5
G1 Z2 F400
Z-0.802 F200
G18 G2 X44.295 Z-1 I0.198
G1 X44.494 F400
G17 G2 X44.692 Y36.729 J-0.198
G1 Y32.221
X38.07
Y37.721
X27.58
Y32.221
X8.999
Y14.204
G3 X13.002 Y10.212 I3.992
G1 X44.991
G3 X48.203 Y11.833 J3.992
G1 X64.863 Y32.221
X55.182
Y37.721
X44.692
Y36.729
G2 X44.494 Y36.531 I-0.198
G1 X44.295
G18 G3 X44.097 Z-0.802 K0.198
G1 Y36.927
Z-1.802 F200
G2 X44.295 Z-2 I0.198
G1 X44.494 F400
G17 G2 X44.692 Y36.729 J-0.198
G1 Y32.221
X38.07
Y37.721
X27.58
Y32.221
X8.999
Y14.204
G3 X13.002 Y10.212 I3.992
G1 X44.991
G3 X48.203 Y11.833 J3.992
G1 X64.863 Y32.221
X55.182
Y37.721
X44.692
Y36.729
G2 X44.494 Y36.531 I-0.198
G1 X44.295
G18 G3 X44.097 Z-1.802 K0.198
G1 Y36.927
Z-2.802 F200
G2 X44.295 Z-3 I0.198
G1 X44.494 F400
G17 G2 X44.692 Y36.729 J-0.198
G1 Y32.221
X38.07
Y37.721
X27.58
Y32.221
X8.999
Y14.204
G3 X13.002 Y10.212 I3.992
G1 X44.991
G3 X48.203 Y11.833 J3.992
G1 X64.863 Y32.221
X55.182
Y37.721
X44.692
Y36.729
G2 X44.494 Y36.531 I-0.198
G1 X44.295
G18 G3 X44.097 Z-2.802 K0.198
G1 Y36.927
Z-3.802 F200
G2 X44.295 Z-4 I0.198
G1 X44.494 F400
G17 G2 X44.692 Y36.729 J-0.198
G1 Y32.221
X38.07
Y37.721
X27.58
Y32.221
X8.999
Y14.204
G3 X13.002 Y10.212 I3.992
G1 X44.991
G3 X48.203 Y11.833 J3.992
G1 X64.863 Y32.221
X55.182
Y37.721
X44.692
Y36.729
G2 X44.494 Y36.531 I-0.198
G1 X44.295
G18 G3 X44.097 Z-3.802 K0.198
G1 Y36.927
Z-4.802 F200
G2 X44.295 Z-5 I0.198
G1 X44.494 F400
G17 G2 X44.692 Y36.729 J-0.198
G1 Y32.221
X38.07
Y37.721
X27.58
Y32.221
X8.999
Y14.204
G3 X13.002 Y10.212 I3.992
G1 X44.991
G3 X48.203 Y11.833 J3.992
G1 X64.863 Y32.221
X55.182
Y37.721
X44.692
Y36.729
G2 X44.494 Y36.531 I-0.198
G1 X44.295
G18 G3 X44.097 Z-4.802 K0.198
G1 Y36.927
Z-5.802 F200
G2 X44.295 Z-6 I0.198
G1 X44.494 F400
G17 G2 X44.692 Y36.729 J-0.198
G1 Y32.221
X38.07
Y37.721
X27.58
Y32.221
X8.999
Y14.204
G3 X13.002 Y10.212 I3.992
G1 X44.991
G3 X48.203 Y11.833 J3.992
G1 X64.863 Y32.221
X55.182
Y37.721
X44.692
Y36.729
G2 X44.494 Y36.531 I-0.198
G1 X44.295
G18 G3 X44.097 Z-5.802 K0.198
G0 Z15
G17
M9
G28 G91 Z0
G28 X0 Y0
M30
%
