%
(1)
(T1  D=1.984 CR=0 - ZMIN=-5 - flat end mill)
G90 G94
G17
G21
G28 G91 Z0
G90

(Fix-Y-2)
M9
T1 M6
S26467 M3
G54
M8
G0 X35.255 Y32.642
Z15
Z5
G1 Z2 F400
Z-0.802 F200
G19 G3 Y32.84 Z-1 J0.198
G1 Y33.039 F400
G17 G2 X35.453 Y33.237 I0.198
G1 X39.461
Y25.576
X34.461
Y13.945
X41.851
X60.135 Y15.719
G3 X65.406 Y27.287 I-0.709 J7.308
G1 X39.14 Y64.159
X34.461
Y52.529
X39.461
Y44.867
X34.461
Y33.237
X35.453
G2 X35.652 Y33.039 J-0.198
G1 Y32.84
G19 G2 Y32.642 Z-0.802 K0.198
G1 X35.255
Z-1.802 F200
G3 Y32.84 Z-2 J0.198
G1 Y33.039 F400
G17 G2 X35.453 Y33.237 I0.198
G1 X39.461
Y25.576
X34.461
Y13.945
X41.851
X60.135 Y15.719
G3 X65.406 Y27.287 I-0.709 J7.308
G1 X39.14 Y64.159
X34.461
Y52.529
X39.461
Y44.867
X34.461
Y33.237
X35.453
G2 X35.652 Y33.039 J-0.198
G1 Y32.84
G19 G2 Y32.642 Z-1.802 K0.198
G1 X35.255
Z-2.802 F200
G3 Y32.84 Z-3 J0.198
G1 Y33.039 F400
G17 G2 X35.453 Y33.237 I0.198
G1 X39.461
Y25.576
X34.461
Y13.945
X41.851
X60.135 Y15.719
G3 X65.406 Y27.287 I-0.709 J7.308
G1 X39.14 Y64.159
X34.461
Y52.529
X39.461
Y44.867
X34.461
Y33.237
X35.453
G2 X35.652 Y33.039 J-0.198
G1 Y32.84
G19 G2 Y32.642 Z-2.802 K0.198
G1 X35.255
Z-3.802 F200
G3 Y32.84 Z-4 J0.198
G1 Y33.039 F400
G17 G2 X35.453 Y33.237 I0.198
G1 X39.461
Y25.576
X34.461
Y13.945
X41.851
X60.135 Y15.719
G3 X65.406 Y27.287 I-0.709 J7.308
G1 X39.14 Y64.159
X34.461
Y52.529
X39.461
Y44.867
X34.461
Y33.237
X35.453
G2 X35.652 Y33.039 J-0.198
G1 Y32.84
G19 G2 Y32.642 Z-3.802 K0.198
G1 X35.255
Z-4.802 F200
G3 Y32.84 Z-5 J0.198
G1 Y33.039 F400
G17 G2 X35.453 Y33.237 I0.198
G1 X39.461
Y25.576
X34.461
Y13.945
X41.851
X60.135 Y15.719
G3 X65.406 Y27.287 I-0.709 J7.308
G1 X39.14 Y64.159
X34.461
Y52.529
X39.461
Y44.867
X34.461
Y33.237
X35.453
G2 X35.652 Y33.039 J-0.198
G1 Y32.84
G19 G2 Y32.642 Z-4.802 K0.198
G0 Z15
G17
M9
G28 G91 Z0
G28 X0 Y0
M30
%
