%
(1)
(T1  D=1.984 CR=0 - ZMIN=-6 - flat end mill)
G90 G94
G17
G21
G28 G91 Z0
G90

(Fix-Y-2)
M9
T1 M6
S26467 M3
G54
M8
G0 X35.538 Y89.074
Z15
Z5
G1 Z2 F400
Z-0.802 F200
G18 G2 X35.736 Z-1 I0.198
G1 X35.935 F400
G17 G2 X36.133 Y88.875 J-0.198
G1 Y84.367
X29.562
Y89.867
X9.021
Y53.495
G3 X20.3 Y41.213 I11.095 J-1.131
G1 X52.632
G3 X63.782 Y51.419 I0.038 J11.152
X63.786 Y51.503 I-0.989 J0.084
G1 Y89.867
X53.245
Y84.367
X46.674
Y89.867
X36.133
Y88.875
G2 X35.935 Y88.677 I-0.198
G1 X35.736
G18 G3 X35.538 Z-0.802 K0.198
G1 Y89.074
Z-1.802 F200
G2 X35.736 Z-2 I0.198
G1 X35.935 F400
G17 G2 X36.133 Y88.875 J-0.198
G1 Y84.367
X29.562
Y89.867
X9.021
Y53.495
G3 X20.3 Y41.213 I11.095 J-1.131
G1 X52.632
G3 X63.782 Y51.419 I0.038 J11.152
X63.786 Y51.503 I-0.989 J0.084
G1 Y89.867
X53.245
Y84.367
X46.674
Y89.867
X36.133
Y88.875
G2 X35.935 Y88.677 I-0.198
G1 X35.736
G18 G3 X35.538 Z-1.802 K0.198
G1 Y89.074
Z-2.802 F200
G2 X35.736 Z-3 I0.198
G1 X35.935 F400
G17 G2 X36.133 Y88.875 J-0.198
G1 Y84.367
X29.562
Y89.867
X9.021
Y53.495
G3 X20.3 Y41.213 I11.095 J-1.131
G1 X52.632
G3 X63.782 Y51.419 I0.038 J11.152
X63.786 Y51.503 I-0.989 J0.084
G1 Y89.867
X53.245
Y84.367
X46.674
Y89.867
X36.133
Y88.875
G2 X35.935 Y88.677 I-0.198
G1 X35.736
G18 G3 X35.538 Z-2.802 K0.198
G1 Y89.074
Z-3.802 F200
G2 X35.736 Z-4 I0.198
G1 X35.935 F400
G17 G2 X36.133 Y88.875 J-0.198
G1 Y84.367
X29.562
Y89.867
X9.021
Y53.495
G3 X20.3 Y41.213 I11.095 J-1.131
G1 X52.632
G3 X63.782 Y51.419 I0.038 J11.152
X63.786 Y51.503 I-0.989 J0.084
G1 Y89.867
X53.245
Y84.367
X46.674
Y89.867
X36.133
Y88.875
G2 X35.935 Y88.677 I-0.198
G1 X35.736
G18 G3 X35.538 Z-3.802 K0.198
G1 Y89.074
Z-4.802 F200
G2 X35.736 Z-5 I0.198
G1 X35.935 F400
G17 G2 X36.133 Y88.875 J-0.198
G1 Y84.367
X29.562
Y89.867
X9.021
Y53.495
G3 X20.3 Y41.213 I11.095 J-1.131
G1 X52.632
G3 X63.782 Y51.419 I0.038 J11.152
X63.786 Y51.503 I-0.989 J0.084
G1 Y89.867
X53.245
Y84.367
X46.674
Y89.867
X36.133
Y88.875
G2 X35.935 Y88.677 I-0.198
G1 X35.736
G18 G3 X35.538 Z-4.802 K0.198
G1 Y89.074
Z-5.802 F200
G2 X35.736 Z-6 I0.198
G1 X35.935 F400
G17 G2 X36.133 Y88.875 J-0.198
G1 Y84.367
X29.562
Y89.867
X9.021
Y53.495
G3 X20.3 Y41.213 I11.095 J-1.131
G1 X52.632
G3 X63.782 Y51.419 I0.038 J11.152
X63.786 Y51.503 I-0.989 J0.084
G1 Y89.867
X53.245
Y84.367
X46.674
Y89.867
X36.133
Y88.875
G2 X35.935 Y88.677 I-0.198
G1 X35.736
G18 G3 X35.538 Z-5.802 K0.198
G0 Z15
G17
M9
G28 G91 Z0
G28 X0 Y0
M30
%
