%
(1)
(T1  D=1.984 CR=0 - ZMIN=-6 - flat end mill)
G90 G94
G17
G21
G28 G91 Z0
G90

(Fix-X-1-Holes)
M9
T1 M6
S26467 M3
G54
M8
G0 X13.862 Y38.921
Z15
Z5
G1 Z2.698 F400
G2 X13.837 Y38.929 Z2.601 I0.259 J0.906 F200
X13.772 Y38.952 Z2.529 I0.283 J0.899
X13.684 Y38.992 Z2.5 I0.349 J0.876
X14.557 Y40.663 Z2.397 I0.437 J0.835
X13.684 Y38.992 Z2.293 I-0.437 J-0.835
X14.557 Y40.663 Z2.19 I0.437 J0.835
X13.684 Y38.992 Z2.086 I-0.437 J-0.835
X14.557 Y40.663 Z1.983 I0.437 J0.835
X13.684 Y38.992 Z1.88 I-0.437 J-0.835
X14.557 Y40.663 Z1.776 I0.437 J0.835
X13.684 Y38.992 Z1.673 I-0.437 J-0.835
X14.557 Y40.663 Z1.569 I0.437 J0.835
X13.684 Y38.992 Z1.466 I-0.437 J-0.835
X14.557 Y40.663 Z1.363 I0.437 J0.835
X13.684 Y38.992 Z1.259 I-0.437 J-0.835
X14.557 Y40.663 Z1.156 I0.437 J0.835
X13.684 Y38.992 Z1.052 I-0.437 J-0.835
X14.557 Y40.663 Z0.949 I0.437 J0.835
X13.684 Y38.992 Z0.845 I-0.437 J-0.835
X14.557 Y40.663 Z0.742 I0.437 J0.835
X13.684 Y38.992 Z0.639 I-0.437 J-0.835
X14.557 Y40.663 Z0.535 I0.437 J0.835
X13.684 Y38.992 Z0.432 I-0.437 J-0.835
X14.557 Y40.663 Z0.328 I0.437 J0.835
X13.684 Y38.992 Z0.225 I-0.437 J-0.835
X14.557 Y40.663 Z0.122 I0.437 J0.835
X13.684 Y38.992 Z0.018 I-0.437 J-0.835
X14.557 Y40.663 Z-0.085 I0.437 J0.835
X13.684 Y38.992 Z-0.189 I-0.437 J-0.835
X14.557 Y40.663 Z-0.292 I0.437 J0.835
X13.684 Y38.992 Z-0.395 I-0.437 J-0.835
X14.557 Y40.663 Z-0.499 I0.437 J0.835
X13.684 Y38.992 Z-0.602 I-0.437 J-0.835
X14.557 Y40.663 Z-0.706 I0.437 J0.835
X13.684 Y38.992 Z-0.809 I-0.437 J-0.835
X14.557 Y40.663 Z-0.912 I0.437 J0.835
X14.121 Y38.885 Z-1 I-0.437 J-0.835
G1 X13.989 F400
G2 X13.669 Y39.204 J0.319
G1 Y43.468
G2 X13.989 Y43.788 I0.319
G1 X14.253
G2 X14.572 Y43.468 J-0.319
G1 Y39.204
G2 X14.253 Y38.885 I-0.319
G1 X14.121
G3 X13.21 Y38.243 J-0.967
G2 X12.113 Y38.434 I-0.532 J0.19
G1 Y45.344
X16.129
Y37.329
X12.113
Y38.434
G2 X12.231 Y38.616 I0.2
G1 X13.22 Y39.062
G3 X13.31 Y39.347 I-0.082 J0.182
G2 X14.931 Y40.309 Z-1.103 I0.811 J0.481 F200
X13.31 Y39.347 Z-1.207 I-0.811 J-0.481
X14.931 Y40.309 Z-1.31 I0.811 J0.481
X13.31 Y39.347 Z-1.414 I-0.811 J-0.481
X14.931 Y40.309 Z-1.517 I0.811 J0.481
X13.31 Y39.347 Z-1.62 I-0.811 J-0.481
X14.931 Y40.309 Z-1.724 I0.811 J0.481
X13.31 Y39.347 Z-1.827 I-0.811 J-0.481
X14.931 Y40.309 Z-1.931 I0.811 J0.481
X14.121 Y38.885 Z-2 I-0.811 J-0.481
G1 X13.989 F400
G2 X13.669 Y39.204 J0.319
G1 Y43.468
G2 X13.989 Y43.788 I0.319
G1 X14.253
G2 X14.572 Y43.468 J-0.319
G1 Y39.204
G2 X14.253 Y38.885 I-0.319
G1 X14.121
G3 X13.21 Y38.243 J-0.967
G2 X12.113 Y38.434 I-0.532 J0.19
G1 Y45.344
X16.129
Y37.329
X12.113
Y38.434
G2 X12.231 Y38.616 I0.2
G1 X13.22 Y39.062
G3 X13.31 Y39.347 I-0.082 J0.182
G2 X14.931 Y40.309 Z-2.103 I0.811 J0.481 F200
X13.31 Y39.347 Z-2.207 I-0.811 J-0.481
X14.931 Y40.309 Z-2.31 I0.811 J0.481
X13.31 Y39.347 Z-2.414 I-0.811 J-0.481
X14.931 Y40.309 Z-2.517 I0.811 J0.481
X13.31 Y39.347 Z-2.62 I-0.811 J-0.481
X14.931 Y40.309 Z-2.724 I0.811 J0.481
X13.31 Y39.347 Z-2.827 I-0.811 J-0.481
X14.931 Y40.309 Z-2.931 I0.811 J0.481
X14.121 Y38.885 Z-3 I-0.811 J-0.481
G1 X13.989 F400
G2 X13.669 Y39.204 J0.319
G1 Y43.468
G2 X13.989 Y43.788 I0.319
G1 X14.253
G2 X14.572 Y43.468 J-0.319
G1 Y39.204
G2 X14.253 Y38.885 I-0.319
G1 X14.121
G3 X13.21 Y38.243 J-0.967
G2 X12.113 Y38.434 I-0.532 J0.19
G1 Y45.344
X16.129
Y37.329
X12.113
Y38.434
G2 X12.231 Y38.616 I0.2
G1 X13.22 Y39.062
G3 X13.31 Y39.347 I-0.082 J0.182
G2 X14.931 Y40.309 Z-3.103 I0.811 J0.481 F200
X13.31 Y39.347 Z-3.207 I-0.811 J-0.481
X14.931 Y40.309 Z-3.31 I0.811 J0.481
X13.31 Y39.347 Z-3.414 I-0.811 J-0.481
X14.931 Y40.309 Z-3.517 I0.811 J0.481
X13.31 Y39.347 Z-3.62 I-0.811 J-0.481
X14.931 Y40.309 Z-3.724 I0.811 J0.481
X13.31 Y39.347 Z-3.827 I-0.811 J-0.481
X14.931 Y40.309 Z-3.931 I0.811 J0.481
X14.121 Y38.885 Z-4 I-0.811 J-0.481
G1 X13.989 F400
G2 X13.669 Y39.204 J0.319
G1 Y43.468
G2 X13.989 Y43.788 I0.319
G1 X14.253
G2 X14.572 Y43.468 J-0.319
G1 Y39.204
G2 X14.253 Y38.885 I-0.319
G1 X14.121
G3 X13.21 Y38.243 J-0.967
G2 X12.113 Y38.434 I-0.532 J0.19
G1 Y45.344
X16.129
Y37.329
X12.113
Y38.434
G2 X12.231 Y38.616 I0.2
G1 X13.22 Y39.062
G3 X13.31 Y39.347 I-0.082 J0.182
G2 X14.931 Y40.309 Z-4.103 I0.811 J0.481 F200
X13.31 Y39.347 Z-4.207 I-0.811 J-0.481
X14.931 Y40.309 Z-4.31 I0.811 J0.481
X13.31 Y39.347 Z-4.414 I-0.811 J-0.481
X14.931 Y40.309 Z-4.517 I0.811 J0.481
X13.31 Y39.347 Z-4.62 I-0.811 J-0.481
X14.931 Y40.309 Z-4.724 I0.811 J0.481
X13.31 Y39.347 Z-4.827 I-0.811 J-0.481
X14.931 Y40.309 Z-4.931 I0.811 J0.481
X14.121 Y38.885 Z-5 I-0.811 J-0.481
G1 X13.989 F400
G2 X13.669 Y39.204 J0.319
G1 Y43.468
G2 X13.989 Y43.788 I0.319
G1 X14.253
G2 X14.572 Y43.468 J-0.319
G1 Y39.204
G2 X14.253 Y38.885 I-0.319
G1 X14.121
G3 X13.21 Y38.243 J-0.967
G2 X12.113 Y38.434 I-0.532 J0.19
G1 Y45.344
X16.129
Y37.329
X12.113
Y38.434
G2 X12.231 Y38.616 I0.2
G1 X13.22 Y39.062
G3 X13.31 Y39.347 I-0.082 J0.182
G2 X14.931 Y40.309 Z-5.103 I0.811 J0.481 F200
X13.31 Y39.347 Z-5.207 I-0.811 J-0.481
X14.931 Y40.309 Z-5.31 I0.811 J0.481
X13.31 Y39.347 Z-5.414 I-0.811 J-0.481
X14.931 Y40.309 Z-5.517 I0.811 J0.481
X13.31 Y39.347 Z-5.62 I-0.811 J-0.481
X14.931 Y40.309 Z-5.724 I0.811 J0.481
X13.31 Y39.347 Z-5.827 I-0.811 J-0.481
X14.931 Y40.309 Z-5.931 I0.811 J0.481
X14.121 Y38.885 Z-6 I-0.811 J-0.481
G1 X13.989 F400
G2 X13.669 Y39.204 J0.319
G1 Y43.468
G2 X13.989 Y43.788 I0.319
G1 X14.253
G2 X14.572 Y43.468 J-0.319
G1 Y39.204
G2 X14.253 Y38.885 I-0.319
G1 X14.121
G3 X13.21 Y38.243 J-0.967
G2 X12.113 Y38.434 I-0.532 J0.19
G1 Y45.344
X16.129
Y37.329
X12.113
Y38.434
G2 X12.137 Y38.529 Z-5.973 I0.198
X12.183 Y38.585 Z-5.901 I0.174 J-0.095
X12.204 Y38.601 Z-5.802 I0.129 J-0.151
G0 Z5
X14.536 Y18.757
G1 Z2.698 F400
G2 X14.529 Y18.732 Z2.601 I-0.906 J0.259 F200
X14.506 Y18.667 Z2.529 I-0.899 J0.283
X14.466 Y18.579 Z2.5 I-0.876 J0.349
X12.795 Y19.452 Z2.397 I-0.835 J0.437
X14.466 Y18.579 Z2.293 I0.835 J-0.437
X12.795 Y19.452 Z2.19 I-0.835 J0.437
X14.466 Y18.579 Z2.086 I0.835 J-0.437
X12.795 Y19.452 Z1.983 I-0.835 J0.437
X14.466 Y18.579 Z1.88 I0.835 J-0.437
X12.795 Y19.452 Z1.776 I-0.835 J0.437
X14.466 Y18.579 Z1.673 I0.835 J-0.437
X12.795 Y19.452 Z1.569 I-0.835 J0.437
X14.466 Y18.579 Z1.466 I0.835 J-0.437
X12.795 Y19.452 Z1.363 I-0.835 J0.437
X14.466 Y18.579 Z1.259 I0.835 J-0.437
X12.795 Y19.452 Z1.156 I-0.835 J0.437
X14.466 Y18.579 Z1.052 I0.835 J-0.437
X12.795 Y19.452 Z0.949 I-0.835 J0.437
X14.466 Y18.579 Z0.845 I0.835 J-0.437
X12.795 Y19.452 Z0.742 I-0.835 J0.437
X14.466 Y18.579 Z0.639 I0.835 J-0.437
X12.795 Y19.452 Z0.535 I-0.835 J0.437
X14.466 Y18.579 Z0.432 I0.835 J-0.437
X12.795 Y19.452 Z0.328 I-0.835 J0.437
X14.466 Y18.579 Z0.225 I0.835 J-0.437
X12.795 Y19.452 Z0.122 I-0.835 J0.437
X14.466 Y18.579 Z0.018 I0.835 J-0.437
X12.795 Y19.452 Z-0.085 I-0.835 J0.437
X14.466 Y18.579 Z-0.189 I0.835 J-0.437
X12.795 Y19.452 Z-0.292 I-0.835 J0.437
X14.466 Y18.579 Z-0.395 I0.835 J-0.437
X12.795 Y19.452 Z-0.499 I-0.835 J0.437
X14.466 Y18.579 Z-0.602 I0.835 J-0.437
X12.795 Y19.452 Z-0.706 I-0.835 J0.437
X14.466 Y18.579 Z-0.809 I0.835 J-0.437
X12.795 Y19.452 Z-0.912 I-0.835 J0.437
X14.573 Y19.016 Z-1 I0.835 J-0.437
G1 Y18.884 F400
G2 X14.253 Y18.564 I-0.319
G1 X13.989
G2 X13.67 Y18.884 J0.319
G1 Y23.148
G2 X13.989 Y23.467 I0.319
G1 X14.253
G2 X14.573 Y23.148 J-0.319
G1 Y19.016
G3 X15.214 Y18.105 I0.967
G2 X15.024 Y17.008 I-0.19 J-0.532
G1 X12.114
Y25.024
X16.129
Y17.008
X15.024
G2 X14.842 Y17.126 J0.2
G1 X14.396 Y18.115
G3 X14.111 Y18.205 I-0.182 J-0.082
G2 X13.149 Y19.826 Z-1.103 I-0.481 J0.811 F200
X14.111 Y18.205 Z-1.207 I0.481 J-0.811
X13.149 Y19.826 Z-1.31 I-0.481 J0.811
X14.111 Y18.205 Z-1.414 I0.481 J-0.811
X13.149 Y19.826 Z-1.517 I-0.481 J0.811
X14.111 Y18.205 Z-1.62 I0.481 J-0.811
X13.149 Y19.826 Z-1.724 I-0.481 J0.811
X14.111 Y18.205 Z-1.827 I0.481 J-0.811
X13.149 Y19.826 Z-1.931 I-0.481 J0.811
X14.573 Y19.016 Z-2 I0.481 J-0.811
G1 Y18.884 F400
G2 X14.253 Y18.564 I-0.319
G1 X13.989
G2 X13.67 Y18.884 J0.319
G1 Y23.148
G2 X13.989 Y23.467 I0.319
G1 X14.253
G2 X14.573 Y23.148 J-0.319
G1 Y19.016
G3 X15.214 Y18.105 I0.967
G2 X15.024 Y17.008 I-0.19 J-0.532
G1 X12.114
Y25.024
X16.129
Y17.008
X15.024
G2 X14.842 Y17.126 J0.2
G1 X14.396 Y18.115
G3 X14.111 Y18.205 I-0.182 J-0.082
G2 X13.149 Y19.826 Z-2.103 I-0.481 J0.811 F200
X14.111 Y18.205 Z-2.207 I0.481 J-0.811
X13.149 Y19.826 Z-2.31 I-0.481 J0.811
X14.111 Y18.205 Z-2.414 I0.481 J-0.811
X13.149 Y19.826 Z-2.517 I-0.481 J0.811
X14.111 Y18.205 Z-2.62 I0.481 J-0.811
X13.149 Y19.826 Z-2.724 I-0.481 J0.811
X14.111 Y18.205 Z-2.827 I0.481 J-0.811
X13.149 Y19.826 Z-2.931 I-0.481 J0.811
X14.573 Y19.016 Z-3 I0.481 J-0.811
G1 Y18.884 F400
G2 X14.253 Y18.564 I-0.319
G1 X13.989
G2 X13.67 Y18.884 J0.319
G1 Y23.148
G2 X13.989 Y23.467 I0.319
G1 X14.253
G2 X14.573 Y23.148 J-0.319
G1 Y19.016
G3 X15.214 Y18.105 I0.967
G2 X15.024 Y17.008 I-0.19 J-0.532
G1 X12.114
Y25.024
X16.129
Y17.008
X15.024
G2 X14.842 Y17.126 J0.2
G1 X14.396 Y18.115
G3 X14.111 Y18.205 I-0.182 J-0.082
G2 X13.149 Y19.826 Z-3.103 I-0.481 J0.811 F200
X14.111 Y18.205 Z-3.207 I0.481 J-0.811
X13.149 Y19.826 Z-3.31 I-0.481 J0.811
X14.111 Y18.205 Z-3.414 I0.481 J-0.811
X13.149 Y19.826 Z-3.517 I-0.481 J0.811
X14.111 Y18.205 Z-3.62 I0.481 J-0.811
X13.149 Y19.826 Z-3.724 I-0.481 J0.811
X14.111 Y18.205 Z-3.827 I0.481 J-0.811
X13.149 Y19.826 Z-3.931 I-0.481 J0.811
X14.573 Y19.016 Z-4 I0.481 J-0.811
G1 Y18.884 F400
G2 X14.253 Y18.564 I-0.319
G1 X13.989
G2 X13.67 Y18.884 J0.319
G1 Y23.148
G2 X13.989 Y23.467 I0.319
G1 X14.253
G2 X14.573 Y23.148 J-0.319
G1 Y19.016
G3 X15.214 Y18.105 I0.967
G2 X15.024 Y17.008 I-0.19 J-0.532
G1 X12.114
Y25.024
X16.129
Y17.008
X15.024
G2 X14.842 Y17.126 J0.2
G1 X14.396 Y18.115
G3 X14.111 Y18.205 I-0.182 J-0.082
G2 X13.149 Y19.826 Z-4.103 I-0.481 J0.811 F200
X14.111 Y18.205 Z-4.207 I0.481 J-0.811
X13.149 Y19.826 Z-4.31 I-0.481 J0.811
X14.111 Y18.205 Z-4.414 I0.481 J-0.811
X13.149 Y19.826 Z-4.517 I-0.481 J0.811
X14.111 Y18.205 Z-4.62 I0.481 J-0.811
X13.149 Y19.826 Z-4.724 I-0.481 J0.811
X14.111 Y18.205 Z-4.827 I0.481 J-0.811
X13.149 Y19.826 Z-4.931 I-0.481 J0.811
X14.573 Y19.016 Z-5 I0.481 J-0.811
G1 Y18.884 F400
G2 X14.253 Y18.564 I-0.319
G1 X13.989
G2 X13.67 Y18.884 J0.319
G1 Y23.148
G2 X13.989 Y23.467 I0.319
G1 X14.253
G2 X14.573 Y23.148 J-0.319
G1 Y19.016
G3 X15.214 Y18.105 I0.967
G2 X15.024 Y17.008 I-0.19 J-0.532
G1 X12.114
Y25.024
X16.129
Y17.008
X15.024
G2 X14.842 Y17.126 J0.2
G1 X14.396 Y18.115
G3 X14.111 Y18.205 I-0.182 J-0.082
G2 X13.149 Y19.826 Z-5.103 I-0.481 J0.811 F200
X14.111 Y18.205 Z-5.207 I0.481 J-0.811
X13.149 Y19.826 Z-5.31 I-0.481 J0.811
X14.111 Y18.205 Z-5.414 I0.481 J-0.811
X13.149 Y19.826 Z-5.517 I-0.481 J0.811
X14.111 Y18.205 Z-5.62 I0.481 J-0.811
X13.149 Y19.826 Z-5.724 I-0.481 J0.811
X14.111 Y18.205 Z-5.827 I0.481 J-0.811
X13.149 Y19.826 Z-5.931 I-0.481 J0.811
X14.573 Y19.016 Z-6 I0.481 J-0.811
G1 Y18.884 F400
G2 X14.253 Y18.564 I-0.319
G1 X13.989
G2 X13.67 Y18.884 J0.319
G1 Y23.148
G2 X13.989 Y23.467 I0.319
G1 X14.253
G2 X14.573 Y23.148 J-0.319
G1 Y19.016
G3 X15.214 Y18.105 I0.967
G2 X15.024 Y17.008 I-0.19 J-0.532
G1 X12.114
Y25.024
X16.129
Y17.008
X15.024
G2 X14.929 Y17.032 Z-5.973 J0.198
X14.873 Y17.078 Z-5.901 I0.095 J0.174
X14.857 Y17.099 Z-5.802 I0.151 J0.129
G0 Z5
X13.866 Y59.24
G1 Z2.698 F400
G2 X13.841 Y59.247 Z2.601 I0.259 J0.906 F200
X13.775 Y59.271 Z2.529 I0.283 J0.899
X13.688 Y59.311 Z2.5 I0.349 J0.876
X14.561 Y60.981 Z2.397 I0.437 J0.835
X13.688 Y59.311 Z2.293 I-0.437 J-0.835
X14.561 Y60.981 Z2.19 I0.437 J0.835
X13.688 Y59.311 Z2.086 I-0.437 J-0.835
X14.561 Y60.981 Z1.983 I0.437 J0.835
X13.688 Y59.311 Z1.88 I-0.437 J-0.835
X14.561 Y60.981 Z1.776 I0.437 J0.835
X13.688 Y59.311 Z1.673 I-0.437 J-0.835
X14.561 Y60.981 Z1.569 I0.437 J0.835
X13.688 Y59.311 Z1.466 I-0.437 J-0.835
X14.561 Y60.981 Z1.363 I0.437 J0.835
X13.688 Y59.311 Z1.259 I-0.437 J-0.835
X14.561 Y60.981 Z1.156 I0.437 J0.835
X13.688 Y59.311 Z1.052 I-0.437 J-0.835
X14.561 Y60.981 Z0.949 I0.437 J0.835
X13.688 Y59.311 Z0.845 I-0.437 J-0.835
X14.561 Y60.981 Z0.742 I0.437 J0.835
X13.688 Y59.311 Z0.639 I-0.437 J-0.835
X14.561 Y60.981 Z0.535 I0.437 J0.835
X13.688 Y59.311 Z0.432 I-0.437 J-0.835
X14.561 Y60.981 Z0.328 I0.437 J0.835
X13.688 Y59.311 Z0.225 I-0.437 J-0.835
X14.561 Y60.981 Z0.122 I0.437 J0.835
X13.688 Y59.311 Z0.018 I-0.437 J-0.835
X14.561 Y60.981 Z-0.085 I0.437 J0.835
X13.688 Y59.311 Z-0.189 I-0.437 J-0.835
X14.561 Y60.981 Z-0.292 I0.437 J0.835
X13.688 Y59.311 Z-0.395 I-0.437 J-0.835
X14.561 Y60.981 Z-0.499 I0.437 J0.835
X13.688 Y59.311 Z-0.602 I-0.437 J-0.835
X14.561 Y60.981 Z-0.706 I0.437 J0.835
X13.688 Y59.311 Z-0.809 I-0.437 J-0.835
X14.561 Y60.981 Z-0.912 I0.437 J0.835
X14.125 Y59.204 Z-1 I-0.437 J-0.835
G1 X13.993 F400
G2 X13.673 Y59.523 J0.319
G1 Y63.787
G2 X13.993 Y64.106 I0.319
G1 X14.257
G2 X14.576 Y63.787 J-0.319
G1 Y59.523
G2 X14.257 Y59.204 I-0.319
G1 X14.125
G3 X13.214 Y58.562 J-0.967
G2 X12.117 Y58.752 I-0.532 J0.19
G1 Y65.663
X16.133
Y57.647
X12.117
Y58.752
G2 X12.235 Y58.934 I0.2
G1 X13.224 Y59.381
G3 X13.314 Y59.665 I-0.082 J0.182
G2 X14.935 Y60.627 Z-1.103 I0.811 J0.481 F200
X13.314 Y59.665 Z-1.207 I-0.811 J-0.481
X14.935 Y60.627 Z-1.31 I0.811 J0.481
X13.314 Y59.665 Z-1.414 I-0.811 J-0.481
X14.935 Y60.627 Z-1.517 I0.811 J0.481
X13.314 Y59.665 Z-1.62 I-0.811 J-0.481
X14.935 Y60.627 Z-1.724 I0.811 J0.481
X13.314 Y59.665 Z-1.827 I-0.811 J-0.481
X14.935 Y60.627 Z-1.931 I0.811 J0.481
X14.125 Y59.204 Z-2 I-0.811 J-0.481
G1 X13.993 F400
G2 X13.673 Y59.523 J0.319
G1 Y63.787
G2 X13.993 Y64.106 I0.319
G1 X14.257
G2 X14.576 Y63.787 J-0.319
G1 Y59.523
G2 X14.257 Y59.204 I-0.319
G1 X14.125
G3 X13.214 Y58.562 J-0.967
G2 X12.117 Y58.752 I-0.532 J0.19
G1 Y65.663
X16.133
Y57.647
X12.117
Y58.752
G2 X12.235 Y58.934 I0.2
G1 X13.224 Y59.381
G3 X13.314 Y59.665 I-0.082 J0.182
G2 X14.935 Y60.627 Z-2.103 I0.811 J0.481 F200
X13.314 Y59.665 Z-2.207 I-0.811 J-0.481
X14.935 Y60.627 Z-2.31 I0.811 J0.481
X13.314 Y59.665 Z-2.414 I-0.811 J-0.481
X14.935 Y60.627 Z-2.517 I0.811 J0.481
X13.314 Y59.665 Z-2.62 I-0.811 J-0.481
X14.935 Y60.627 Z-2.724 I0.811 J0.481
X13.314 Y59.665 Z-2.827 I-0.811 J-0.481
X14.935 Y60.627 Z-2.931 I0.811 J0.481
X14.125 Y59.204 Z-3 I-0.811 J-0.481
G1 X13.993 F400
G2 X13.673 Y59.523 J0.319
G1 Y63.787
G2 X13.993 Y64.106 I0.319
G1 X14.257
G2 X14.576 Y63.787 J-0.319
G1 Y59.523
G2 X14.257 Y59.204 I-0.319
G1 X14.125
G3 X13.214 Y58.562 J-0.967
G2 X12.117 Y58.752 I-0.532 J0.19
G1 Y65.663
X16.133
Y57.647
X12.117
Y58.752
G2 X12.235 Y58.934 I0.2
G1 X13.224 Y59.381
G3 X13.314 Y59.665 I-0.082 J0.182
G2 X14.935 Y60.627 Z-3.103 I0.811 J0.481 F200
X13.314 Y59.665 Z-3.207 I-0.811 J-0.481
X14.935 Y60.627 Z-3.31 I0.811 J0.481
X13.314 Y59.665 Z-3.414 I-0.811 J-0.481
X14.935 Y60.627 Z-3.517 I0.811 J0.481
X13.314 Y59.665 Z-3.62 I-0.811 J-0.481
X14.935 Y60.627 Z-3.724 I0.811 J0.481
X13.314 Y59.665 Z-3.827 I-0.811 J-0.481
X14.935 Y60.627 Z-3.931 I0.811 J0.481
X14.125 Y59.204 Z-4 I-0.811 J-0.481
G1 X13.993 F400
G2 X13.673 Y59.523 J0.319
G1 Y63.787
G2 X13.993 Y64.106 I0.319
G1 X14.257
G2 X14.576 Y63.787 J-0.319
G1 Y59.523
G2 X14.257 Y59.204 I-0.319
G1 X14.125
G3 X13.214 Y58.562 J-0.967
G2 X12.117 Y58.752 I-0.532 J0.19
G1 Y65.663
X16.133
Y57.647
X12.117
Y58.752
G2 X12.235 Y58.934 I0.2
G1 X13.224 Y59.381
G3 X13.314 Y59.665 I-0.082 J0.182
G2 X14.935 Y60.627 Z-4.103 I0.811 J0.481 F200
X13.314 Y59.665 Z-4.207 I-0.811 J-0.481
X14.935 Y60.627 Z-4.31 I0.811 J0.481
X13.314 Y59.665 Z-4.414 I-0.811 J-0.481
X14.935 Y60.627 Z-4.517 I0.811 J0.481
X13.314 Y59.665 Z-4.62 I-0.811 J-0.481
X14.935 Y60.627 Z-4.724 I0.811 J0.481
X13.314 Y59.665 Z-4.827 I-0.811 J-0.481
X14.935 Y60.627 Z-4.931 I0.811 J0.481
X14.125 Y59.204 Z-5 I-0.811 J-0.481
G1 X13.993 F400
G2 X13.673 Y59.523 J0.319
G1 Y63.787
G2 X13.993 Y64.106 I0.319
G1 X14.257
G2 X14.576 Y63.787 J-0.319
G1 Y59.523
G2 X14.257 Y59.204 I-0.319
G1 X14.125
G3 X13.214 Y58.562 J-0.967
G2 X12.117 Y58.752 I-0.532 J0.19
G1 Y65.663
X16.133
Y57.647
X12.117
Y58.752
G2 X12.235 Y58.934 I0.2
G1 X13.224 Y59.381
G3 X13.314 Y59.665 I-0.082 J0.182
G2 X14.935 Y60.627 Z-5.103 I0.811 J0.481 F200
X13.314 Y59.665 Z-5.207 I-0.811 J-0.481
X14.935 Y60.627 Z-5.31 I0.811 J0.481
X13.314 Y59.665 Z-5.414 I-0.811 J-0.481
X14.935 Y60.627 Z-5.517 I0.811 J0.481
X13.314 Y59.665 Z-5.62 I-0.811 J-0.481
X14.935 Y60.627 Z-5.724 I0.811 J0.481
X13.314 Y59.665 Z-5.827 I-0.811 J-0.481
X14.935 Y60.627 Z-5.931 I0.811 J0.481
X14.125 Y59.204 Z-6 I-0.811 J-0.481
G1 X13.993 F400
G2 X13.673 Y59.523 J0.319
G1 Y63.787
G2 X13.993 Y64.106 I0.319
G1 X14.257
G2 X14.576 Y63.787 J-0.319
G1 Y59.523
G2 X14.257 Y59.204 I-0.319
G1 X14.125
G3 X13.214 Y58.562 J-0.967
G2 X12.117 Y58.752 I-0.532 J0.19
G1 Y65.663
X16.133
Y57.647
X12.117
Y58.752
G2 X12.141 Y58.847 Z-5.973 I0.198
X12.187 Y58.903 Z-5.901 I0.174 J-0.095
X12.208 Y58.919 Z-5.802 I0.129 J-0.151
G0 Z15
M9
G28 G91 Z0
G28 X0 Y0
M30
%
