%
(1)
(T1  D=1.984 CR=0 - ZMIN=-6 - flat end mill)
G90 G94
G17
G21
G28 G91 Z0
G90

(Fix-Y-2)
M9
T1 M6
S26467 M3
G54
M8
G0 X51.803 Y79.46
Z15
Z5
G1 Z2 F400
Z-0.802 F200
G18 G2 X52.001 Z-1 I0.198
G1 X52.199 F400
G17 G2 X52.398 Y79.261 J-0.198
G1 Y74.753
X45.826
Y80.253
X35.286
Y74.753
X28.714
Y80.253
X8.174
Y53.299
G3 X19.451 Y41.599 I11.139 J-0.548
G1 X51.786
G3 X62.937 Y52.281 I0.01 J11.152
X62.938 Y52.323 I-0.991 J0.042
G1 Y80.253
X52.398
Y79.261
G2 X52.199 Y79.063 I-0.198
G1 X52.001
G18 G3 X51.803 Z-0.802 K0.198
G1 Y79.46
Z-1.802 F200
G2 X52.001 Z-2 I0.198
G1 X52.199 F400
G17 G2 X52.398 Y79.261 J-0.198
G1 Y74.753
X45.826
Y80.253
X35.286
Y74.753
X28.714
Y80.253
X8.174
Y53.299
G3 X19.451 Y41.599 I11.139 J-0.548
G1 X51.786
G3 X62.937 Y52.281 I0.01 J11.152
X62.938 Y52.323 I-0.991 J0.042
G1 Y80.253
X52.398
Y79.261
G2 X52.199 Y79.063 I-0.198
G1 X52.001
G18 G3 X51.803 Z-1.802 K0.198
G1 Y79.46
Z-2.802 F200
G2 X52.001 Z-3 I0.198
G1 X52.199 F400
G17 G2 X52.398 Y79.261 J-0.198
G1 Y74.753
X45.826
Y80.253
X35.286
Y74.753
X28.714
Y80.253
X8.174
Y53.299
G3 X19.451 Y41.599 I11.139 J-0.548
G1 X51.786
G3 X62.937 Y52.281 I0.01 J11.152
X62.938 Y52.323 I-0.991 J0.042
G1 Y80.253
X52.398
Y79.261
G2 X52.199 Y79.063 I-0.198
G1 X52.001
G18 G3 X51.803 Z-2.802 K0.198
G1 Y79.46
Z-3.802 F200
G2 X52.001 Z-4 I0.198
G1 X52.199 F400
G17 G2 X52.398 Y79.261 J-0.198
G1 Y74.753
X45.826
Y80.253
X35.286
Y74.753
X28.714
Y80.253
X8.174
Y53.299
G3 X19.451 Y41.599 I11.139 J-0.548
G1 X51.786
G3 X62.937 Y52.281 I0.01 J11.152
X62.938 Y52.323 I-0.991 J0.042
G1 Y80.253
X52.398
Y79.261
G2 X52.199 Y79.063 I-0.198
G1 X52.001
G18 G3 X51.803 Z-3.802 K0.198
G1 Y79.46
Z-4.802 F200
G2 X52.001 Z-5 I0.198
G1 X52.199 F400
G17 G2 X52.398 Y79.261 J-0.198
G1 Y74.753
X45.826
Y80.253
X35.286
Y74.753
X28.714
Y80.253
X8.174
Y53.299
G3 X19.451 Y41.599 I11.139 J-0.548
G1 X51.786
G3 X62.937 Y52.281 I0.01 J11.152
X62.938 Y52.323 I-0.991 J0.042
G1 Y80.253
X52.398
Y79.261
G2 X52.199 Y79.063 I-0.198
G1 X52.001
G18 G3 X51.803 Z-4.802 K0.198
G1 Y79.46
Z-5.802 F200
G2 X52.001 Z-6 I0.198
G1 X52.199 F400
G17 G2 X52.398 Y79.261 J-0.198
G1 Y74.753
X45.826
Y80.253
X35.286
Y74.753
X28.714
Y80.253
X8.174
Y53.299
G3 X19.451 Y41.599 I11.139 J-0.548
G1 X51.786
G3 X62.937 Y52.281 I0.01 J11.152
X62.938 Y52.323 I-0.991 J0.042
G1 Y80.253
X52.398
Y79.261
G2 X52.199 Y79.063 I-0.198
G1 X52.001
G18 G3 X51.803 Z-5.802 K0.198
G0 Z15
G17
M9
G28 G91 Z0
G28 X0 Y0
M30
%
