%
(1)
(T1  D=1.984 CR=0 - ZMIN=-6 - flat end mill)
G90 G94
G17
G21
G28 G91 Z0
G90

(Fix-X-1-Contour)
M9
T1 M6
S26467 M3
G54
M8
G0 X18.671 Y11.914
Z15
Z5
G1 Z2 F400
Z-0.802 F200
X18.67 Y11.921 Z-0.853
X18.668 Y11.941 Z-0.901
X18.665 Y11.972 Z-0.942
X18.661 Y12.013 Z-0.973
X18.656 Y12.061 Z-0.993
X18.651 Y12.112 Z-1
X18.632 Y12.309 F400
G2 X18.811 Y12.526 I0.198 J0.019
G3 X23.721 Y16.078 I-0.575 J5.965
G1 X40.501 Y54.222
G3 X40.526 Y54.287 I-0.908 J0.4
X40.957 Y56.764 I-6.912 J2.477
G1 Y70.414
G3 X33.615 Y77.756 I-7.342
G1 X13.615
G3 X10.045 Y76.83 J-7.342
X6.273 Y70.414 I3.57 J-6.416
G1 Y18.49
G3 X12.265 Y12.498 I5.992
G1 X18.236
G3 X18.811 Y12.526 J5.992
G2 X19.027 Y12.347 I0.019 J-0.198
G1 X19.047 Y12.15
X19.051 Y12.099 Z-0.993
X19.056 Y12.051 Z-0.973
X19.06 Y12.01 Z-0.942
X19.063 Y11.979 Z-0.901
X19.065 Y11.959 Z-0.853
X19.066 Y11.952 Z-0.802
X18.671 Y11.914
Z-1.802 F200
X18.67 Y11.921 Z-1.853
X18.668 Y11.941 Z-1.901
X18.665 Y11.972 Z-1.942
X18.661 Y12.013 Z-1.973
X18.656 Y12.061 Z-1.993
X18.651 Y12.112 Z-2
X18.632 Y12.309 F400
G2 X18.811 Y12.526 I0.198 J0.019
G3 X23.721 Y16.078 I-0.575 J5.965
G1 X40.501 Y54.222
G3 X40.526 Y54.287 I-0.908 J0.4
X40.957 Y56.764 I-6.912 J2.477
G1 Y70.414
G3 X33.615 Y77.756 I-7.342
G1 X13.615
G3 X10.045 Y76.83 J-7.342
X6.273 Y70.414 I3.57 J-6.416
G1 Y18.49
G3 X12.265 Y12.498 I5.992
G1 X18.236
G3 X18.811 Y12.526 J5.992
G2 X19.027 Y12.347 I0.019 J-0.198
G1 X19.047 Y12.15
X19.051 Y12.099 Z-1.993
X19.056 Y12.051 Z-1.973
X19.06 Y12.01 Z-1.942
X19.063 Y11.979 Z-1.901
X19.065 Y11.959 Z-1.853
X19.066 Y11.952 Z-1.802
X18.671 Y11.914
Z-2.802 F200
X18.67 Y11.921 Z-2.853
X18.668 Y11.941 Z-2.901
X18.665 Y11.972 Z-2.942
X18.661 Y12.013 Z-2.973
X18.656 Y12.061 Z-2.993
X18.651 Y12.112 Z-3
X18.632 Y12.309 F400
G2 X18.811 Y12.526 I0.198 J0.019
G3 X23.721 Y16.078 I-0.575 J5.965
G1 X40.501 Y54.222
G3 X40.526 Y54.287 I-0.908 J0.4
X40.957 Y56.764 I-6.912 J2.477
G1 Y70.414
G3 X33.615 Y77.756 I-7.342
G1 X13.615
G3 X10.045 Y76.83 J-7.342
X6.273 Y70.414 I3.57 J-6.416
G1 Y18.49
G3 X12.265 Y12.498 I5.992
G1 X18.236
G3 X18.811 Y12.526 J5.992
G2 X19.027 Y12.347 I0.019 J-0.198
G1 X19.047 Y12.15
X19.051 Y12.099 Z-2.993
X19.056 Y12.051 Z-2.973
X19.06 Y12.01 Z-2.942
X19.063 Y11.979 Z-2.901
X19.065 Y11.959 Z-2.853
X19.066 Y11.952 Z-2.802
X18.671 Y11.914
Z-3.802 F200
X18.67 Y11.921 Z-3.853
X18.668 Y11.941 Z-3.901
X18.665 Y11.972 Z-3.942
X18.661 Y12.013 Z-3.973
X18.656 Y12.061 Z-3.993
X18.651 Y12.112 Z-4
X18.632 Y12.309 F400
G2 X18.811 Y12.526 I0.198 J0.019
G3 X23.721 Y16.078 I-0.575 J5.965
G1 X40.501 Y54.222
G3 X40.526 Y54.287 I-0.908 J0.4
X40.957 Y56.764 I-6.912 J2.477
G1 Y70.414
G3 X33.615 Y77.756 I-7.342
G1 X13.615
G3 X10.045 Y76.83 J-7.342
X6.273 Y70.414 I3.57 J-6.416
G1 Y18.49
G3 X12.265 Y12.498 I5.992
G1 X18.236
G3 X18.811 Y12.526 J5.992
G2 X19.027 Y12.347 I0.019 J-0.198
G1 X19.047 Y12.15
X19.051 Y12.099 Z-3.993
X19.056 Y12.051 Z-3.973
X19.06 Y12.01 Z-3.942
X19.063 Y11.979 Z-3.901
X19.065 Y11.959 Z-3.853
X19.066 Y11.952 Z-3.802
X18.671 Y11.914
Z-4.802 F200
X18.67 Y11.921 Z-4.853
X18.668 Y11.941 Z-4.901
X18.665 Y11.972 Z-4.942
X18.661 Y12.013 Z-4.973
X18.656 Y12.061 Z-4.993
X18.651 Y12.112 Z-5
X18.632 Y12.309 F400
G2 X18.811 Y12.526 I0.198 J0.019
G3 X23.721 Y16.078 I-0.575 J5.965
G1 X40.501 Y54.222
G3 X40.526 Y54.287 I-0.908 J0.4
X40.957 Y56.764 I-6.912 J2.477
G1 Y70.414
G3 X33.615 Y77.756 I-7.342
G1 X13.615
G3 X10.045 Y76.83 J-7.342
X6.273 Y70.414 I3.57 J-6.416
G1 Y18.49
G3 X12.265 Y12.498 I5.992
G1 X18.236
G3 X18.811 Y12.526 J5.992
G2 X19.027 Y12.347 I0.019 J-0.198
G1 X19.047 Y12.15
X19.051 Y12.099 Z-4.993
X19.056 Y12.051 Z-4.973
X19.06 Y12.01 Z-4.942
X19.063 Y11.979 Z-4.901
X19.065 Y11.959 Z-4.853
X19.066 Y11.952 Z-4.802
X18.671 Y11.914
Z-5.802 F200
X18.67 Y11.921 Z-5.853
X18.668 Y11.941 Z-5.901
X18.665 Y11.972 Z-5.942
X18.661 Y12.013 Z-5.973
X18.656 Y12.061 Z-5.993
X18.651 Y12.112 Z-6
X18.632 Y12.309 F400
G2 X18.811 Y12.526 I0.198 J0.019
G3 X23.721 Y16.078 I-0.575 J5.965
G1 X40.501 Y54.222
G3 X40.526 Y54.287 I-0.908 J0.4
X40.957 Y56.764 I-6.912 J2.477
G1 Y70.414
G3 X33.615 Y77.756 I-7.342
G1 X13.615
G3 X10.045 Y76.83 J-7.342
X6.273 Y70.414 I3.57 J-6.416
G1 Y18.49
G3 X12.265 Y12.498 I5.992
G1 X18.236
G3 X18.811 Y12.526 J5.992
G2 X19.027 Y12.347 I0.019 J-0.198
G1 X19.047 Y12.15
X19.051 Y12.099 Z-5.993
X19.056 Y12.051 Z-5.973
X19.06 Y12.01 Z-5.942
X19.063 Y11.979 Z-5.901
X19.065 Y11.959 Z-5.853
X19.066 Y11.952 Z-5.802
G0 Z15
M9
G28 G91 Z0
G28 X0 Y0
M30
%
