%
(1)
(T1  D=1.984 CR=0 - ZMIN=0 - flat end mill)
G90 G94
G17
G21
G28 G91 Z0
G90

(Fix-Y-1)
M9
T1 M6
S26467 M3
G54
M8
G0 X29.368 Y19.794
Z20.112
Z10.112
G1 Z7.112 F400
Z4.31 F200
G18 G3 X29.169 Z4.112 I-0.198
G1 X28.971 F400
G17 G2 X28.772 Y19.993 J0.198
G1 Y81.493
G3 X9.008 I-9.882
G1 Y73.307
X14.008
Y65.693
X9.008
Y54.015
X14.008
Y46.399
X9.008
Y34.723
X14.008
Y27.061
X9.008
Y19.993
G3 X28.772 I9.882
G2 X28.971 Y20.191 I0.198
G1 X29.169
G18 G2 X29.368 Z4.31 K0.198
G1 Y19.794
Z3.31 F200
G3 X29.169 Z3.112 I-0.198
G1 X28.971 F400
G17 G2 X28.772 Y19.993 J0.198
G1 Y81.493
G3 X9.008 I-9.882
G1 Y73.307
X14.008
Y65.693
X9.008
Y54.015
X14.008
Y46.399
X9.008
Y34.723
X14.008
Y27.061
X9.008
Y19.993
G3 X28.772 I9.882
G2 X28.971 Y20.191 I0.198
G1 X29.169
G18 G2 X29.368 Z3.31 K0.198
G1 Y19.794
Z2.31 F200
G3 X29.169 Z2.112 I-0.198
G1 X28.971 F400
G17 G2 X28.772 Y19.993 J0.198
G1 Y81.493
G3 X9.008 I-9.882
G1 Y73.307
X14.008
Y65.693
X9.008
Y54.015
X14.008
Y46.399
X9.008
Y34.723
X14.008
Y27.061
X9.008
Y19.993
G3 X28.772 I9.882
G2 X28.971 Y20.191 I0.198
G1 X29.169
G18 G2 X29.368 Z2.31 K0.198
G1 Y19.794
Z1.31 F200
G3 X29.169 Z1.112 I-0.198
G1 X28.971 F400
G17 G2 X28.772 Y19.993 J0.198
G1 Y81.493
G3 X9.008 I-9.882
G1 Y73.307
X14.008
Y65.693
X9.008
Y54.015
X14.008
Y46.399
X9.008
Y34.723
X14.008
Y27.061
X9.008
Y19.993
G3 X28.772 I9.882
G2 X28.971 Y20.191 I0.198
G1 X29.169
G18 G2 X29.368 Z1.31 K0.198
G1 Y19.794
Z0.754 F200
G3 X29.169 Z0.556 I-0.198
G1 X28.971 F400
G17 G2 X28.772 Y19.993 J0.198
G1 Y81.493
G3 X9.008 I-9.882
G1 Y73.307
X14.008
Y65.693
X9.008
Y54.015
X14.008
Y46.399
X9.008
Y34.723
X14.008
Y27.061
X9.008
Y19.993
G3 X28.772 I9.882
G2 X28.971 Y20.191 I0.198
G1 X29.169
G18 G2 X29.368 Z0.754 K0.198
G1 Y19.794
Z0.198 F200
G3 X29.169 Z0 I-0.198
G1 X28.971 F400
G17 G2 X28.772 Y19.993 J0.198
G1 Y81.493
G3 X9.008 I-9.882
G1 Y73.307
X14.008
Y65.693
X9.008
Y54.015
X14.008
Y46.399
X9.008
Y34.723
X14.008
Y27.061
X9.008
Y19.993
G3 X28.772 I9.882
G2 X28.971 Y20.191 I0.198
G1 X29.169
G18 G2 X29.368 Z0.198 K0.198
G0 Z20.112
G17
M9
G28 G91 Z0
G28 X0 Y0
M30
%
