%
(1)
(T1  D=1.984 CR=0 - ZMIN=-6 - flat end mill)
G90 G94
G17
G21
G28 G91 Z0
G90

(Fix-X-2)
M9
T1 M6
S26467 M3
G54
M8
G0 X64.561 Y93.194
Z15
Z5
G1 Z2 F400
Z-0.802 F200
G18 G3 X64.363 Z-1 I-0.198
G1 X64.164 F400
G17 G3 X63.966 Y92.996 J-0.198
G1 Y82.836
Y81.844
X59.068
Y73.668
X62.974
X63.966
Y61.524
X59.068
Y53.348
X62.974
X63.966
Y41.204
X59.068
Y32.036
Y31.496
X58.614 Y31.203
G3 X57.616 Y29.355 I1.185 J-1.833
G1 Y29.349
Y13.386
G2 X53.624 Y9.394 I-3.992
G1 X43.624
G2 X39.632 Y13.386 J3.992
G1 Y35.406
Y35.415
G2 X39.751 Y36.353 I4.029 J-0.034
G1 X53.291 Y90.826
G2 X54.986 Y93.263 I4.044 J-1.005
X57.335 Y93.988 I2.349 J-3.442
G1 X62.974
X63.966
Y92.996
G3 X64.164 Y92.797 I0.198
G1 X64.363
G18 G2 X64.561 Z-0.802 K0.198
G1 Y93.194
Z-1.802 F200
G3 X64.363 Z-2 I-0.198
G1 X64.164 F400
G17 G3 X63.966 Y92.996 J-0.198
G1 Y82.836
Y81.844
X59.068
Y73.668
X62.974
X63.966
Y61.524
X59.068
Y53.348
X62.974
X63.966
Y41.204
X59.068
Y32.036
Y31.496
X58.614 Y31.203
G3 X57.616 Y29.355 I1.185 J-1.833
G1 Y29.349
Y13.386
G2 X53.624 Y9.394 I-3.992
G1 X43.624
G2 X39.632 Y13.386 J3.992
G1 Y35.406
Y35.415
G2 X39.751 Y36.353 I4.029 J-0.034
G1 X53.291 Y90.826
G2 X54.986 Y93.263 I4.044 J-1.005
X57.335 Y93.988 I2.349 J-3.442
G1 X62.974
X63.966
Y92.996
G3 X64.164 Y92.797 I0.198
G1 X64.363
G18 G2 X64.561 Z-1.802 K0.198
G1 Y93.194
Z-2.802 F200
G3 X64.363 Z-3 I-0.198
G1 X64.164 F400
G17 G3 X63.966 Y92.996 J-0.198
G1 Y82.836
Y81.844
X59.068
Y73.668
X62.974
X63.966
Y61.524
X59.068
Y53.348
X62.974
X63.966
Y41.204
X59.068
Y32.036
Y31.496
X58.614 Y31.203
G3 X57.616 Y29.355 I1.185 J-1.833
G1 Y29.349
Y13.386
G2 X53.624 Y9.394 I-3.992
G1 X43.624
G2 X39.632 Y13.386 J3.992
G1 Y35.406
Y35.415
G2 X39.751 Y36.353 I4.029 J-0.034
G1 X53.291 Y90.826
G2 X54.986 Y93.263 I4.044 J-1.005
X57.335 Y93.988 I2.349 J-3.442
G1 X62.974
X63.966
Y92.996
G3 X64.164 Y92.797 I0.198
G1 X64.363
G18 G2 X64.561 Z-2.802 K0.198
G1 Y93.194
Z-3.802 F200
G3 X64.363 Z-4 I-0.198
G1 X64.164 F400
G17 G3 X63.966 Y92.996 J-0.198
G1 Y82.836
Y81.844
X59.068
Y73.668
X62.974
X63.966
Y61.524
X59.068
Y53.348
X62.974
X63.966
Y41.204
X59.068
Y32.036
Y31.496
X58.614 Y31.203
G3 X57.616 Y29.355 I1.185 J-1.833
G1 Y29.349
Y13.386
G2 X53.624 Y9.394 I-3.992
G1 X43.624
G2 X39.632 Y13.386 J3.992
G1 Y35.406
Y35.415
G2 X39.751 Y36.353 I4.029 J-0.034
G1 X53.291 Y90.826
G2 X54.986 Y93.263 I4.044 J-1.005
X57.335 Y93.988 I2.349 J-3.442
G1 X62.974
X63.966
Y92.996
G3 X64.164 Y92.797 I0.198
G1 X64.363
G18 G2 X64.561 Z-3.802 K0.198
G1 Y93.194
Z-4.802 F200
G3 X64.363 Z-5 I-0.198
G1 X64.164 F400
G17 G3 X63.966 Y92.996 J-0.198
G1 Y82.836
Y81.844
X59.068
Y73.668
X62.974
X63.966
Y61.524
X59.068
Y53.348
X62.974
X63.966
Y41.204
X59.068
Y32.036
Y31.496
X58.614 Y31.203
G3 X57.616 Y29.355 I1.185 J-1.833
G1 Y29.349
Y13.386
G2 X53.624 Y9.394 I-3.992
G1 X43.624
G2 X39.632 Y13.386 J3.992
G1 Y35.406
Y35.415
G2 X39.751 Y36.353 I4.029 J-0.034
G1 X53.291 Y90.826
G2 X54.986 Y93.263 I4.044 J-1.005
X57.335 Y93.988 I2.349 J-3.442
G1 X62.974
X63.966
Y92.996
G3 X64.164 Y92.797 I0.198
G1 X64.363
G18 G2 X64.561 Z-4.802 K0.198
G1 Y93.194
Z-5.802 F200
G3 X64.363 Z-6 I-0.198
G1 X64.164 F400
G17 G3 X63.966 Y92.996 J-0.198
G1 Y82.836
Y81.844
X59.068
Y73.668
X62.974
X63.966
Y61.524
X59.068
Y53.348
X62.974
X63.966
Y41.204
X59.068
Y32.036
Y31.496
X58.614 Y31.203
G3 X57.616 Y29.355 I1.185 J-1.833
G1 Y29.349
Y13.386
G2 X53.624 Y9.394 I-3.992
G1 X43.624
G2 X39.632 Y13.386 J3.992
G1 Y35.406
Y35.415
G2 X39.751 Y36.353 I4.029 J-0.034
G1 X53.291 Y90.826
G2 X54.986 Y93.263 I4.044 J-1.005
X57.335 Y93.988 I2.349 J-3.442
G1 X62.974
X63.966
Y92.996
G3 X64.164 Y92.797 I0.198
G1 X64.363
G18 G2 X64.561 Z-5.802 K0.198
G0 Z15
G17
M9
G28 G91 Z0
G28 X0 Y0
M30
%
