%
(1)
(T1  D=1.984 CR=0 - ZMIN=-6 - flat end mill)
G90 G94
G17
G21
G28 G91 Z0
G90

(Fix-X-1-Contour)
M9
T1 M6
S26467 M3
G54
M8
G0 X25.173 Y13.485
Z15
Z5
G1 Z2 F400
Z-0.802 F200
X25.166 Y13.488 Z-0.853
X25.148 Y13.494 Z-0.901
X25.118 Y13.505 Z-0.942
X25.079 Y13.519 Z-0.973
X25.034 Y13.535 Z-0.993
X24.986 Y13.552 Z-1
X24.799 Y13.619 F400
G2 X24.679 Y13.873 I0.067 J0.187
G1 X44.679 Y69.673
G3 X45.11 Y72.15 I-6.912 J2.477
G1 Y85.8
G3 X37.767 Y93.142 I-7.342
G1 X17.767
G3 X10.425 Y85.8 J-7.342
G1 Y16.35
G3 X24.679 Y13.873 I7.342
G2 X24.933 Y13.993 I0.187 J-0.067
G1 X25.12 Y13.926
X25.168 Y13.908 Z-0.993
X25.213 Y13.892 Z-0.973
X25.252 Y13.878 Z-0.942
X25.282 Y13.868 Z-0.901
X25.3 Y13.861 Z-0.853
X25.307 Y13.859 Z-0.802
X25.173 Y13.485
Z-1.802 F200
X25.166 Y13.488 Z-1.853
X25.148 Y13.494 Z-1.901
X25.118 Y13.505 Z-1.942
X25.079 Y13.519 Z-1.973
X25.034 Y13.535 Z-1.993
X24.986 Y13.552 Z-2
X24.799 Y13.619 F400
G2 X24.679 Y13.873 I0.067 J0.187
G1 X44.679 Y69.673
G3 X45.11 Y72.15 I-6.912 J2.477
G1 Y85.8
G3 X37.767 Y93.142 I-7.342
G1 X17.767
G3 X10.425 Y85.8 J-7.342
G1 Y16.35
G3 X24.679 Y13.873 I7.342
G2 X24.933 Y13.993 I0.187 J-0.067
G1 X25.12 Y13.926
X25.168 Y13.908 Z-1.993
X25.213 Y13.892 Z-1.973
X25.252 Y13.878 Z-1.942
X25.282 Y13.868 Z-1.901
X25.3 Y13.861 Z-1.853
X25.307 Y13.859 Z-1.802
X25.173 Y13.485
Z-2.802 F200
X25.166 Y13.488 Z-2.853
X25.148 Y13.494 Z-2.901
X25.118 Y13.505 Z-2.942
X25.079 Y13.519 Z-2.973
X25.034 Y13.535 Z-2.993
X24.986 Y13.552 Z-3
X24.799 Y13.619 F400
G2 X24.679 Y13.873 I0.067 J0.187
G1 X44.679 Y69.673
G3 X45.11 Y72.15 I-6.912 J2.477
G1 Y85.8
G3 X37.767 Y93.142 I-7.342
G1 X17.767
G3 X10.425 Y85.8 J-7.342
G1 Y16.35
G3 X24.679 Y13.873 I7.342
G2 X24.933 Y13.993 I0.187 J-0.067
G1 X25.12 Y13.926
X25.168 Y13.908 Z-2.993
X25.213 Y13.892 Z-2.973
X25.252 Y13.878 Z-2.942
X25.282 Y13.868 Z-2.901
X25.3 Y13.861 Z-2.853
X25.307 Y13.859 Z-2.802
X25.173 Y13.485
Z-3.802 F200
X25.166 Y13.488 Z-3.853
X25.148 Y13.494 Z-3.901
X25.118 Y13.505 Z-3.942
X25.079 Y13.519 Z-3.973
X25.034 Y13.535 Z-3.993
X24.986 Y13.552 Z-4
X24.799 Y13.619 F400
G2 X24.679 Y13.873 I0.067 J0.187
G1 X44.679 Y69.673
G3 X45.11 Y72.15 I-6.912 J2.477
G1 Y85.8
G3 X37.767 Y93.142 I-7.342
G1 X17.767
G3 X10.425 Y85.8 J-7.342
G1 Y16.35
G3 X24.679 Y13.873 I7.342
G2 X24.933 Y13.993 I0.187 J-0.067
G1 X25.12 Y13.926
X25.168 Y13.908 Z-3.993
X25.213 Y13.892 Z-3.973
X25.252 Y13.878 Z-3.942
X25.282 Y13.868 Z-3.901
X25.3 Y13.861 Z-3.853
X25.307 Y13.859 Z-3.802
X25.173 Y13.485
Z-4.802 F200
X25.166 Y13.488 Z-4.853
X25.148 Y13.494 Z-4.901
X25.118 Y13.505 Z-4.942
X25.079 Y13.519 Z-4.973
X25.034 Y13.535 Z-4.993
X24.986 Y13.552 Z-5
X24.799 Y13.619 F400
G2 X24.679 Y13.873 I0.067 J0.187
G1 X44.679 Y69.673
G3 X45.11 Y72.15 I-6.912 J2.477
G1 Y85.8
G3 X37.767 Y93.142 I-7.342
G1 X17.767
G3 X10.425 Y85.8 J-7.342
G1 Y16.35
G3 X24.679 Y13.873 I7.342
G2 X24.933 Y13.993 I0.187 J-0.067
G1 X25.12 Y13.926
X25.168 Y13.908 Z-4.993
X25.213 Y13.892 Z-4.973
X25.252 Y13.878 Z-4.942
X25.282 Y13.868 Z-4.901
X25.3 Y13.861 Z-4.853
X25.307 Y13.859 Z-4.802
X25.173 Y13.485
Z-5.802 F200
X25.166 Y13.488 Z-5.853
X25.148 Y13.494 Z-5.901
X25.118 Y13.505 Z-5.942
X25.079 Y13.519 Z-5.973
X25.034 Y13.535 Z-5.993
X24.986 Y13.552 Z-6
X24.799 Y13.619 F400
G2 X24.679 Y13.873 I0.067 J0.187
G1 X44.679 Y69.673
G3 X45.11 Y72.15 I-6.912 J2.477
G1 Y85.8
G3 X37.767 Y93.142 I-7.342
G1 X17.767
G3 X10.425 Y85.8 J-7.342
G1 Y16.35
G3 X24.679 Y13.873 I7.342
G2 X24.933 Y13.993 I0.187 J-0.067
G1 X25.12 Y13.926
X25.168 Y13.908 Z-5.993
X25.213 Y13.892 Z-5.973
X25.252 Y13.878 Z-5.942
X25.282 Y13.868 Z-5.901
X25.3 Y13.861 Z-5.853
X25.307 Y13.859 Z-5.802
G0 Z15

(Fix-X-1-Holes)
M8
X18.496 Y53.503
Z15
Z5
G1 Z2.698 F400
G2 X18.471 Y53.51 Z2.601 I0.259 J0.906 F200
X18.406 Y53.534 Z2.529 I0.283 J0.899
X18.318 Y53.574 Z2.5 I0.349 J0.876
X19.191 Y55.244 Z2.397 I0.437 J0.835
X18.318 Y53.574 Z2.293 I-0.437 J-0.835
X19.191 Y55.244 Z2.19 I0.437 J0.835
X18.318 Y53.574 Z2.086 I-0.437 J-0.835
X19.191 Y55.244 Z1.983 I0.437 J0.835
X18.318 Y53.574 Z1.88 I-0.437 J-0.835
X19.191 Y55.244 Z1.776 I0.437 J0.835
X18.318 Y53.574 Z1.673 I-0.437 J-0.835
X19.191 Y55.244 Z1.569 I0.437 J0.835
X18.318 Y53.574 Z1.466 I-0.437 J-0.835
X19.191 Y55.244 Z1.363 I0.437 J0.835
X18.318 Y53.574 Z1.259 I-0.437 J-0.835
X19.191 Y55.244 Z1.156 I0.437 J0.835
X18.318 Y53.574 Z1.052 I-0.437 J-0.835
X19.191 Y55.244 Z0.949 I0.437 J0.835
X18.318 Y53.574 Z0.845 I-0.437 J-0.835
X19.191 Y55.244 Z0.742 I0.437 J0.835
X18.318 Y53.574 Z0.639 I-0.437 J-0.835
X19.191 Y55.244 Z0.535 I0.437 J0.835
X18.318 Y53.574 Z0.432 I-0.437 J-0.835
X19.191 Y55.244 Z0.328 I0.437 J0.835
X18.318 Y53.574 Z0.225 I-0.437 J-0.835
X19.191 Y55.244 Z0.122 I0.437 J0.835
X18.318 Y53.574 Z0.018 I-0.437 J-0.835
X19.191 Y55.244 Z-0.085 I0.437 J0.835
X18.318 Y53.574 Z-0.189 I-0.437 J-0.835
X19.191 Y55.244 Z-0.292 I0.437 J0.835
X18.318 Y53.574 Z-0.395 I-0.437 J-0.835
X19.191 Y55.244 Z-0.499 I0.437 J0.835
X18.318 Y53.574 Z-0.602 I-0.437 J-0.835
X19.191 Y55.244 Z-0.706 I0.437 J0.835
X18.318 Y53.574 Z-0.809 I-0.437 J-0.835
X19.191 Y55.244 Z-0.912 I0.437 J0.835
X18.755 Y53.466 Z-1 I-0.437 J-0.835
G1 X18.582 F400
G2 X18.262 Y53.786 J0.319
G1 Y59.394
G2 X18.582 Y59.714 I0.319
G1 X18.928
G2 X19.247 Y59.394 J-0.319
G1 Y53.786
G2 X18.928 Y53.466 I-0.319
G1 X18.755
G3 X18.05 Y53.035 J-0.791
G2 X17.247 Y53.228 I-0.378 J0.193
G1 Y60.729
X20.262
Y52.451
X17.247
Y53.228
G2 X17.361 Y53.408 I0.2
G1 X17.858 Y53.645
G3 X17.944 Y53.928 I-0.086 J0.181
G2 X19.565 Y54.89 Z-1.103 I0.811 J0.481 F200
X17.944 Y53.928 Z-1.207 I-0.811 J-0.481
X19.565 Y54.89 Z-1.31 I0.811 J0.481
X17.944 Y53.928 Z-1.414 I-0.811 J-0.481
X19.565 Y54.89 Z-1.517 I0.811 J0.481
X17.944 Y53.928 Z-1.62 I-0.811 J-0.481
X19.565 Y54.89 Z-1.724 I0.811 J0.481
X17.944 Y53.928 Z-1.827 I-0.811 J-0.481
X19.565 Y54.89 Z-1.931 I0.811 J0.481
X18.755 Y53.466 Z-2 I-0.811 J-0.481
G1 X18.582 F400
G2 X18.262 Y53.786 J0.319
G1 Y59.394
G2 X18.582 Y59.714 I0.319
G1 X18.928
G2 X19.247 Y59.394 J-0.319
G1 Y53.786
G2 X18.928 Y53.466 I-0.319
G1 X18.755
G3 X18.05 Y53.035 J-0.791
G2 X17.247 Y53.228 I-0.378 J0.193
G1 Y60.729
X20.262
Y52.451
X17.247
Y53.228
G2 X17.361 Y53.408 I0.2
G1 X17.858 Y53.645
G3 X17.944 Y53.928 I-0.086 J0.181
G2 X19.565 Y54.89 Z-2.103 I0.811 J0.481 F200
X17.944 Y53.928 Z-2.207 I-0.811 J-0.481
X19.565 Y54.89 Z-2.31 I0.811 J0.481
X17.944 Y53.928 Z-2.414 I-0.811 J-0.481
X19.565 Y54.89 Z-2.517 I0.811 J0.481
X17.944 Y53.928 Z-2.62 I-0.811 J-0.481
X19.565 Y54.89 Z-2.724 I0.811 J0.481
X17.944 Y53.928 Z-2.827 I-0.811 J-0.481
X19.565 Y54.89 Z-2.931 I0.811 J0.481
X18.755 Y53.466 Z-3 I-0.811 J-0.481
G1 X18.582 F400
G2 X18.262 Y53.786 J0.319
G1 Y59.394
G2 X18.582 Y59.714 I0.319
G1 X18.928
G2 X19.247 Y59.394 J-0.319
G1 Y53.786
G2 X18.928 Y53.466 I-0.319
G1 X18.755
G3 X18.05 Y53.035 J-0.791
G2 X17.247 Y53.228 I-0.378 J0.193
G1 Y60.729
X20.262
Y52.451
X17.247
Y53.228
G2 X17.361 Y53.408 I0.2
G1 X17.858 Y53.645
G3 X17.944 Y53.928 I-0.086 J0.181
G2 X19.565 Y54.89 Z-3.103 I0.811 J0.481 F200
X17.944 Y53.928 Z-3.207 I-0.811 J-0.481
X19.565 Y54.89 Z-3.31 I0.811 J0.481
X17.944 Y53.928 Z-3.414 I-0.811 J-0.481
X19.565 Y54.89 Z-3.517 I0.811 J0.481
X17.944 Y53.928 Z-3.62 I-0.811 J-0.481
X19.565 Y54.89 Z-3.724 I0.811 J0.481
X17.944 Y53.928 Z-3.827 I-0.811 J-0.481
X19.565 Y54.89 Z-3.931 I0.811 J0.481
X18.755 Y53.466 Z-4 I-0.811 J-0.481
G1 X18.582 F400
G2 X18.262 Y53.786 J0.319
G1 Y59.394
G2 X18.582 Y59.714 I0.319
G1 X18.928
G2 X19.247 Y59.394 J-0.319
G1 Y53.786
G2 X18.928 Y53.466 I-0.319
G1 X18.755
G3 X18.05 Y53.035 J-0.791
G2 X17.247 Y53.228 I-0.378 J0.193
G1 Y60.729
X20.262
Y52.451
X17.247
Y53.228
G2 X17.361 Y53.408 I0.2
G1 X17.858 Y53.645
G3 X17.944 Y53.928 I-0.086 J0.181
G2 X19.565 Y54.89 Z-4.103 I0.811 J0.481 F200
X17.944 Y53.928 Z-4.207 I-0.811 J-0.481
X19.565 Y54.89 Z-4.31 I0.811 J0.481
X17.944 Y53.928 Z-4.414 I-0.811 J-0.481
X19.565 Y54.89 Z-4.517 I0.811 J0.481
X17.944 Y53.928 Z-4.62 I-0.811 J-0.481
X19.565 Y54.89 Z-4.724 I0.811 J0.481
X17.944 Y53.928 Z-4.827 I-0.811 J-0.481
X19.565 Y54.89 Z-4.931 I0.811 J0.481
X18.755 Y53.466 Z-5 I-0.811 J-0.481
G1 X18.582 F400
G2 X18.262 Y53.786 J0.319
G1 Y59.394
G2 X18.582 Y59.714 I0.319
G1 X18.928
G2 X19.247 Y59.394 J-0.319
G1 Y53.786
G2 X18.928 Y53.466 I-0.319
G1 X18.755
G3 X18.05 Y53.035 J-0.791
G2 X17.247 Y53.228 I-0.378 J0.193
G1 Y60.729
X20.262
Y52.451
X17.247
Y53.228
G2 X17.361 Y53.408 I0.2
G1 X17.858 Y53.645
G3 X17.944 Y53.928 I-0.086 J0.181
G2 X19.565 Y54.89 Z-5.103 I0.811 J0.481 F200
X17.944 Y53.928 Z-5.207 I-0.811 J-0.481
X19.565 Y54.89 Z-5.31 I0.811 J0.481
X17.944 Y53.928 Z-5.414 I-0.811 J-0.481
X19.565 Y54.89 Z-5.517 I0.811 J0.481
X17.944 Y53.928 Z-5.62 I-0.811 J-0.481
X19.565 Y54.89 Z-5.724 I0.811 J0.481
X17.944 Y53.928 Z-5.827 I-0.811 J-0.481
X19.565 Y54.89 Z-5.931 I0.811 J0.481
X18.755 Y53.466 Z-6 I-0.811 J-0.481
G1 X18.582 F400
G2 X18.262 Y53.786 J0.319
G1 Y59.394
G2 X18.582 Y59.714 I0.319
G1 X18.928
G2 X19.247 Y59.394 J-0.319
G1 Y53.786
G2 X18.928 Y53.466 I-0.319
G1 X18.755
G3 X18.05 Y53.035 J-0.791
G2 X17.247 Y53.228 I-0.378 J0.193
G1 Y60.729
X20.262
Y52.451
X17.247
Y53.228
G2 X17.271 Y53.323 Z-5.973 I0.198
X17.317 Y53.379 Z-5.901 I0.174 J-0.095
X17.338 Y53.395 Z-5.802 I0.129 J-0.151
G0 Z5
X19.014 Y39.357
G1 Z2.698 F400
G2 X19.038 Y39.35 Z2.601 I-0.259 J-0.906 F200
X19.104 Y39.326 Z2.529 I-0.283 J-0.899
X19.191 Y39.286 Z2.5 I-0.349 J-0.876
X18.318 Y37.616 Z2.397 I-0.437 J-0.835
X19.191 Y39.286 Z2.293 I0.437 J0.835
X18.318 Y37.616 Z2.19 I-0.437 J-0.835
X19.191 Y39.286 Z2.086 I0.437 J0.835
X18.318 Y37.616 Z1.983 I-0.437 J-0.835
X19.191 Y39.286 Z1.88 I0.437 J0.835
X18.318 Y37.616 Z1.776 I-0.437 J-0.835
X19.191 Y39.286 Z1.673 I0.437 J0.835
X18.318 Y37.616 Z1.569 I-0.437 J-0.835
X19.191 Y39.286 Z1.466 I0.437 J0.835
X18.318 Y37.616 Z1.363 I-0.437 J-0.835
X19.191 Y39.286 Z1.259 I0.437 J0.835
X18.318 Y37.616 Z1.156 I-0.437 J-0.835
X19.191 Y39.286 Z1.052 I0.437 J0.835
X18.318 Y37.616 Z0.949 I-0.437 J-0.835
X19.191 Y39.286 Z0.845 I0.437 J0.835
X18.318 Y37.616 Z0.742 I-0.437 J-0.835
X19.191 Y39.286 Z0.639 I0.437 J0.835
X18.318 Y37.616 Z0.535 I-0.437 J-0.835
X19.191 Y39.286 Z0.432 I0.437 J0.835
X18.318 Y37.616 Z0.328 I-0.437 J-0.835
X19.191 Y39.286 Z0.225 I0.437 J0.835
X18.318 Y37.616 Z0.122 I-0.437 J-0.835
X19.191 Y39.286 Z0.018 I0.437 J0.835
X18.318 Y37.616 Z-0.085 I-0.437 J-0.835
X19.191 Y39.286 Z-0.189 I0.437 J0.835
X18.318 Y37.616 Z-0.292 I-0.437 J-0.835
X19.191 Y39.286 Z-0.395 I0.437 J0.835
X18.318 Y37.616 Z-0.499 I-0.437 J-0.835
X19.191 Y39.286 Z-0.602 I0.437 J0.835
X18.318 Y37.616 Z-0.706 I-0.437 J-0.835
X19.191 Y39.286 Z-0.809 I0.437 J0.835
X18.318 Y37.616 Z-0.912 I-0.437 J-0.835
X18.755 Y39.394 Z-1 I0.437 J0.835
G1 X18.928 F400
G2 X19.247 Y39.074 J-0.319
G1 Y33.466
G2 X18.928 Y33.146 I-0.319
G1 X18.582
G2 X18.262 Y33.466 J0.319
G1 Y39.074
G2 X18.582 Y39.394 I0.319
G1 X18.755
G3 X19.459 Y39.825 J0.791
G2 X20.262 Y39.632 I0.378 J-0.193
G1 Y32.131
X17.247
Y40.409
X20.262
Y39.632
G2 X20.149 Y39.452 I-0.2
G1 X19.651 Y39.215
G3 X19.565 Y38.932 I0.086 J-0.181
G2 X17.944 Y37.97 Z-1.103 I-0.811 J-0.481 F200
X19.565 Y38.932 Z-1.207 I0.811 J0.481
X17.944 Y37.97 Z-1.31 I-0.811 J-0.481
X19.565 Y38.932 Z-1.414 I0.811 J0.481
X17.944 Y37.97 Z-1.517 I-0.811 J-0.481
X19.565 Y38.932 Z-1.62 I0.811 J0.481
X17.944 Y37.97 Z-1.724 I-0.811 J-0.481
X19.565 Y38.932 Z-1.827 I0.811 J0.481
X17.944 Y37.97 Z-1.931 I-0.811 J-0.481
X18.755 Y39.394 Z-2 I0.811 J0.481
G1 X18.928 F400
G2 X19.247 Y39.074 J-0.319
G1 Y33.466
G2 X18.928 Y33.146 I-0.319
G1 X18.582
G2 X18.262 Y33.466 J0.319
G1 Y39.074
G2 X18.582 Y39.394 I0.319
G1 X18.755
G3 X19.459 Y39.825 J0.791
G2 X20.262 Y39.632 I0.378 J-0.193
G1 Y32.131
X17.247
Y40.409
X20.262
Y39.632
G2 X20.149 Y39.452 I-0.2
G1 X19.651 Y39.215
G3 X19.565 Y38.932 I0.086 J-0.181
G2 X17.944 Y37.97 Z-2.103 I-0.811 J-0.481 F200
X19.565 Y38.932 Z-2.207 I0.811 J0.481
X17.944 Y37.97 Z-2.31 I-0.811 J-0.481
X19.565 Y38.932 Z-2.414 I0.811 J0.481
X17.944 Y37.97 Z-2.517 I-0.811 J-0.481
X19.565 Y38.932 Z-2.62 I0.811 J0.481
X17.944 Y37.97 Z-2.724 I-0.811 J-0.481
X19.565 Y38.932 Z-2.827 I0.811 J0.481
X17.944 Y37.97 Z-2.931 I-0.811 J-0.481
X18.755 Y39.394 Z-3 I0.811 J0.481
G1 X18.928 F400
G2 X19.247 Y39.074 J-0.319
G1 Y33.466
G2 X18.928 Y33.146 I-0.319
G1 X18.582
G2 X18.262 Y33.466 J0.319
G1 Y39.074
G2 X18.582 Y39.394 I0.319
G1 X18.755
G3 X19.459 Y39.825 J0.791
G2 X20.262 Y39.632 I0.378 J-0.193
G1 Y32.131
X17.247
Y40.409
X20.262
Y39.632
G2 X20.149 Y39.452 I-0.2
G1 X19.651 Y39.215
G3 X19.565 Y38.932 I0.086 J-0.181
G2 X17.944 Y37.97 Z-3.103 I-0.811 J-0.481 F200
X19.565 Y38.932 Z-3.207 I0.811 J0.481
X17.944 Y37.97 Z-3.31 I-0.811 J-0.481
X19.565 Y38.932 Z-3.414 I0.811 J0.481
X17.944 Y37.97 Z-3.517 I-0.811 J-0.481
X19.565 Y38.932 Z-3.62 I0.811 J0.481
X17.944 Y37.97 Z-3.724 I-0.811 J-0.481
X19.565 Y38.932 Z-3.827 I0.811 J0.481
X17.944 Y37.97 Z-3.931 I-0.811 J-0.481
X18.755 Y39.394 Z-4 I0.811 J0.481
G1 X18.928 F400
G2 X19.247 Y39.074 J-0.319
G1 Y33.466
G2 X18.928 Y33.146 I-0.319
G1 X18.582
G2 X18.262 Y33.466 J0.319
G1 Y39.074
G2 X18.582 Y39.394 I0.319
G1 X18.755
G3 X19.459 Y39.825 J0.791
G2 X20.262 Y39.632 I0.378 J-0.193
G1 Y32.131
X17.247
Y40.409
X20.262
Y39.632
G2 X20.149 Y39.452 I-0.2
G1 X19.651 Y39.215
G3 X19.565 Y38.932 I0.086 J-0.181
G2 X17.944 Y37.97 Z-4.103 I-0.811 J-0.481 F200
X19.565 Y38.932 Z-4.207 I0.811 J0.481
X17.944 Y37.97 Z-4.31 I-0.811 J-0.481
X19.565 Y38.932 Z-4.414 I0.811 J0.481
X17.944 Y37.97 Z-4.517 I-0.811 J-0.481
X19.565 Y38.932 Z-4.62 I0.811 J0.481
X17.944 Y37.97 Z-4.724 I-0.811 J-0.481
X19.565 Y38.932 Z-4.827 I0.811 J0.481
X17.944 Y37.97 Z-4.931 I-0.811 J-0.481
X18.755 Y39.394 Z-5 I0.811 J0.481
G1 X18.928 F400
G2 X19.247 Y39.074 J-0.319
G1 Y33.466
G2 X18.928 Y33.146 I-0.319
G1 X18.582
G2 X18.262 Y33.466 J0.319
G1 Y39.074
G2 X18.582 Y39.394 I0.319
G1 X18.755
G3 X19.459 Y39.825 J0.791
G2 X20.262 Y39.632 I0.378 J-0.193
G1 Y32.131
X17.247
Y40.409
X20.262
Y39.632
G2 X20.149 Y39.452 I-0.2
G1 X19.651 Y39.215
G3 X19.565 Y38.932 I0.086 J-0.181
G2 X17.944 Y37.97 Z-5.103 I-0.811 J-0.481 F200
X19.565 Y38.932 Z-5.207 I0.811 J0.481
X17.944 Y37.97 Z-5.31 I-0.811 J-0.481
X19.565 Y38.932 Z-5.414 I0.811 J0.481
X17.944 Y37.97 Z-5.517 I-0.811 J-0.481
X19.565 Y38.932 Z-5.62 I0.811 J0.481
X17.944 Y37.97 Z-5.724 I-0.811 J-0.481
X19.565 Y38.932 Z-5.827 I0.811 J0.481
X17.944 Y37.97 Z-5.931 I-0.811 J-0.481
X18.755 Y39.394 Z-6 I0.811 J0.481
G1 X18.928 F400
G2 X19.247 Y39.074 J-0.319
G1 Y33.466
G2 X18.928 Y33.146 I-0.319
G1 X18.582
G2 X18.262 Y33.466 J0.319
G1 Y39.074
G2 X18.582 Y39.394 I0.319
G1 X18.755
G3 X19.459 Y39.825 J0.791
G2 X20.262 Y39.632 I0.378 J-0.193
G1 Y32.131
X17.247
Y40.409
X20.262
Y39.632
G2 X20.238 Y39.537 Z-5.973 I-0.198
X20.193 Y39.481 Z-5.901 I-0.174 J0.095
X20.171 Y39.465 Z-5.802 I-0.129 J0.151
G0 Z5
X18.496 Y73.823
G1 Z2.698 F400
G2 X18.471 Y73.83 Z2.601 I0.259 J0.906 F200
X18.406 Y73.854 Z2.529 I0.283 J0.899
X18.318 Y73.894 Z2.5 I0.349 J0.876
X19.191 Y75.564 Z2.397 I0.437 J0.835
X18.318 Y73.894 Z2.293 I-0.437 J-0.835
X19.191 Y75.564 Z2.19 I0.437 J0.835
X18.318 Y73.894 Z2.086 I-0.437 J-0.835
X19.191 Y75.564 Z1.983 I0.437 J0.835
X18.318 Y73.894 Z1.88 I-0.437 J-0.835
X19.191 Y75.564 Z1.776 I0.437 J0.835
X18.318 Y73.894 Z1.673 I-0.437 J-0.835
X19.191 Y75.564 Z1.569 I0.437 J0.835
X18.318 Y73.894 Z1.466 I-0.437 J-0.835
X19.191 Y75.564 Z1.363 I0.437 J0.835
X18.318 Y73.894 Z1.259 I-0.437 J-0.835
X19.191 Y75.564 Z1.156 I0.437 J0.835
X18.318 Y73.894 Z1.052 I-0.437 J-0.835
X19.191 Y75.564 Z0.949 I0.437 J0.835
X18.318 Y73.894 Z0.845 I-0.437 J-0.835
X19.191 Y75.564 Z0.742 I0.437 J0.835
X18.318 Y73.894 Z0.639 I-0.437 J-0.835
X19.191 Y75.564 Z0.535 I0.437 J0.835
X18.318 Y73.894 Z0.432 I-0.437 J-0.835
X19.191 Y75.564 Z0.328 I0.437 J0.835
X18.318 Y73.894 Z0.225 I-0.437 J-0.835
X19.191 Y75.564 Z0.122 I0.437 J0.835
X18.318 Y73.894 Z0.018 I-0.437 J-0.835
X19.191 Y75.564 Z-0.085 I0.437 J0.835
X18.318 Y73.894 Z-0.189 I-0.437 J-0.835
X19.191 Y75.564 Z-0.292 I0.437 J0.835
X18.318 Y73.894 Z-0.395 I-0.437 J-0.835
X19.191 Y75.564 Z-0.499 I0.437 J0.835
X18.318 Y73.894 Z-0.602 I-0.437 J-0.835
X19.191 Y75.564 Z-0.706 I0.437 J0.835
X18.318 Y73.894 Z-0.809 I-0.437 J-0.835
X19.191 Y75.564 Z-0.912 I0.437 J0.835
X18.755 Y73.786 Z-1 I-0.437 J-0.835
G1 X18.582 F400
G2 X18.262 Y74.106 J0.319
G1 Y79.714
G2 X18.582 Y80.034 I0.319
G1 X18.928
G2 X19.247 Y79.714 J-0.319
G1 Y74.106
G2 X18.928 Y73.786 I-0.319
G1 X18.755
G3 X18.05 Y73.355 J-0.791
G2 X17.247 Y73.548 I-0.378 J0.193
G1 Y81.049
X20.262
Y72.771
X17.247
Y73.548
G2 X17.361 Y73.728 I0.2
G1 X17.858 Y73.965
G3 X17.944 Y74.248 I-0.086 J0.181
G2 X19.565 Y75.21 Z-1.103 I0.811 J0.481 F200
X17.944 Y74.248 Z-1.207 I-0.811 J-0.481
X19.565 Y75.21 Z-1.31 I0.811 J0.481
X17.944 Y74.248 Z-1.414 I-0.811 J-0.481
X19.565 Y75.21 Z-1.517 I0.811 J0.481
X17.944 Y74.248 Z-1.62 I-0.811 J-0.481
X19.565 Y75.21 Z-1.724 I0.811 J0.481
X17.944 Y74.248 Z-1.827 I-0.811 J-0.481
X19.565 Y75.21 Z-1.931 I0.811 J0.481
X18.755 Y73.786 Z-2 I-0.811 J-0.481
G1 X18.582 F400
G2 X18.262 Y74.106 J0.319
G1 Y79.714
G2 X18.582 Y80.034 I0.319
G1 X18.928
G2 X19.247 Y79.714 J-0.319
G1 Y74.106
G2 X18.928 Y73.786 I-0.319
G1 X18.755
G3 X18.05 Y73.355 J-0.791
G2 X17.247 Y73.548 I-0.378 J0.193
G1 Y81.049
X20.262
Y72.771
X17.247
Y73.548
G2 X17.361 Y73.728 I0.2
G1 X17.858 Y73.965
G3 X17.944 Y74.248 I-0.086 J0.181
G2 X19.565 Y75.21 Z-2.103 I0.811 J0.481 F200
X17.944 Y74.248 Z-2.207 I-0.811 J-0.481
X19.565 Y75.21 Z-2.31 I0.811 J0.481
X17.944 Y74.248 Z-2.414 I-0.811 J-0.481
X19.565 Y75.21 Z-2.517 I0.811 J0.481
X17.944 Y74.248 Z-2.62 I-0.811 J-0.481
X19.565 Y75.21 Z-2.724 I0.811 J0.481
X17.944 Y74.248 Z-2.827 I-0.811 J-0.481
X19.565 Y75.21 Z-2.931 I0.811 J0.481
X18.755 Y73.786 Z-3 I-0.811 J-0.481
G1 X18.582 F400
G2 X18.262 Y74.106 J0.319
G1 Y79.714
G2 X18.582 Y80.034 I0.319
G1 X18.928
G2 X19.247 Y79.714 J-0.319
G1 Y74.106
G2 X18.928 Y73.786 I-0.319
G1 X18.755
G3 X18.05 Y73.355 J-0.791
G2 X17.247 Y73.548 I-0.378 J0.193
G1 Y81.049
X20.262
Y72.771
X17.247
Y73.548
G2 X17.361 Y73.728 I0.2
G1 X17.858 Y73.965
G3 X17.944 Y74.248 I-0.086 J0.181
G2 X19.565 Y75.21 Z-3.103 I0.811 J0.481 F200
X17.944 Y74.248 Z-3.207 I-0.811 J-0.481
X19.565 Y75.21 Z-3.31 I0.811 J0.481
X17.944 Y74.248 Z-3.414 I-0.811 J-0.481
X19.565 Y75.21 Z-3.517 I0.811 J0.481
X17.944 Y74.248 Z-3.62 I-0.811 J-0.481
X19.565 Y75.21 Z-3.724 I0.811 J0.481
X17.944 Y74.248 Z-3.827 I-0.811 J-0.481
X19.565 Y75.21 Z-3.931 I0.811 J0.481
X18.755 Y73.786 Z-4 I-0.811 J-0.481
G1 X18.582 F400
G2 X18.262 Y74.106 J0.319
G1 Y79.714
G2 X18.582 Y80.034 I0.319
G1 X18.928
G2 X19.247 Y79.714 J-0.319
G1 Y74.106
G2 X18.928 Y73.786 I-0.319
G1 X18.755
G3 X18.05 Y73.355 J-0.791
G2 X17.247 Y73.548 I-0.378 J0.193
G1 Y81.049
X20.262
Y72.771
X17.247
Y73.548
G2 X17.361 Y73.728 I0.2
G1 X17.858 Y73.965
G3 X17.944 Y74.248 I-0.086 J0.181
G2 X19.565 Y75.21 Z-4.103 I0.811 J0.481 F200
X17.944 Y74.248 Z-4.207 I-0.811 J-0.481
X19.565 Y75.21 Z-4.31 I0.811 J0.481
X17.944 Y74.248 Z-4.414 I-0.811 J-0.481
X19.565 Y75.21 Z-4.517 I0.811 J0.481
X17.944 Y74.248 Z-4.62 I-0.811 J-0.481
X19.565 Y75.21 Z-4.724 I0.811 J0.481
X17.944 Y74.248 Z-4.827 I-0.811 J-0.481
X19.565 Y75.21 Z-4.931 I0.811 J0.481
X18.755 Y73.786 Z-5 I-0.811 J-0.481
G1 X18.582 F400
G2 X18.262 Y74.106 J0.319
G1 Y79.714
G2 X18.582 Y80.034 I0.319
G1 X18.928
G2 X19.247 Y79.714 J-0.319
G1 Y74.106
G2 X18.928 Y73.786 I-0.319
G1 X18.755
G3 X18.05 Y73.355 J-0.791
G2 X17.247 Y73.548 I-0.378 J0.193
G1 Y81.049
X20.262
Y72.771
X17.247
Y73.548
G2 X17.361 Y73.728 I0.2
G1 X17.858 Y73.965
G3 X17.944 Y74.248 I-0.086 J0.181
G2 X19.565 Y75.21 Z-5.103 I0.811 J0.481 F200
X17.944 Y74.248 Z-5.207 I-0.811 J-0.481
X19.565 Y75.21 Z-5.31 I0.811 J0.481
X17.944 Y74.248 Z-5.414 I-0.811 J-0.481
X19.565 Y75.21 Z-5.517 I0.811 J0.481
X17.944 Y74.248 Z-5.62 I-0.811 J-0.481
X19.565 Y75.21 Z-5.724 I0.811 J0.481
X17.944 Y74.248 Z-5.827 I-0.811 J-0.481
X19.565 Y75.21 Z-5.931 I0.811 J0.481
X18.755 Y73.786 Z-6 I-0.811 J-0.481
G1 X18.582 F400
G2 X18.262 Y74.106 J0.319
G1 Y79.714
G2 X18.582 Y80.034 I0.319
G1 X18.928
G2 X19.247 Y79.714 J-0.319
G1 Y74.106
G2 X18.928 Y73.786 I-0.319
G1 X18.755
G3 X18.05 Y73.355 J-0.791
G2 X17.247 Y73.548 I-0.378 J0.193
G1 Y81.049
X20.262
Y72.771
X17.247
Y73.548
G2 X17.271 Y73.643 Z-5.973 I0.198
X17.317 Y73.699 Z-5.901 I0.174 J-0.095
X17.338 Y73.715 Z-5.802 I0.129 J-0.151
G0 Z15
M9
G28 G91 Z0
G28 X0 Y0
M30
%
