%
(1)
(T1  D=1.984 CR=0 - ZMIN=-6 - flat end mill)
G90 G94
G17
G21
G28 G91 Z0
G90

(Moving-Y-2)
M9
T1 M6
S26467 M3
G54
M8
G0 X35.255 Y118.565
Z15
Z5
G1 Z2 F400
Z-0.802 F200
G19 G3 Y118.764 Z-1 J0.198
G1 Y118.962 F400
G17 G2 X35.453 Y119.161 I0.198
G1 X39.461
Y111.499
X34.461
Y99.869
X41.851
X41.899 Y99.873
X60.135 Y101.643
G3 X65.406 Y113.211 I-0.709 J7.308
G1 X39.436 Y149.667
X39.14 Y150.083
X34.461
Y138.453
X39.461
Y130.791
X34.461
Y119.161
X35.453
G2 X35.652 Y118.962 J-0.198
G1 Y118.764
G19 G2 Y118.565 Z-0.802 K0.198
G1 X35.255
Z-1.802 F200
G3 Y118.764 Z-2 J0.198
G1 Y118.962 F400
G17 G2 X35.453 Y119.161 I0.198
G1 X39.461
Y111.499
X34.461
Y99.869
X41.851
X41.899 Y99.873
X60.135 Y101.643
G3 X65.406 Y113.211 I-0.709 J7.308
G1 X39.436 Y149.667
X39.14 Y150.083
X34.461
Y138.453
X39.461
Y130.791
X34.461
Y119.161
X35.453
G2 X35.652 Y118.962 J-0.198
G1 Y118.764
G19 G2 Y118.565 Z-1.802 K0.198
G1 X35.255
Z-2.802 F200
G3 Y118.764 Z-3 J0.198
G1 Y118.962 F400
G17 G2 X35.453 Y119.161 I0.198
G1 X39.461
Y111.499
X34.461
Y99.869
X41.851
X41.899 Y99.873
X60.135 Y101.643
G3 X65.406 Y113.211 I-0.709 J7.308
G1 X39.436 Y149.667
X39.14 Y150.083
X34.461
Y138.453
X39.461
Y130.791
X34.461
Y119.161
X35.453
G2 X35.652 Y118.962 J-0.198
G1 Y118.764
G19 G2 Y118.565 Z-2.802 K0.198
G1 X35.255
Z-3.802 F200
G3 Y118.764 Z-4 J0.198
G1 Y118.962 F400
G17 G2 X35.453 Y119.161 I0.198
G1 X39.461
Y111.499
X34.461
Y99.869
X41.851
X41.899 Y99.873
X60.135 Y101.643
G3 X65.406 Y113.211 I-0.709 J7.308
G1 X39.436 Y149.667
X39.14 Y150.083
X34.461
Y138.453
X39.461
Y130.791
X34.461
Y119.161
X35.453
G2 X35.652 Y118.962 J-0.198
G1 Y118.764
G19 G2 Y118.565 Z-3.802 K0.198
G1 X35.255
Z-4.802 F200
G3 Y118.764 Z-5 J0.198
G1 Y118.962 F400
G17 G2 X35.453 Y119.161 I0.198
G1 X39.461
Y111.499
X34.461
Y99.869
X41.851
X41.899 Y99.873
X60.135 Y101.643
G3 X65.406 Y113.211 I-0.709 J7.308
G1 X39.436 Y149.667
X39.14 Y150.083
X34.461
Y138.453
X39.461
Y130.791
X34.461
Y119.161
X35.453
G2 X35.652 Y118.962 J-0.198
G1 Y118.764
G19 G2 Y118.565 Z-4.802 K0.198
G1 X35.255
Z-5.802 F200
G3 Y118.764 Z-6 J0.198
G1 Y118.962 F400
G17 G2 X35.453 Y119.161 I0.198
G1 X39.461
Y111.499
X34.461
Y99.869
X41.851
X41.899 Y99.873
X60.135 Y101.643
G3 X65.406 Y113.211 I-0.709 J7.308
G1 X39.436 Y149.667
X39.14 Y150.083
X34.461
Y138.453
X39.461
Y130.791
X34.461
Y119.161
X35.453
G2 X35.652 Y118.962 J-0.198
G1 Y118.764
G19 G2 Y118.565 Z-5.802 K0.198
G0 Z15
G17
M9
G28 G91 Z0
G28 X0 Y0
M30
%
