%
(1)
(T1  D=1.984 CR=0 - ZMIN=-5 - flat end mill)
G90 G94
G17
G21
G28 G91 Z0
G90

(Moving-Y-2)
M9
T1 M6
S26467 M3
G54
M8
G0 X95.317 Y34.106
Z15
Z5
G1 Z2 F400
Z-0.802 F200
G19 G3 Y34.304 Z-1 J0.198
G1 Y34.503 F400
G17 G2 X95.516 Y34.701 I0.198
G1 X96.508
Y45.191
X91.508
Y53.772
X72.991
G3 X68.999 Y49.78 J-3.992
G1 Y27.78
G3 X70.625 Y24.564 I3.992
G1 X91.508 Y7.942
Y17.589
X96.508
Y28.079
X91.508
Y34.701
X95.516
G2 X95.714 Y34.503 J-0.198
G1 Y34.304
G19 G2 Y34.106 Z-0.802 K0.198
G1 X95.317
Z-1.802 F200
G3 Y34.304 Z-2 J0.198
G1 Y34.503 F400
G17 G2 X95.516 Y34.701 I0.198
G1 X96.508
Y45.191
X91.508
Y53.772
X72.991
G3 X68.999 Y49.78 J-3.992
G1 Y27.78
G3 X70.625 Y24.564 I3.992
G1 X91.508 Y7.942
Y17.589
X96.508
Y28.079
X91.508
Y34.701
X95.516
G2 X95.714 Y34.503 J-0.198
G1 Y34.304
G19 G2 Y34.106 Z-1.802 K0.198
G1 X95.317
Z-2.802 F200
G3 Y34.304 Z-3 J0.198
G1 Y34.503 F400
G17 G2 X95.516 Y34.701 I0.198
G1 X96.508
Y45.191
X91.508
Y53.772
X72.991
G3 X68.999 Y49.78 J-3.992
G1 Y27.78
G3 X70.625 Y24.564 I3.992
G1 X91.508 Y7.942
Y17.589
X96.508
Y28.079
X91.508
Y34.701
X95.516
G2 X95.714 Y34.503 J-0.198
G1 Y34.304
G19 G2 Y34.106 Z-2.802 K0.198
G1 X95.317
Z-3.802 F200
G3 Y34.304 Z-4 J0.198
G1 Y34.503 F400
G17 G2 X95.516 Y34.701 I0.198
G1 X96.508
Y45.191
X91.508
Y53.772
X72.991
G3 X68.999 Y49.78 J-3.992
G1 Y27.78
G3 X70.625 Y24.564 I3.992
G1 X91.508 Y7.942
Y17.589
X96.508
Y28.079
X91.508
Y34.701
X95.516
G2 X95.714 Y34.503 J-0.198
G1 Y34.304
G19 G2 Y34.106 Z-3.802 K0.198
G1 X95.317
Z-4.802 F200
G3 Y34.304 Z-5 J0.198
G1 Y34.503 F400
G17 G2 X95.516 Y34.701 I0.198
G1 X96.508
Y45.191
X91.508
Y53.772
X72.991
G3 X68.999 Y49.78 J-3.992
G1 Y27.78
G3 X70.625 Y24.564 I3.992
G1 X91.508 Y7.942
Y17.589
X96.508
Y28.079
X91.508
Y34.701
X95.516
G2 X95.714 Y34.503 J-0.198
G1 Y34.304
G19 G2 Y34.106 Z-4.802 K0.198
G0 Z15
G17
M9
G28 G91 Z0
G28 X0 Y0
M30
%
