%
(1)
(T1  D=1.984 CR=0 - ZMIN=-6 - flat end mill)
G90 G94
G17
G21
G28 G91 Z0
G90

(Moving-X)
M9
T1 M6
S26467 M3
G54
M8
G0 X72.313 Y46.26
Z15
Z5
G1 Z2 F400
Z-0.802 F200
G19 G3 Y46.459 Z-1 J0.198
G1 Y46.657 F400
G17 G3 X72.115 Y46.856 I-0.198
G1 X71.123
Y60.826
X69.458
X68.466
Y74.81
X76.868
G2 X83.92 Y69.511 J-7.342
G1 X97.067 Y24.13
G2 X91.812 Y14.968 I-7.052 J-2.043
G1 X72.74 Y10.152
G2 X71.72 Y10.026 I-1.02 J4.04
G1 X69.458
G2 X65.291 Y14.193 J4.167
G1 Y23.083
G2 X69.458 Y27.25 I4.167
G1 X70.45
Y18.36
X71.123
Y30.068
Y31.06
X75.29
G3 X80.648 Y36.418 J5.358
G1 Y41.498
G3 X75.29 Y46.856 I-5.358
G1 X72.115
G3 X71.916 Y46.657 J-0.198
G1 Y46.459
G19 G2 Y46.26 Z-0.802 K0.198
G1 X72.313
Z-1.802 F200
G3 Y46.459 Z-2 J0.198
G1 Y46.657 F400
G17 G3 X72.115 Y46.856 I-0.198
G1 X71.123
Y60.826
X69.458
X68.466
Y74.81
X76.868
G2 X83.92 Y69.511 J-7.342
G1 X97.067 Y24.13
G2 X91.812 Y14.968 I-7.052 J-2.043
G1 X72.74 Y10.152
G2 X71.72 Y10.026 I-1.02 J4.04
G1 X69.458
G2 X65.291 Y14.193 J4.167
G1 Y23.083
G2 X69.458 Y27.25 I4.167
G1 X70.45
Y18.36
X71.123
Y30.068
Y31.06
X75.29
G3 X80.648 Y36.418 J5.358
G1 Y41.498
G3 X75.29 Y46.856 I-5.358
G1 X72.115
G3 X71.916 Y46.657 J-0.198
G1 Y46.459
G19 G2 Y46.26 Z-1.802 K0.198
G1 X72.313
Z-2.802 F200
G3 Y46.459 Z-3 J0.198
G1 Y46.657 F400
G17 G3 X72.115 Y46.856 I-0.198
G1 X71.123
Y60.826
X69.458
X68.466
Y74.81
X76.868
G2 X83.92 Y69.511 J-7.342
G1 X97.067 Y24.13
G2 X91.812 Y14.968 I-7.052 J-2.043
G1 X72.74 Y10.152
G2 X71.72 Y10.026 I-1.02 J4.04
G1 X69.458
G2 X65.291 Y14.193 J4.167
G1 Y23.083
G2 X69.458 Y27.25 I4.167
G1 X70.45
Y18.36
X71.123
Y30.068
Y31.06
X75.29
G3 X80.648 Y36.418 J5.358
G1 Y41.498
G3 X75.29 Y46.856 I-5.358
G1 X72.115
G3 X71.916 Y46.657 J-0.198
G1 Y46.459
G19 G2 Y46.26 Z-2.802 K0.198
G1 X72.313
Z-3.802 F200
G3 Y46.459 Z-4 J0.198
G1 Y46.657 F400
G17 G3 X72.115 Y46.856 I-0.198
G1 X71.123
Y60.826
X69.458
X68.466
Y74.81
X76.868
G2 X83.92 Y69.511 J-7.342
G1 X97.067 Y24.13
G2 X91.812 Y14.968 I-7.052 J-2.043
G1 X72.74 Y10.152
G2 X71.72 Y10.026 I-1.02 J4.04
G1 X69.458
G2 X65.291 Y14.193 J4.167
G1 Y23.083
G2 X69.458 Y27.25 I4.167
G1 X70.45
Y18.36
X71.123
Y30.068
Y31.06
X75.29
G3 X80.648 Y36.418 J5.358
G1 Y41.498
G3 X75.29 Y46.856 I-5.358
G1 X72.115
G3 X71.916 Y46.657 J-0.198
G1 Y46.459
G19 G2 Y46.26 Z-3.802 K0.198
G1 X72.313
Z-4.802 F200
G3 Y46.459 Z-5 J0.198
G1 Y46.657 F400
G17 G3 X72.115 Y46.856 I-0.198
G1 X71.123
Y60.826
X69.458
X68.466
Y74.81
X76.868
G2 X83.92 Y69.511 J-7.342
G1 X97.067 Y24.13
G2 X91.812 Y14.968 I-7.052 J-2.043
G1 X72.74 Y10.152
G2 X71.72 Y10.026 I-1.02 J4.04
G1 X69.458
G2 X65.291 Y14.193 J4.167
G1 Y23.083
G2 X69.458 Y27.25 I4.167
G1 X70.45
Y18.36
X71.123
Y30.068
Y31.06
X75.29
G3 X80.648 Y36.418 J5.358
G1 Y41.498
G3 X75.29 Y46.856 I-5.358
G1 X72.115
G3 X71.916 Y46.657 J-0.198
G1 Y46.459
G19 G2 Y46.26 Z-4.802 K0.198
G1 X72.313
Z-5.802 F200
G3 Y46.459 Z-6 J0.198
G1 Y46.657 F400
G17 G3 X72.115 Y46.856 I-0.198
G1 X71.123
Y60.826
X69.458
X68.466
Y74.81
X76.868
G2 X83.92 Y69.511 J-7.342
G1 X97.067 Y24.13
G2 X91.812 Y14.968 I-7.052 J-2.043
G1 X72.74 Y10.152
G2 X71.72 Y10.026 I-1.02 J4.04
G1 X69.458
G2 X65.291 Y14.193 J4.167
G1 Y23.083
G2 X69.458 Y27.25 I4.167
G1 X70.45
Y18.36
X71.123
Y30.068
Y31.06
X75.29
G3 X80.648 Y36.418 J5.358
G1 Y41.498
G3 X75.29 Y46.856 I-5.358
G1 X72.115
G3 X71.916 Y46.657 J-0.198
G1 Y46.459
G19 G2 Y46.26 Z-5.802 K0.198
G0 Z15
G17
M9
G28 G91 Z0
G28 X0 Y0
M30
%
