%
(1)
(T1  D=1.984 CR=0 - ZMIN=-6 - flat end mill)
G90 G94
G17
G21
G28 G91 Z0
G90

(Moving-Y-1)
M9
T1 M6
S26467 M3
G54
M8
G0 X29.368 Y105.719
Z15
Z5
G1 Z2 F400
Z-0.802 F200
G18 G3 X29.169 Z-1 I-0.198
G1 X28.971 F400
G17 G2 X28.772 Y105.917 J0.198
G1 Y167.417
G3 X9.008 I-9.882
G1 Y159.231
X14.008
Y151.617
X9.008
Y139.939
X14.008
Y132.323
X9.008
Y120.647
X14.008
Y112.985
X9.008
Y105.917
G3 X28.772 I9.882
G2 X28.971 Y106.115 I0.198
G1 X29.169
G18 G2 X29.368 Z-0.802 K0.198
G1 Y105.719
Z-1.802 F200
G3 X29.169 Z-2 I-0.198
G1 X28.971 F400
G17 G2 X28.772 Y105.917 J0.198
G1 Y167.417
G3 X9.008 I-9.882
G1 Y159.231
X14.008
Y151.617
X9.008
Y139.939
X14.008
Y132.323
X9.008
Y120.647
X14.008
Y112.985
X9.008
Y105.917
G3 X28.772 I9.882
G2 X28.971 Y106.115 I0.198
G1 X29.169
G18 G2 X29.368 Z-1.802 K0.198
G1 Y105.719
Z-2.802 F200
G3 X29.169 Z-3 I-0.198
G1 X28.971 F400
G17 G2 X28.772 Y105.917 J0.198
G1 Y167.417
G3 X9.008 I-9.882
G1 Y159.231
X14.008
Y151.617
X9.008
Y139.939
X14.008
Y132.323
X9.008
Y120.647
X14.008
Y112.985
X9.008
Y105.917
G3 X28.772 I9.882
G2 X28.971 Y106.115 I0.198
G1 X29.169
G18 G2 X29.368 Z-2.802 K0.198
G1 Y105.719
Z-3.802 F200
G3 X29.169 Z-4 I-0.198
G1 X28.971 F400
G17 G2 X28.772 Y105.917 J0.198
G1 Y167.417
G3 X9.008 I-9.882
G1 Y159.231
X14.008
Y151.617
X9.008
Y139.939
X14.008
Y132.323
X9.008
Y120.647
X14.008
Y112.985
X9.008
Y105.917
G3 X28.772 I9.882
G2 X28.971 Y106.115 I0.198
G1 X29.169
G18 G2 X29.368 Z-3.802 K0.198
G1 Y105.719
Z-4.802 F200
G3 X29.169 Z-5 I-0.198
G1 X28.971 F400
G17 G2 X28.772 Y105.917 J0.198
G1 Y167.417
G3 X9.008 I-9.882
G1 Y159.231
X14.008
Y151.617
X9.008
Y139.939
X14.008
Y132.323
X9.008
Y120.647
X14.008
Y112.985
X9.008
Y105.917
G3 X28.772 I9.882
G2 X28.971 Y106.115 I0.198
G1 X29.169
G18 G2 X29.368 Z-4.802 K0.198
G1 Y105.719
Z-5.802 F200
G3 X29.169 Z-6 I-0.198
G1 X28.971 F400
G17 G2 X28.772 Y105.917 J0.198
G1 Y167.417
G3 X9.008 I-9.882
G1 Y159.231
X14.008
Y151.617
X9.008
Y139.939
X14.008
Y132.323
X9.008
Y120.647
X14.008
Y112.985
X9.008
Y105.917
G3 X28.772 I9.882
G2 X28.971 Y106.115 I0.198
G1 X29.169
G18 G2 X29.368 Z-5.802 K0.198
G0 Z15
G17
M9
G28 G91 Z0
G28 X0 Y0
M30
%
