%
(1)
(T1  D=1.984 CR=0 - ZMIN=-5 - flat end mill)
G90 G94
G17
G21
G28 G91 Z0
G90

(Moving-Y-1)
M9
T1 M6
S26467 M3
G54
M8
G0 X76.803 Y88.536
Z15
Z5
G1 Z2 F400
Z-0.802 F200
G18 G2 X77.001 Z-1 I0.198
G1 X77.199 F400
G17 G2 X77.398 Y88.337 J-0.198
G1 Y84.202
X70.826
Y89.329
X60.286
Y84.202
X53.714
Y89.329
X43.174
Y71.827
G3 X54.326 Y60.675 I11.152
G1 X76.786
G3 X87.938 Y71.827 J11.152
G1 Y89.329
X77.398
Y88.337
G2 X77.199 Y88.139 I-0.198
G1 X77.001
G18 G3 X76.803 Z-0.802 K0.198
G1 Y88.536
Z-1.802 F200
G2 X77.001 Z-2 I0.198
G1 X77.199 F400
G17 G2 X77.398 Y88.337 J-0.198
G1 Y84.202
X70.826
Y89.329
X60.286
Y84.202
X53.714
Y89.329
X43.174
Y71.827
G3 X54.326 Y60.675 I11.152
G1 X76.786
G3 X87.938 Y71.827 J11.152
G1 Y89.329
X77.398
Y88.337
G2 X77.199 Y88.139 I-0.198
G1 X77.001
G18 G3 X76.803 Z-1.802 K0.198
G1 Y88.536
Z-2.802 F200
G2 X77.001 Z-3 I0.198
G1 X77.199 F400
G17 G2 X77.398 Y88.337 J-0.198
G1 Y84.202
X70.826
Y89.329
X60.286
Y84.202
X53.714
Y89.329
X43.174
Y71.827
G3 X54.326 Y60.675 I11.152
G1 X76.786
G3 X87.938 Y71.827 J11.152
G1 Y89.329
X77.398
Y88.337
G2 X77.199 Y88.139 I-0.198
G1 X77.001
G18 G3 X76.803 Z-2.802 K0.198
G1 Y88.536
Z-3.802 F200
G2 X77.001 Z-4 I0.198
G1 X77.199 F400
G17 G2 X77.398 Y88.337 J-0.198
G1 Y84.202
X70.826
Y89.329
X60.286
Y84.202
X53.714
Y89.329
X43.174
Y71.827
G3 X54.326 Y60.675 I11.152
G1 X76.786
G3 X87.938 Y71.827 J11.152
G1 Y89.329
X77.398
Y88.337
G2 X77.199 Y88.139 I-0.198
G1 X77.001
G18 G3 X76.803 Z-3.802 K0.198
G1 Y88.536
Z-4.802 F200
G2 X77.001 Z-5 I0.198
G1 X77.199 F400
G17 G2 X77.398 Y88.337 J-0.198
G1 Y84.202
X70.826
Y89.329
X60.286
Y84.202
X53.714
Y89.329
X43.174
Y71.827
G3 X54.326 Y60.675 I11.152
G1 X76.786
G3 X87.938 Y71.827 J11.152
G1 Y89.329
X77.398
Y88.337
G2 X77.199 Y88.139 I-0.198
G1 X77.001
G18 G3 X76.803 Z-4.802 K0.198
G0 Z15
G17
M9
G28 G91 Z0
G28 X0 Y0
M30
%
