%
(1)
(T1  D=3 CR=0 - ZMIN=-19.5 - flat end mill)
G90 G94
G17
G21
G28 G91 Z0
G90

(2D Pocket2)
M9
T1 M6
S17507 M3
G54
M8
G0 X23.25 Y56.855
Z15
Z5
G1 Z2.8 F400
G19 G2 Y56.566 Z2.5 J-0.3
G1 Y35.648 Z1.77
G17 G3 X24.75 Z1.687 I0.75
G1 Y95.644 Z-0.408
G3 X24.002 Y96.398 Z-0.449 I-0.75 J0.004
X23.25 Y95.647 Z-0.49 I-0.002 J-0.75
G1 Y95.369 Z-0.5
Y35.648
G3 X24.75 I0.75
G1 Y95.644
G3 X24.002 Y96.398 I-0.75 J0.004
X23.25 Y95.647 I-0.002 J-0.75
G1 Y95.369
Y81.051 Z-1
Y35.648
G3 X24.75 I0.75
G1 Y95.644
G3 X24.002 Y96.398 I-0.75 J0.004
X23.25 Y95.647 I-0.002 J-0.75
G1 Y81.051
Y66.733 Z-1.5
Y35.648
G3 X24.75 I0.75
G1 Y95.644
G3 X24.002 Y96.398 I-0.75 J0.004
X23.25 Y95.647 I-0.002 J-0.75
G1 Y81.051
Y66.733
Y52.415 Z-2
Y35.648
G3 X24.75 I0.75
G1 Y95.644
G3 X24.002 Y96.398 I-0.75 J0.004
X23.25 Y95.647 I-0.002 J-0.75
G1 Y66.733
Y52.415
Y38.097 Z-2.5
Y35.648
G3 X24.75 I0.75
G1 Y95.644
G3 X24.002 Y96.398 I-0.75 J0.004
X23.25 Y95.647 I-0.002 J-0.75
G1 Y52.415
Y38.097
Y35.648 Z-2.586
G3 X24.75 Z-2.668 I0.75
G1 Y45.162 Z-3
Y95.644
G3 X24.002 Y96.398 I-0.75 J0.004
X23.25 Y95.647 I-0.002 J-0.75
G1 Y38.097
Y35.648
G3 X24.75 I0.75
G1 Y45.162
Y59.48 Z-3.5
Y95.644
G3 X24.002 Y96.398 I-0.75 J0.004
X23.25 Y95.647 I-0.002 J-0.75
G1 Y35.648
G3 X24.75 I0.75
G1 Y59.48
Y73.798 Z-4
Y95.644
G3 X24.002 Y96.398 I-0.75 J0.004
X23.25 Y95.647 I-0.002 J-0.75
G1 Y35.648
G3 X24.75 I0.75
G1 Y59.48
Y73.798
Y88.116 Z-4.5
Y95.644
G3 X24.002 Y96.398 I-0.75 J0.004
X23.25 Y95.647 I-0.002 J-0.75
G1 Y35.648
G3 X24.75 I0.75
G1 Y73.798
Y88.116
Y95.644 Z-4.763
G3 X24.002 Y96.398 Z-4.804 I-0.75 J0.004
X23.25 Y95.647 Z-4.845 I-0.002 J-0.75
G1 Y91.218 Z-5
Y35.648
G3 X24.75 I0.75
G1 Y88.116
Y95.644
G3 X24.002 Y96.398 I-0.75 J0.004
X23.25 Y95.647 I-0.002 J-0.75
G1 Y91.218
Y76.9 Z-5.5
Y35.648
G3 X24.75 I0.75
G1 Y95.644
G3 X24.002 Y96.398 I-0.75 J0.004
X23.25 Y95.647 I-0.002 J-0.75
G1 Y76.9
Y62.582 Z-6
Y35.648
G3 X24.75 I0.75
G1 Y95.644
G3 X24.002 Y96.398 I-0.75 J0.004
X23.25 Y95.647 I-0.002 J-0.75
G1 Y76.9
Y62.582
Y48.264 Z-6.5
Y35.648
G3 X24.75 I0.75
G1 Y95.644
G3 X24.002 Y96.398 I-0.75 J0.004
X23.25 Y95.647 I-0.002 J-0.75
G1 Y62.582
Y48.264
Y35.648 Z-6.941
G3 X24.483 Y35.074 Z-7 I0.75
X24.75 Y35.648 I-0.483 J0.574
G1 Y95.644
G3 X24.002 Y96.398 I-0.75 J0.004
X23.25 Y95.647 I-0.002 J-0.75
G1 Y48.264
Y35.648
G3 X24.483 Y35.074 I0.75
X24.75 Y35.648 Z-7.023 I-0.483 J0.574
G1 Y49.312 Z-7.5
Y95.644
G3 X24.002 Y96.398 I-0.75 J0.004
X23.25 Y95.647 I-0.002 J-0.75
G1 Y35.648
G3 X24.75 I0.75
G1 Y49.312
Y63.631 Z-8
Y95.644
G3 X24.002 Y96.398 I-0.75 J0.004
X23.25 Y95.647 I-0.002 J-0.75
G1 Y35.648
G3 X24.75 I0.75
G1 Y63.631
Y77.949 Z-8.5
Y95.644
G3 X24.002 Y96.398 I-0.75 J0.004
X23.25 Y95.647 I-0.002 J-0.75
G1 Y35.648
G3 X24.75 I0.75
G1 Y63.631
Y77.949
Y92.267 Z-9
Y95.644
G3 X24.002 Y96.398 I-0.75 J0.004
X23.25 Y95.647 I-0.002 J-0.75
G1 Y35.648
G3 X24.75 I0.75
G1 Y77.949
Y92.267
Y95.644 Z-9.118
G3 X24.002 Y96.398 Z-9.159 I-0.75 J0.004
X23.25 Y95.647 Z-9.2 I-0.002 J-0.75
G1 Y87.067 Z-9.5
Y35.648
G3 X24.75 I0.75
G1 Y92.267
Y95.644
G3 X24.002 Y96.398 I-0.75 J0.004
X23.25 Y95.647 I-0.002 J-0.75
G1 Y87.067
Y72.749 Z-10
Y35.648
G3 X24.75 I0.75
G1 Y95.644
G3 X24.002 Y96.398 I-0.75 J0.004
X23.25 Y95.647 I-0.002 J-0.75
G1 Y72.749
Y58.431 Z-10.5
Y35.648
G3 X24.75 I0.75
G1 Y95.644
G3 X24.002 Y96.398 I-0.75 J0.004
X23.25 Y95.647 I-0.002 J-0.75
G1 Y72.749
Y58.431
Y44.113 Z-11
Y35.648
G3 X24.75 I0.75
G1 Y95.644
G3 X24.002 Y96.398 I-0.75 J0.004
X23.25 Y95.647 I-0.002 J-0.75
G1 Y58.431
Y44.113
Y35.648 Z-11.296
G3 X24.75 Z-11.378 I0.75
G1 Y39.145 Z-11.5
Y95.644
G3 X24.002 Y96.398 I-0.75 J0.004
X23.25 Y95.647 I-0.002 J-0.75
G1 Y44.113
Y35.648
G3 X24.75 I0.75
G1 Y39.145
Y53.463 Z-12
Y95.644
G3 X24.002 Y96.398 I-0.75 J0.004
X23.25 Y95.647 I-0.002 J-0.75
G1 Y35.648
G3 X24.75 I0.75
G1 Y53.463
Y67.781 Z-12.5
Y95.644
G3 X24.002 Y96.398 I-0.75 J0.004
X23.25 Y95.647 I-0.002 J-0.75
G1 Y35.648
G3 X24.75 I0.75
G1 Y53.463
Y67.781
Y82.099 Z-13
Y95.644
G3 X24.002 Y96.398 I-0.75 J0.004
X23.25 Y95.647 I-0.002 J-0.75
G1 Y35.648
G3 X24.75 I0.75
G1 Y67.781
Y82.099
Y95.644 Z-13.473
G3 X24.389 Y96.29 Z-13.5 I-0.75 J0.004
X23.25 Y95.647 I-0.389 J-0.641
G1 Y35.648
G3 X24.75 I0.75
G1 Y82.099
Y95.644
G3 X24.389 Y96.29 I-0.75 J0.004
X23.25 Y95.647 Z-13.555 I-0.389 J-0.641
G1 Y82.917 Z-14
Y35.648
G3 X24.75 I0.75
G1 Y95.644
G3 X24.002 Y96.398 I-0.75 J0.004
X23.25 Y95.647 I-0.002 J-0.75
G1 Y82.917
Y68.598 Z-14.5
Y35.648
G3 X24.75 I0.75
G1 Y95.644
G3 X24.002 Y96.398 I-0.75 J0.004
X23.25 Y95.647 I-0.002 J-0.75
G1 Y68.598
Y54.28 Z-15
Y35.648
G3 X24.75 I0.75
G1 Y95.644
G3 X24.002 Y96.398 I-0.75 J0.004
X23.25 Y95.647 I-0.002 J-0.75
G1 Y68.598
Y54.28
Y39.962 Z-15.5
Y35.648
G3 X24.75 I0.75
G1 Y95.644
G3 X24.002 Y96.398 I-0.75 J0.004
X23.25 Y95.647 I-0.002 J-0.75
G1 Y54.28
Y39.962
Y35.648 Z-15.651
G3 X24.75 Z-15.733 I0.75
G1 Y43.296 Z-16
Y95.644
G3 X24.002 Y96.398 I-0.75 J0.004
X23.25 Y95.647 I-0.002 J-0.75
G1 Y39.962
Y35.648
G3 X24.75 I0.75
G1 Y43.296
Y57.614 Z-16.5
Y95.644
G3 X24.002 Y96.398 I-0.75 J0.004
X23.25 Y95.647 I-0.002 J-0.75
G1 Y35.648
G3 X24.75 I0.75
G1 Y57.614
Y71.932 Z-17
Y95.644
G3 X24.002 Y96.398 I-0.75 J0.004
X23.25 Y95.647 I-0.002 J-0.75
G1 Y35.648
G3 X24.75 I0.75
G1 Y57.614
Y71.932
Y86.25 Z-17.5
Y95.644
G3 X24.002 Y96.398 I-0.75 J0.004
X23.25 Y95.647 I-0.002 J-0.75
G1 Y35.648
G3 X24.75 I0.75
G1 Y71.932
Y86.25
Y95.644 Z-17.828
G3 X24.002 Y96.398 Z-17.869 I-0.75 J0.004
X23.25 Y95.647 Z-17.91 I-0.002 J-0.75
G1 Y93.084 Z-18
Y35.648
G3 X24.75 I0.75
G1 Y86.25
Y95.644
G3 X24.002 Y96.398 I-0.75 J0.004
X23.25 Y95.647 I-0.002 J-0.75
G1 Y93.084
Y78.766 Z-18.5
Y35.648
G3 X24.75 I0.75
G1 Y95.644
G3 X24.002 Y96.398 I-0.75 J0.004
X23.25 Y95.647 I-0.002 J-0.75
G1 Y78.766
Y64.448 Z-19
Y35.648
G3 X24.75 I0.75
G1 Y95.644
G3 X24.002 Y96.398 I-0.75 J0.004
X23.25 Y95.647 I-0.002 J-0.75
G1 Y78.766
Y64.448
Y50.129 Z-19.5
Y35.648
G3 X24.75 I0.75
G1 Y95.644
G3 X24.002 Y96.398 I-0.75 J0.004
X23.25 Y95.647 I-0.002 J-0.75
G1 Y64.448
Y50.129
G3 X23.272 Y50.017 Z-19.477 I0.3
X23.322 Y49.935 Z-19.412 I0.278 J0.112
X23.369 Y49.89 Z-19.315 I0.228 J0.195
X23.388 Y49.877 Z-19.2 I0.181 J0.239
G0 Z15
M9
G28 G91 Z0
G28 X0 Y0
M30
%
