%
(1)
(T2  D=3 CR=0 - ZMIN=-20 - flat end mill)
G90 G94
G17
G21
G28 G91 Z0
G90

(Slot1)
M9
T2 M6
S5836 M3
G54
M8
G0 X95.648 Y-24
Z15
Z5
G1 Z2.5 F400
X95.644
X35.648 Z0.75
X95.644 Z-1
X95.648
X95.644
X35.648
X95.644 Z-2
X95.648
X95.644
X35.648
X95.644 Z-3
X95.648
X95.644
X35.648
X95.644 Z-4
X95.648
X95.644
X35.648
X95.644 Z-5
X95.648
X95.644
X35.648
X95.644 Z-6
X95.648
X95.644
X35.648
X95.644 Z-7
X95.648
X95.644
X35.648
X95.644 Z-8
X95.648
X95.644
X35.648
X95.644 Z-9
X95.648
X95.644
X35.648
X95.644 Z-10
X95.648
X95.644
X35.648
X95.644 Z-11
X95.648
X95.644
X35.648
X95.644 Z-12
X95.648
X95.644
X35.648
X95.644 Z-13
X95.648
X95.644
X35.648
X95.644 Z-14
X95.648
X95.644
X35.648
X95.644 Z-15
X95.648
X95.644
X35.648
X95.644 Z-16
X95.648
X95.644
X35.648
X95.644 Z-17
X95.648
X95.644
X35.648
X95.644 Z-18
X95.648
X95.644
X35.648
X95.644 Z-19
X95.648
X95.644
X35.648
X95.644 Z-20
X95.648
X95.644
X35.648
G0 Z15

(2D Pocket2)
M8
X35.69 Y3.395
Z15
Z5
G1 Z-0.7 F400
X35.692 Y3.388 Z-0.767
X35.698 Y3.366 Z-0.83
X35.707 Y3.331 Z-0.887
X35.718 Y3.285 Z-0.935
X35.733 Y3.23 Z-0.97
X35.749 Y3.169 Z-0.992
X35.765 Y3.104 Z-1
X36.209 Y1.397
G2 X36.335 Y0.842 I-9.307 J-2.416
G3 X36.733 Y0.515 I0.397 J0.078
G1 X137.005 Y0.56
G2 X139.321 Y0.276 J-9.561
X139.472 Y0.082 I-0.048 J-0.194
G1 X139.479 Y-48.08
G2 X139.327 Y-48.274 I-0.2
X137.005 Y-48.561 I-2.322 J9.274
G1 X36.737 Y-48.516
G3 X36.34 Y-48.842 J-0.405
G2 X36.217 Y-49.384 I-9.433 J1.862
G1 X36.214 Y-49.395
X36.197 Y-49.46 Z-0.992
X36.181 Y-49.521 Z-0.97
X36.167 Y-49.576 Z-0.935
X36.155 Y-49.622 Z-0.887
X36.146 Y-49.657 Z-0.83
X36.141 Y-49.678 Z-0.767
X36.139 Y-49.686 Z-0.7
G0 Z5
X33.069 Y3.392
G1 Z-0.7 F400
X33.071 Y3.385 Z-0.767
X33.079 Y3.364 Z-0.83
X33.09 Y3.33 Z-0.887
X33.106 Y3.285 Z-0.935
X33.125 Y3.232 Z-0.97
X33.146 Y3.172 Z-0.992
X33.168 Y3.109 Z-1
X33.767 Y1.391
G2 X34.168 Y-1 I-6.768 J-2.363
X34.16 Y-1.265 I-4.238
G3 X34.151 Y-1.529 I4.229 J-0.265
X34.471 Y-1.849 I0.319
G1 X137.005 Y-1.804
G2 X139.399 Y-2.213 J-7.197
X139.532 Y-2.402 I-0.067 J-0.189
G1 X139.528 Y-45.6
G2 X139.395 Y-45.789 I-0.2
X137.005 Y-46.197 I-2.39 J6.788
G1 X34.475 Y-46.152
G3 X34.156 Y-46.471 J-0.319
X34.164 Y-46.736 I4.234
G2 X34.173 Y-47 I-4.226 J-0.264
X33.763 Y-49.394 I-7.197
G1 X33.759 Y-49.405
X33.737 Y-49.468 Z-0.992
X33.716 Y-49.527 Z-0.97
X33.697 Y-49.581 Z-0.935
X33.681 Y-49.626 Z-0.887
X33.669 Y-49.66 Z-0.83
X33.662 Y-49.681 Z-0.767
X33.659 Y-49.688 Z-0.7
G0 Z5
X30.008 Y3.394
G1 Z-0.7 F400
X30.012 Y3.388 Z-0.767
X30.023 Y3.369 Z-0.83
X30.041 Y3.338 Z-0.887
X30.065 Y3.296 Z-0.935
X30.093 Y3.247 Z-0.97
X30.125 Y3.192 Z-0.992
X30.158 Y3.134 Z-1
X31.159 Y1.395
G2 X31.8 Y-1 I-4.16 J-2.395
X31.777 Y-2.412 I-44.287
G3 X31.755 Y-3.823 I44.264 J-1.412
X32.177 Y-4.245 I0.422
G1 X137.005 Y-4.2
G2 X139.4 Y-4.84 J-4.8
X139.5 Y-5.014 I-0.1 J-0.173
G1 X139.501 Y-42.986
G2 X139.4 Y-43.16 I-0.2
X137.005 Y-43.8 I-2.395 J4.16
G1 X32.182 Y-43.755
G3 X31.76 Y-44.177 J-0.422
X31.782 Y-45.589 I44.274
G2 X31.805 Y-47 I-44.252 J-1.411
X31.164 Y-49.395 I-4.8
X27.98 Y-50.038 I-1.875 J1.079
G3 X24.901 Y-49 I-3.079 J-4.048
G1 X4.006
G2 X-1 Y-44 I-0.006 J5
G1 Y-4
G2 X4 Y1 I5
G1 X27
G2 X29 Y-1 J-2
G1 Y-4
G3 X32 Y-7 I3 J-0.001
G1 X106.005
X137.005
G2 X139.005 Y-9 J-2
G1 Y-39
G2 X137.005 Y-41 I-2
G1 X32.005
G3 X29.004 Y-44 J-3
G1 Y-47
G2 X27.004 Y-49 I-2
G1 X24.901
G3 X24.809 Y-49.015 J-0.3
G1 X23.382 Y-49.478
X23.319 Y-49.499 Z-0.992
X23.258 Y-49.518 Z-0.97
X23.204 Y-49.536 Z-0.935
X23.159 Y-49.551 Z-0.887
X23.125 Y-49.562 Z-0.83
X23.104 Y-49.569 Z-0.767
X23.097 Y-49.571 Z-0.7
G0 Z5
X35.69 Y3.395
G1 Z-1.7 F400
X35.692 Y3.388 Z-1.767
X35.698 Y3.366 Z-1.83
X35.707 Y3.331 Z-1.887
X35.718 Y3.285 Z-1.935
X35.733 Y3.23 Z-1.97
X35.749 Y3.169 Z-1.992
X35.765 Y3.104 Z-2
X36.209 Y1.397
G2 X36.335 Y0.842 I-9.307 J-2.416
G3 X36.733 Y0.515 I0.397 J0.078
G1 X137.005 Y0.56
G2 X139.321 Y0.276 J-9.561
X139.472 Y0.082 I-0.048 J-0.194
G1 X139.479 Y-48.08
G2 X139.327 Y-48.274 I-0.2
X137.005 Y-48.561 I-2.322 J9.274
G1 X36.737 Y-48.516
G3 X36.34 Y-48.842 J-0.405
G2 X36.217 Y-49.384 I-9.433 J1.862
G1 X36.214 Y-49.395
X36.197 Y-49.46 Z-1.992
X36.181 Y-49.521 Z-1.97
X36.167 Y-49.576 Z-1.935
X36.155 Y-49.622 Z-1.887
X36.146 Y-49.657 Z-1.83
X36.141 Y-49.678 Z-1.767
X36.139 Y-49.686 Z-1.7
G0 Z5
X33.069 Y3.392
G1 Z-1.7 F400
X33.071 Y3.385 Z-1.767
X33.079 Y3.364 Z-1.83
X33.09 Y3.33 Z-1.887
X33.106 Y3.285 Z-1.935
X33.125 Y3.232 Z-1.97
X33.146 Y3.172 Z-1.992
X33.168 Y3.109 Z-2
X33.767 Y1.391
G2 X34.168 Y-1 I-6.768 J-2.363
X34.16 Y-1.265 I-4.238
G3 X34.151 Y-1.529 I4.229 J-0.265
X34.471 Y-1.849 I0.319
G1 X137.005 Y-1.804
G2 X139.399 Y-2.213 J-7.197
X139.532 Y-2.402 I-0.067 J-0.189
G1 X139.528 Y-45.6
G2 X139.395 Y-45.789 I-0.2
X137.005 Y-46.197 I-2.39 J6.788
G1 X34.475 Y-46.152
G3 X34.156 Y-46.471 J-0.319
X34.164 Y-46.736 I4.234
G2 X34.173 Y-47 I-4.226 J-0.264
X33.763 Y-49.394 I-7.197
G1 X33.759 Y-49.405
X33.737 Y-49.468 Z-1.992
X33.716 Y-49.527 Z-1.97
X33.697 Y-49.581 Z-1.935
X33.681 Y-49.626 Z-1.887
X33.669 Y-49.66 Z-1.83
X33.662 Y-49.681 Z-1.767
X33.659 Y-49.688 Z-1.7
G0 Z5
X30.008 Y3.394
G1 Z-1.7 F400
X30.012 Y3.388 Z-1.767
X30.023 Y3.369 Z-1.83
X30.041 Y3.338 Z-1.887
X30.065 Y3.296 Z-1.935
X30.093 Y3.247 Z-1.97
X30.125 Y3.192 Z-1.992
X30.158 Y3.134 Z-2
X31.159 Y1.395
G2 X31.8 Y-1 I-4.16 J-2.395
X31.777 Y-2.412 I-44.287
G3 X31.755 Y-3.823 I44.264 J-1.412
X32.177 Y-4.245 I0.422
G1 X137.005 Y-4.2
G2 X139.4 Y-4.84 J-4.8
X139.5 Y-5.014 I-0.1 J-0.173
G1 X139.501 Y-42.986
G2 X139.4 Y-43.16 I-0.2
X137.005 Y-43.8 I-2.395 J4.16
G1 X32.182 Y-43.755
G3 X31.76 Y-44.177 J-0.422
X31.782 Y-45.589 I44.274
G2 X31.805 Y-47 I-44.252 J-1.411
X31.164 Y-49.395 I-4.8
X27.98 Y-50.038 I-1.875 J1.079
G3 X24.901 Y-49 I-3.079 J-4.048
G1 X4.006
G2 X-1 Y-44 I-0.006 J5
G1 Y-4
G2 X4 Y1 I5
G1 X27
G2 X29 Y-1 J-2
G1 Y-4
G3 X32 Y-7 I3 J-0.001
G1 X106.005
X137.005
G2 X139.005 Y-9 J-2
G1 Y-39
G2 X137.005 Y-41 I-2
G1 X32.005
G3 X29.004 Y-44 J-3
G1 Y-47
G2 X27.004 Y-49 I-2
G1 X24.901
G3 X24.809 Y-49.015 J-0.3
G1 X23.382 Y-49.478
X23.319 Y-49.499 Z-1.992
X23.258 Y-49.518 Z-1.97
X23.204 Y-49.536 Z-1.935
X23.159 Y-49.551 Z-1.887
X23.125 Y-49.562 Z-1.83
X23.104 Y-49.569 Z-1.767
X23.097 Y-49.571 Z-1.7
G0 Z5
X35.69 Y3.395
G1 Z-2.7 F400
X35.692 Y3.388 Z-2.767
X35.698 Y3.366 Z-2.83
X35.707 Y3.331 Z-2.887
X35.718 Y3.285 Z-2.935
X35.733 Y3.23 Z-2.97
X35.749 Y3.169 Z-2.992
X35.765 Y3.104 Z-3
X36.209 Y1.397
G2 X36.335 Y0.842 I-9.307 J-2.416
G3 X36.733 Y0.515 I0.397 J0.078
G1 X137.005 Y0.56
G2 X139.321 Y0.276 J-9.561
X139.472 Y0.082 I-0.048 J-0.194
G1 X139.479 Y-48.08
G2 X139.327 Y-48.274 I-0.2
X137.005 Y-48.561 I-2.322 J9.274
G1 X36.737 Y-48.516
G3 X36.34 Y-48.842 J-0.405
G2 X36.217 Y-49.384 I-9.433 J1.862
G1 X36.214 Y-49.395
X36.197 Y-49.46 Z-2.992
X36.181 Y-49.521 Z-2.97
X36.167 Y-49.576 Z-2.935
X36.155 Y-49.622 Z-2.887
X36.146 Y-49.657 Z-2.83
X36.141 Y-49.678 Z-2.767
X36.139 Y-49.686 Z-2.7
G0 Z5
X33.069 Y3.392
G1 Z-2.7 F400
X33.071 Y3.385 Z-2.767
X33.079 Y3.364 Z-2.83
X33.09 Y3.33 Z-2.887
X33.106 Y3.285 Z-2.935
X33.125 Y3.232 Z-2.97
X33.146 Y3.172 Z-2.992
X33.168 Y3.109 Z-3
X33.767 Y1.391
G2 X34.168 Y-1 I-6.768 J-2.363
X34.16 Y-1.265 I-4.238
G3 X34.151 Y-1.529 I4.229 J-0.265
X34.471 Y-1.849 I0.319
G1 X137.005 Y-1.804
G2 X139.399 Y-2.213 J-7.197
X139.532 Y-2.402 I-0.067 J-0.189
G1 X139.528 Y-45.6
G2 X139.395 Y-45.789 I-0.2
X137.005 Y-46.197 I-2.39 J6.788
G1 X34.475 Y-46.152
G3 X34.156 Y-46.471 J-0.319
X34.164 Y-46.736 I4.234
G2 X34.173 Y-47 I-4.226 J-0.264
X33.763 Y-49.394 I-7.197
G1 X33.759 Y-49.405
X33.737 Y-49.468 Z-2.992
X33.716 Y-49.527 Z-2.97
X33.697 Y-49.581 Z-2.935
X33.681 Y-49.626 Z-2.887
X33.669 Y-49.66 Z-2.83
X33.662 Y-49.681 Z-2.767
X33.659 Y-49.688 Z-2.7
G0 Z5
X30.008 Y3.394
G1 Z-2.7 F400
X30.012 Y3.388 Z-2.767
X30.023 Y3.369 Z-2.83
X30.041 Y3.338 Z-2.887
X30.065 Y3.296 Z-2.935
X30.093 Y3.247 Z-2.97
X30.125 Y3.192 Z-2.992
X30.158 Y3.134 Z-3
X31.159 Y1.395
G2 X31.8 Y-1 I-4.16 J-2.395
X31.777 Y-2.412 I-44.287
G3 X31.755 Y-3.823 I44.264 J-1.412
X32.177 Y-4.245 I0.422
G1 X137.005 Y-4.2
G2 X139.4 Y-4.84 J-4.8
X139.5 Y-5.014 I-0.1 J-0.173
G1 X139.501 Y-42.986
G2 X139.4 Y-43.16 I-0.2
X137.005 Y-43.8 I-2.395 J4.16
G1 X32.182 Y-43.755
G3 X31.76 Y-44.177 J-0.422
X31.782 Y-45.589 I44.274
G2 X31.805 Y-47 I-44.252 J-1.411
X31.164 Y-49.395 I-4.8
X27.98 Y-50.038 I-1.875 J1.079
G3 X24.901 Y-49 I-3.079 J-4.048
G1 X4.006
G2 X-1 Y-44 I-0.006 J5
G1 Y-4
G2 X4 Y1 I5
G1 X27
G2 X29 Y-1 J-2
G1 Y-4
G3 X32 Y-7 I3 J-0.001
G1 X106.005
X137.005
G2 X139.005 Y-9 J-2
G1 Y-39
G2 X137.005 Y-41 I-2
G1 X32.005
G3 X29.004 Y-44 J-3
G1 Y-47
G2 X27.004 Y-49 I-2
G1 X24.901
G3 X24.809 Y-49.015 J-0.3
G1 X23.382 Y-49.478
X23.319 Y-49.499 Z-2.992
X23.258 Y-49.518 Z-2.97
X23.204 Y-49.536 Z-2.935
X23.159 Y-49.551 Z-2.887
X23.125 Y-49.562 Z-2.83
X23.104 Y-49.569 Z-2.767
X23.097 Y-49.571 Z-2.7
G0 Z5
X35.69 Y3.395
G1 Z-3.7 F400
X35.692 Y3.388 Z-3.767
X35.698 Y3.366 Z-3.83
X35.707 Y3.331 Z-3.887
X35.718 Y3.285 Z-3.935
X35.733 Y3.23 Z-3.97
X35.749 Y3.169 Z-3.992
X35.765 Y3.104 Z-4
X36.209 Y1.397
G2 X36.335 Y0.842 I-9.307 J-2.416
G3 X36.733 Y0.515 I0.397 J0.078
G1 X137.005 Y0.56
G2 X139.321 Y0.276 J-9.561
X139.472 Y0.082 I-0.048 J-0.194
G1 X139.479 Y-48.08
G2 X139.327 Y-48.274 I-0.2
X137.005 Y-48.561 I-2.322 J9.274
G1 X36.737 Y-48.516
G3 X36.34 Y-48.842 J-0.405
G2 X36.217 Y-49.384 I-9.433 J1.862
G1 X36.214 Y-49.395
X36.197 Y-49.46 Z-3.992
X36.181 Y-49.521 Z-3.97
X36.167 Y-49.576 Z-3.935
X36.155 Y-49.622 Z-3.887
X36.146 Y-49.657 Z-3.83
X36.141 Y-49.678 Z-3.767
X36.139 Y-49.686 Z-3.7
G0 Z5
X33.069 Y3.392
G1 Z-3.7 F400
X33.071 Y3.385 Z-3.767
X33.079 Y3.364 Z-3.83
X33.09 Y3.33 Z-3.887
X33.106 Y3.285 Z-3.935
X33.125 Y3.232 Z-3.97
X33.146 Y3.172 Z-3.992
X33.168 Y3.109 Z-4
X33.767 Y1.391
G2 X34.168 Y-1 I-6.768 J-2.363
X34.16 Y-1.265 I-4.238
G3 X34.151 Y-1.529 I4.229 J-0.265
X34.471 Y-1.849 I0.319
G1 X137.005 Y-1.804
G2 X139.399 Y-2.213 J-7.197
X139.532 Y-2.402 I-0.067 J-0.189
G1 X139.528 Y-45.6
G2 X139.395 Y-45.789 I-0.2
X137.005 Y-46.197 I-2.39 J6.788
G1 X34.475 Y-46.152
G3 X34.156 Y-46.471 J-0.319
X34.164 Y-46.736 I4.234
G2 X34.173 Y-47 I-4.226 J-0.264
X33.763 Y-49.394 I-7.197
G1 X33.759 Y-49.405
X33.737 Y-49.468 Z-3.992
X33.716 Y-49.527 Z-3.97
X33.697 Y-49.581 Z-3.935
X33.681 Y-49.626 Z-3.887
X33.669 Y-49.66 Z-3.83
X33.662 Y-49.681 Z-3.767
X33.659 Y-49.688 Z-3.7
G0 Z5
X30.008 Y3.394
G1 Z-3.7 F400
X30.012 Y3.388 Z-3.767
X30.023 Y3.369 Z-3.83
X30.041 Y3.338 Z-3.887
X30.065 Y3.296 Z-3.935
X30.093 Y3.247 Z-3.97
X30.125 Y3.192 Z-3.992
X30.158 Y3.134 Z-4
X31.159 Y1.395
G2 X31.8 Y-1 I-4.16 J-2.395
X31.777 Y-2.412 I-44.287
G3 X31.755 Y-3.823 I44.264 J-1.412
X32.177 Y-4.245 I0.422
G1 X137.005 Y-4.2
G2 X139.4 Y-4.84 J-4.8
X139.5 Y-5.014 I-0.1 J-0.173
G1 X139.501 Y-42.986
G2 X139.4 Y-43.16 I-0.2
X137.005 Y-43.8 I-2.395 J4.16
G1 X32.182 Y-43.755
G3 X31.76 Y-44.177 J-0.422
X31.782 Y-45.589 I44.274
G2 X31.805 Y-47 I-44.252 J-1.411
X31.164 Y-49.395 I-4.8
X27.98 Y-50.038 I-1.875 J1.079
G3 X24.901 Y-49 I-3.079 J-4.048
G1 X4.006
G2 X-1 Y-44 I-0.006 J5
G1 Y-4
G2 X4 Y1 I5
G1 X27
G2 X29 Y-1 J-2
G1 Y-4
G3 X32 Y-7 I3 J-0.001
G1 X106.005
X137.005
G2 X139.005 Y-9 J-2
G1 Y-39
G2 X137.005 Y-41 I-2
G1 X32.005
G3 X29.004 Y-44 J-3
G1 Y-47
G2 X27.004 Y-49 I-2
G1 X24.901
G3 X24.809 Y-49.015 J-0.3
G1 X23.382 Y-49.478
X23.319 Y-49.499 Z-3.992
X23.258 Y-49.518 Z-3.97
X23.204 Y-49.536 Z-3.935
X23.159 Y-49.551 Z-3.887
X23.125 Y-49.562 Z-3.83
X23.104 Y-49.569 Z-3.767
X23.097 Y-49.571 Z-3.7
G0 Z5
X35.69 Y3.395
G1 Z-4.7 F400
X35.692 Y3.388 Z-4.767
X35.698 Y3.366 Z-4.83
X35.707 Y3.331 Z-4.887
X35.718 Y3.285 Z-4.935
X35.733 Y3.23 Z-4.97
X35.749 Y3.169 Z-4.992
X35.765 Y3.104 Z-5
X36.209 Y1.397
G2 X36.335 Y0.842 I-9.307 J-2.416
G3 X36.733 Y0.515 I0.397 J0.078
G1 X137.005 Y0.56
G2 X139.321 Y0.276 J-9.561
X139.472 Y0.082 I-0.048 J-0.194
G1 X139.479 Y-48.08
G2 X139.327 Y-48.274 I-0.2
X137.005 Y-48.561 I-2.322 J9.274
G1 X36.737 Y-48.516
G3 X36.34 Y-48.842 J-0.405
G2 X36.217 Y-49.384 I-9.433 J1.862
G1 X36.214 Y-49.395
X36.197 Y-49.46 Z-4.992
X36.181 Y-49.521 Z-4.97
X36.167 Y-49.576 Z-4.935
X36.155 Y-49.622 Z-4.887
X36.146 Y-49.657 Z-4.83
X36.141 Y-49.678 Z-4.767
X36.139 Y-49.686 Z-4.7
G0 Z5
X33.069 Y3.392
G1 Z-4.7 F400
X33.071 Y3.385 Z-4.767
X33.079 Y3.364 Z-4.83
X33.09 Y3.33 Z-4.887
X33.106 Y3.285 Z-4.935
X33.125 Y3.232 Z-4.97
X33.146 Y3.172 Z-4.992
X33.168 Y3.109 Z-5
X33.767 Y1.391
G2 X34.168 Y-1 I-6.768 J-2.363
X34.16 Y-1.265 I-4.238
G3 X34.151 Y-1.529 I4.229 J-0.265
X34.471 Y-1.849 I0.319
G1 X137.005 Y-1.804
G2 X139.399 Y-2.213 J-7.197
X139.532 Y-2.402 I-0.067 J-0.189
G1 X139.528 Y-45.6
G2 X139.395 Y-45.789 I-0.2
X137.005 Y-46.197 I-2.39 J6.788
G1 X34.475 Y-46.152
G3 X34.156 Y-46.471 J-0.319
X34.164 Y-46.736 I4.234
G2 X34.173 Y-47 I-4.226 J-0.264
X33.763 Y-49.394 I-7.197
G1 X33.759 Y-49.405
X33.737 Y-49.468 Z-4.992
X33.716 Y-49.527 Z-4.97
X33.697 Y-49.581 Z-4.935
X33.681 Y-49.626 Z-4.887
X33.669 Y-49.66 Z-4.83
X33.662 Y-49.681 Z-4.767
X33.659 Y-49.688 Z-4.7
G0 Z5
X30.008 Y3.394
G1 Z-4.7 F400
X30.012 Y3.388 Z-4.767
X30.023 Y3.369 Z-4.83
X30.041 Y3.338 Z-4.887
X30.065 Y3.296 Z-4.935
X30.093 Y3.247 Z-4.97
X30.125 Y3.192 Z-4.992
X30.158 Y3.134 Z-5
X31.159 Y1.395
G2 X31.8 Y-1 I-4.16 J-2.395
X31.777 Y-2.412 I-44.287
G3 X31.755 Y-3.823 I44.264 J-1.412
X32.177 Y-4.245 I0.422
G1 X137.005 Y-4.2
G2 X139.4 Y-4.84 J-4.8
X139.5 Y-5.014 I-0.1 J-0.173
G1 X139.501 Y-42.986
G2 X139.4 Y-43.16 I-0.2
X137.005 Y-43.8 I-2.395 J4.16
G1 X32.182 Y-43.755
G3 X31.76 Y-44.177 J-0.422
X31.782 Y-45.589 I44.274
G2 X31.805 Y-47 I-44.252 J-1.411
X31.164 Y-49.395 I-4.8
X27.98 Y-50.038 I-1.875 J1.079
G3 X24.901 Y-49 I-3.079 J-4.048
G1 X4.006
G2 X-1 Y-44 I-0.006 J5
G1 Y-4
G2 X4 Y1 I5
G1 X27
G2 X29 Y-1 J-2
G1 Y-4
G3 X32 Y-7 I3 J-0.001
G1 X106.005
X137.005
G2 X139.005 Y-9 J-2
G1 Y-39
G2 X137.005 Y-41 I-2
G1 X32.005
G3 X29.004 Y-44 J-3
G1 Y-47
G2 X27.004 Y-49 I-2
G1 X24.901
G3 X24.809 Y-49.015 J-0.3
G1 X23.382 Y-49.478
X23.319 Y-49.499 Z-4.992
X23.258 Y-49.518 Z-4.97
X23.204 Y-49.536 Z-4.935
X23.159 Y-49.551 Z-4.887
X23.125 Y-49.562 Z-4.83
X23.104 Y-49.569 Z-4.767
X23.097 Y-49.571 Z-4.7
G0 Z5
X35.69 Y3.395
G1 Z-5.7 F400
X35.692 Y3.388 Z-5.767
X35.698 Y3.366 Z-5.83
X35.707 Y3.331 Z-5.887
X35.718 Y3.285 Z-5.935
X35.733 Y3.23 Z-5.97
X35.749 Y3.169 Z-5.992
X35.765 Y3.104 Z-6
X36.209 Y1.397
G2 X36.335 Y0.842 I-9.307 J-2.416
G3 X36.733 Y0.515 I0.397 J0.078
G1 X137.005 Y0.56
G2 X139.321 Y0.276 J-9.561
X139.472 Y0.082 I-0.048 J-0.194
G1 X139.479 Y-48.08
G2 X139.327 Y-48.274 I-0.2
X137.005 Y-48.561 I-2.322 J9.274
G1 X36.737 Y-48.516
G3 X36.34 Y-48.842 J-0.405
G2 X36.217 Y-49.384 I-9.433 J1.862
G1 X36.214 Y-49.395
X36.197 Y-49.46 Z-5.992
X36.181 Y-49.521 Z-5.97
X36.167 Y-49.576 Z-5.935
X36.155 Y-49.622 Z-5.887
X36.146 Y-49.657 Z-5.83
X36.141 Y-49.678 Z-5.767
X36.139 Y-49.686 Z-5.7
G0 Z5
X33.069 Y3.392
G1 Z-5.7 F400
X33.071 Y3.385 Z-5.767
X33.079 Y3.364 Z-5.83
X33.09 Y3.33 Z-5.887
X33.106 Y3.285 Z-5.935
X33.125 Y3.232 Z-5.97
X33.146 Y3.172 Z-5.992
X33.168 Y3.109 Z-6
X33.767 Y1.391
G2 X34.168 Y-1 I-6.768 J-2.363
X34.16 Y-1.265 I-4.238
G3 X34.151 Y-1.529 I4.229 J-0.265
X34.471 Y-1.849 I0.319
G1 X137.005 Y-1.804
G2 X139.399 Y-2.213 J-7.197
X139.532 Y-2.402 I-0.067 J-0.189
G1 X139.528 Y-45.6
G2 X139.395 Y-45.789 I-0.2
X137.005 Y-46.197 I-2.39 J6.788
G1 X34.475 Y-46.152
G3 X34.156 Y-46.471 J-0.319
X34.164 Y-46.736 I4.234
G2 X34.173 Y-47 I-4.226 J-0.264
X33.763 Y-49.394 I-7.197
G1 X33.759 Y-49.405
X33.737 Y-49.468 Z-5.992
X33.716 Y-49.527 Z-5.97
X33.697 Y-49.581 Z-5.935
X33.681 Y-49.626 Z-5.887
X33.669 Y-49.66 Z-5.83
X33.662 Y-49.681 Z-5.767
X33.659 Y-49.688 Z-5.7
G0 Z5
X30.008 Y3.394
G1 Z-5.7 F400
X30.012 Y3.388 Z-5.767
X30.023 Y3.369 Z-5.83
X30.041 Y3.338 Z-5.887
X30.065 Y3.296 Z-5.935
X30.093 Y3.247 Z-5.97
X30.125 Y3.192 Z-5.992
X30.158 Y3.134 Z-6
X31.159 Y1.395
G2 X31.8 Y-1 I-4.16 J-2.395
X31.777 Y-2.412 I-44.287
G3 X31.755 Y-3.823 I44.264 J-1.412
X32.177 Y-4.245 I0.422
G1 X137.005 Y-4.2
G2 X139.4 Y-4.84 J-4.8
X139.5 Y-5.014 I-0.1 J-0.173
G1 X139.501 Y-42.986
G2 X139.4 Y-43.16 I-0.2
X137.005 Y-43.8 I-2.395 J4.16
G1 X32.182 Y-43.755
G3 X31.76 Y-44.177 J-0.422
X31.782 Y-45.589 I44.274
G2 X31.805 Y-47 I-44.252 J-1.411
X31.164 Y-49.395 I-4.8
X27.98 Y-50.038 I-1.875 J1.079
G3 X24.901 Y-49 I-3.079 J-4.048
G1 X4.006
G2 X-1 Y-44 I-0.006 J5
G1 Y-4
G2 X4 Y1 I5
G1 X27
G2 X29 Y-1 J-2
G1 Y-4
G3 X32 Y-7 I3 J-0.001
G1 X106.005
X137.005
G2 X139.005 Y-9 J-2
G1 Y-39
G2 X137.005 Y-41 I-2
G1 X32.005
G3 X29.004 Y-44 J-3
G1 Y-47
G2 X27.004 Y-49 I-2
G1 X24.901
G3 X24.809 Y-49.015 J-0.3
G1 X23.382 Y-49.478
X23.319 Y-49.499 Z-5.992
X23.258 Y-49.518 Z-5.97
X23.204 Y-49.536 Z-5.935
X23.159 Y-49.551 Z-5.887
X23.125 Y-49.562 Z-5.83
X23.104 Y-49.569 Z-5.767
X23.097 Y-49.571 Z-5.7
G0 Z5
X35.69 Y3.395
G1 Z-6.7 F400
X35.692 Y3.388 Z-6.767
X35.698 Y3.366 Z-6.83
X35.707 Y3.331 Z-6.887
X35.718 Y3.285 Z-6.935
X35.733 Y3.23 Z-6.97
X35.749 Y3.169 Z-6.992
X35.765 Y3.104 Z-7
X36.209 Y1.397
G2 X36.335 Y0.842 I-9.307 J-2.416
G3 X36.733 Y0.515 I0.397 J0.078
G1 X137.005 Y0.56
G2 X139.321 Y0.276 J-9.561
X139.472 Y0.082 I-0.048 J-0.194
G1 X139.479 Y-48.08
G2 X139.327 Y-48.274 I-0.2
X137.005 Y-48.561 I-2.322 J9.274
G1 X36.737 Y-48.516
G3 X36.34 Y-48.842 J-0.405
G2 X36.217 Y-49.384 I-9.433 J1.862
G1 X36.214 Y-49.395
X36.197 Y-49.46 Z-6.992
X36.181 Y-49.521 Z-6.97
X36.167 Y-49.576 Z-6.935
X36.155 Y-49.622 Z-6.887
X36.146 Y-49.657 Z-6.83
X36.141 Y-49.678 Z-6.767
X36.139 Y-49.686 Z-6.7
G0 Z5
X33.069 Y3.392
G1 Z-6.7 F400
X33.071 Y3.385 Z-6.767
X33.079 Y3.364 Z-6.83
X33.09 Y3.33 Z-6.887
X33.106 Y3.285 Z-6.935
X33.125 Y3.232 Z-6.97
X33.146 Y3.172 Z-6.992
X33.168 Y3.109 Z-7
X33.767 Y1.391
G2 X34.168 Y-1 I-6.768 J-2.363
X34.16 Y-1.265 I-4.238
G3 X34.151 Y-1.529 I4.229 J-0.265
X34.471 Y-1.849 I0.319
G1 X137.005 Y-1.804
G2 X139.399 Y-2.213 J-7.197
X139.532 Y-2.402 I-0.067 J-0.189
G1 X139.528 Y-45.6
G2 X139.395 Y-45.789 I-0.2
X137.005 Y-46.197 I-2.39 J6.788
G1 X34.475 Y-46.152
G3 X34.156 Y-46.471 J-0.319
X34.164 Y-46.736 I4.234
G2 X34.173 Y-47 I-4.226 J-0.264
X33.763 Y-49.394 I-7.197
G1 X33.759 Y-49.405
X33.737 Y-49.468 Z-6.992
X33.716 Y-49.527 Z-6.97
X33.697 Y-49.581 Z-6.935
X33.681 Y-49.626 Z-6.887
X33.669 Y-49.66 Z-6.83
X33.662 Y-49.681 Z-6.767
X33.659 Y-49.688 Z-6.7
G0 Z5
X30.008 Y3.394
G1 Z-6.7 F400
X30.012 Y3.388 Z-6.767
X30.023 Y3.369 Z-6.83
X30.041 Y3.338 Z-6.887
X30.065 Y3.296 Z-6.935
X30.093 Y3.247 Z-6.97
X30.125 Y3.192 Z-6.992
X30.158 Y3.134 Z-7
X31.159 Y1.395
G2 X31.8 Y-1 I-4.16 J-2.395
X31.777 Y-2.412 I-44.287
G3 X31.755 Y-3.823 I44.264 J-1.412
X32.177 Y-4.245 I0.422
G1 X137.005 Y-4.2
G2 X139.4 Y-4.84 J-4.8
X139.5 Y-5.014 I-0.1 J-0.173
G1 X139.501 Y-42.986
G2 X139.4 Y-43.16 I-0.2
X137.005 Y-43.8 I-2.395 J4.16
G1 X32.182 Y-43.755
G3 X31.76 Y-44.177 J-0.422
X31.782 Y-45.589 I44.274
G2 X31.805 Y-47 I-44.252 J-1.411
X31.164 Y-49.395 I-4.8
X27.98 Y-50.038 I-1.875 J1.079
G3 X24.901 Y-49 I-3.079 J-4.048
G1 X4.006
G2 X-1 Y-44 I-0.006 J5
G1 Y-4
G2 X4 Y1 I5
G1 X27
G2 X29 Y-1 J-2
G1 Y-4
G3 X32 Y-7 I3 J-0.001
G1 X106.005
X137.005
G2 X139.005 Y-9 J-2
G1 Y-39
G2 X137.005 Y-41 I-2
G1 X32.005
G3 X29.004 Y-44 J-3
G1 Y-47
G2 X27.004 Y-49 I-2
G1 X24.901
G3 X24.809 Y-49.015 J-0.3
G1 X23.382 Y-49.478
X23.319 Y-49.499 Z-6.992
X23.258 Y-49.518 Z-6.97
X23.204 Y-49.536 Z-6.935
X23.159 Y-49.551 Z-6.887
X23.125 Y-49.562 Z-6.83
X23.104 Y-49.569 Z-6.767
X23.097 Y-49.571 Z-6.7
G0 Z5
X35.69 Y3.395
G1 Z-7.7 F400
X35.692 Y3.388 Z-7.767
X35.698 Y3.366 Z-7.83
X35.707 Y3.331 Z-7.887
X35.718 Y3.285 Z-7.935
X35.733 Y3.23 Z-7.97
X35.749 Y3.169 Z-7.992
X35.765 Y3.104 Z-8
X36.209 Y1.397
G2 X36.335 Y0.842 I-9.307 J-2.416
G3 X36.733 Y0.515 I0.397 J0.078
G1 X137.005 Y0.56
G2 X139.321 Y0.276 J-9.561
X139.472 Y0.082 I-0.048 J-0.194
G1 X139.479 Y-48.08
G2 X139.327 Y-48.274 I-0.2
X137.005 Y-48.561 I-2.322 J9.274
G1 X36.737 Y-48.516
G3 X36.34 Y-48.842 J-0.405
G2 X36.217 Y-49.384 I-9.433 J1.862
G1 X36.214 Y-49.395
X36.197 Y-49.46 Z-7.992
X36.181 Y-49.521 Z-7.97
X36.167 Y-49.576 Z-7.935
X36.155 Y-49.622 Z-7.887
X36.146 Y-49.657 Z-7.83
X36.141 Y-49.678 Z-7.767
X36.139 Y-49.686 Z-7.7
G0 Z5
X33.069 Y3.392
G1 Z-7.7 F400
X33.071 Y3.385 Z-7.767
X33.079 Y3.364 Z-7.83
X33.09 Y3.33 Z-7.887
X33.106 Y3.285 Z-7.935
X33.125 Y3.232 Z-7.97
X33.146 Y3.172 Z-7.992
X33.168 Y3.109 Z-8
X33.767 Y1.391
G2 X34.168 Y-1 I-6.768 J-2.363
X34.16 Y-1.265 I-4.238
G3 X34.151 Y-1.529 I4.229 J-0.265
X34.471 Y-1.849 I0.319
G1 X137.005 Y-1.804
G2 X139.399 Y-2.213 J-7.197
X139.532 Y-2.402 I-0.067 J-0.189
G1 X139.528 Y-45.6
G2 X139.395 Y-45.789 I-0.2
X137.005 Y-46.197 I-2.39 J6.788
G1 X34.475 Y-46.152
G3 X34.156 Y-46.471 J-0.319
X34.164 Y-46.736 I4.234
G2 X34.173 Y-47 I-4.226 J-0.264
X33.763 Y-49.394 I-7.197
G1 X33.759 Y-49.405
X33.737 Y-49.468 Z-7.992
X33.716 Y-49.527 Z-7.97
X33.697 Y-49.581 Z-7.935
X33.681 Y-49.626 Z-7.887
X33.669 Y-49.66 Z-7.83
X33.662 Y-49.681 Z-7.767
X33.659 Y-49.688 Z-7.7
G0 Z5
X30.008 Y3.394
G1 Z-7.7 F400
X30.012 Y3.388 Z-7.767
X30.023 Y3.369 Z-7.83
X30.041 Y3.338 Z-7.887
X30.065 Y3.296 Z-7.935
X30.093 Y3.247 Z-7.97
X30.125 Y3.192 Z-7.992
X30.158 Y3.134 Z-8
X31.159 Y1.395
G2 X31.8 Y-1 I-4.16 J-2.395
X31.777 Y-2.412 I-44.287
G3 X31.755 Y-3.823 I44.264 J-1.412
X32.177 Y-4.245 I0.422
G1 X137.005 Y-4.2
G2 X139.4 Y-4.84 J-4.8
X139.5 Y-5.014 I-0.1 J-0.173
G1 X139.501 Y-42.986
G2 X139.4 Y-43.16 I-0.2
X137.005 Y-43.8 I-2.395 J4.16
G1 X32.182 Y-43.755
G3 X31.76 Y-44.177 J-0.422
X31.782 Y-45.589 I44.274
G2 X31.805 Y-47 I-44.252 J-1.411
X31.164 Y-49.395 I-4.8
X27.98 Y-50.038 I-1.875 J1.079
G3 X24.901 Y-49 I-3.079 J-4.048
G1 X4.006
G2 X-1 Y-44 I-0.006 J5
G1 Y-4
G2 X4 Y1 I5
G1 X27
G2 X29 Y-1 J-2
G1 Y-4
G3 X32 Y-7 I3 J-0.001
G1 X106.005
X137.005
G2 X139.005 Y-9 J-2
G1 Y-39
G2 X137.005 Y-41 I-2
G1 X32.005
G3 X29.004 Y-44 J-3
G1 Y-47
G2 X27.004 Y-49 I-2
G1 X24.901
G3 X24.809 Y-49.015 J-0.3
G1 X23.382 Y-49.478
X23.319 Y-49.499 Z-7.992
X23.258 Y-49.518 Z-7.97
X23.204 Y-49.536 Z-7.935
X23.159 Y-49.551 Z-7.887
X23.125 Y-49.562 Z-7.83
X23.104 Y-49.569 Z-7.767
X23.097 Y-49.571 Z-7.7
G0 Z5
X35.69 Y3.395
G1 Z-8.7 F400
X35.692 Y3.388 Z-8.767
X35.698 Y3.366 Z-8.83
X35.707 Y3.331 Z-8.887
X35.718 Y3.285 Z-8.935
X35.733 Y3.23 Z-8.97
X35.749 Y3.169 Z-8.992
X35.765 Y3.104 Z-9
X36.209 Y1.397
G2 X36.335 Y0.842 I-9.307 J-2.416
G3 X36.733 Y0.515 I0.397 J0.078
G1 X137.005 Y0.56
G2 X139.321 Y0.276 J-9.561
X139.472 Y0.082 I-0.048 J-0.194
G1 X139.479 Y-48.08
G2 X139.327 Y-48.274 I-0.2
X137.005 Y-48.561 I-2.322 J9.274
G1 X36.737 Y-48.516
G3 X36.34 Y-48.842 J-0.405
G2 X36.217 Y-49.384 I-9.433 J1.862
G1 X36.214 Y-49.395
X36.197 Y-49.46 Z-8.992
X36.181 Y-49.521 Z-8.97
X36.167 Y-49.576 Z-8.935
X36.155 Y-49.622 Z-8.887
X36.146 Y-49.657 Z-8.83
X36.141 Y-49.678 Z-8.767
X36.139 Y-49.686 Z-8.7
G0 Z5
X33.069 Y3.392
G1 Z-8.7 F400
X33.071 Y3.385 Z-8.767
X33.079 Y3.364 Z-8.83
X33.09 Y3.33 Z-8.887
X33.106 Y3.285 Z-8.935
X33.125 Y3.232 Z-8.97
X33.146 Y3.172 Z-8.992
X33.168 Y3.109 Z-9
X33.767 Y1.391
G2 X34.168 Y-1 I-6.768 J-2.363
X34.16 Y-1.265 I-4.238
G3 X34.151 Y-1.529 I4.229 J-0.265
X34.471 Y-1.849 I0.319
G1 X137.005 Y-1.804
G2 X139.399 Y-2.213 J-7.197
X139.532 Y-2.402 I-0.067 J-0.189
G1 X139.528 Y-45.6
G2 X139.395 Y-45.789 I-0.2
X137.005 Y-46.197 I-2.39 J6.788
G1 X34.475 Y-46.152
G3 X34.156 Y-46.471 J-0.319
X34.164 Y-46.736 I4.234
G2 X34.173 Y-47 I-4.226 J-0.264
X33.763 Y-49.394 I-7.197
G1 X33.759 Y-49.405
X33.737 Y-49.468 Z-8.992
X33.716 Y-49.527 Z-8.97
X33.697 Y-49.581 Z-8.935
X33.681 Y-49.626 Z-8.887
X33.669 Y-49.66 Z-8.83
X33.662 Y-49.681 Z-8.767
X33.659 Y-49.688 Z-8.7
G0 Z5
X30.008 Y3.394
G1 Z-8.7 F400
X30.012 Y3.388 Z-8.767
X30.023 Y3.369 Z-8.83
X30.041 Y3.338 Z-8.887
X30.065 Y3.296 Z-8.935
X30.093 Y3.247 Z-8.97
X30.125 Y3.192 Z-8.992
X30.158 Y3.134 Z-9
X31.159 Y1.395
G2 X31.8 Y-1 I-4.16 J-2.395
X31.777 Y-2.412 I-44.287
G3 X31.755 Y-3.823 I44.264 J-1.412
X32.177 Y-4.245 I0.422
G1 X137.005 Y-4.2
G2 X139.4 Y-4.84 J-4.8
X139.5 Y-5.014 I-0.1 J-0.173
G1 X139.501 Y-42.986
G2 X139.4 Y-43.16 I-0.2
X137.005 Y-43.8 I-2.395 J4.16
G1 X32.182 Y-43.755
G3 X31.76 Y-44.177 J-0.422
X31.782 Y-45.589 I44.274
G2 X31.805 Y-47 I-44.252 J-1.411
X31.164 Y-49.395 I-4.8
X27.98 Y-50.038 I-1.875 J1.079
G3 X24.901 Y-49 I-3.079 J-4.048
G1 X4.006
G2 X-1 Y-44 I-0.006 J5
G1 Y-4
G2 X4 Y1 I5
G1 X27
G2 X29 Y-1 J-2
G1 Y-4
G3 X32 Y-7 I3 J-0.001
G1 X106.005
X137.005
G2 X139.005 Y-9 J-2
G1 Y-39
G2 X137.005 Y-41 I-2
G1 X32.005
G3 X29.004 Y-44 J-3
G1 Y-47
G2 X27.004 Y-49 I-2
G1 X24.901
G3 X24.809 Y-49.015 J-0.3
G1 X23.382 Y-49.478
X23.319 Y-49.499 Z-8.992
X23.258 Y-49.518 Z-8.97
X23.204 Y-49.536 Z-8.935
X23.159 Y-49.551 Z-8.887
X23.125 Y-49.562 Z-8.83
X23.104 Y-49.569 Z-8.767
X23.097 Y-49.571 Z-8.7
G0 Z5
X35.69 Y3.395
G1 Z-9.7 F400
X35.692 Y3.388 Z-9.767
X35.698 Y3.366 Z-9.83
X35.707 Y3.331 Z-9.887
X35.718 Y3.285 Z-9.935
X35.733 Y3.23 Z-9.97
X35.749 Y3.169 Z-9.992
X35.765 Y3.104 Z-10
X36.209 Y1.397
G2 X36.335 Y0.842 I-9.307 J-2.416
G3 X36.733 Y0.515 I0.397 J0.078
G1 X137.005 Y0.56
G2 X139.321 Y0.276 J-9.561
X139.472 Y0.082 I-0.048 J-0.194
G1 X139.479 Y-48.08
G2 X139.327 Y-48.274 I-0.2
X137.005 Y-48.561 I-2.322 J9.274
G1 X36.737 Y-48.516
G3 X36.34 Y-48.842 J-0.405
G2 X36.217 Y-49.384 I-9.433 J1.862
G1 X36.214 Y-49.395
X36.197 Y-49.46 Z-9.992
X36.181 Y-49.521 Z-9.97
X36.167 Y-49.576 Z-9.935
X36.155 Y-49.622 Z-9.887
X36.146 Y-49.657 Z-9.83
X36.141 Y-49.678 Z-9.767
X36.139 Y-49.686 Z-9.7
G0 Z5
X33.069 Y3.392
G1 Z-9.7 F400
X33.071 Y3.385 Z-9.767
X33.079 Y3.364 Z-9.83
X33.09 Y3.33 Z-9.887
X33.106 Y3.285 Z-9.935
X33.125 Y3.232 Z-9.97
X33.146 Y3.172 Z-9.992
X33.168 Y3.109 Z-10
X33.767 Y1.391
G2 X34.168 Y-1 I-6.768 J-2.363
X34.16 Y-1.265 I-4.238
G3 X34.151 Y-1.529 I4.229 J-0.265
X34.471 Y-1.849 I0.319
G1 X137.005 Y-1.804
G2 X139.399 Y-2.213 J-7.197
X139.532 Y-2.402 I-0.067 J-0.189
G1 X139.528 Y-45.6
G2 X139.395 Y-45.789 I-0.2
X137.005 Y-46.197 I-2.39 J6.788
G1 X34.475 Y-46.152
G3 X34.156 Y-46.471 J-0.319
X34.164 Y-46.736 I4.234
G2 X34.173 Y-47 I-4.226 J-0.264
X33.763 Y-49.394 I-7.197
G1 X33.759 Y-49.405
X33.737 Y-49.468 Z-9.992
X33.716 Y-49.527 Z-9.97
X33.697 Y-49.581 Z-9.935
X33.681 Y-49.626 Z-9.887
X33.669 Y-49.66 Z-9.83
X33.662 Y-49.681 Z-9.767
X33.659 Y-49.688 Z-9.7
G0 Z5
X30.008 Y3.394
G1 Z-9.7 F400
X30.012 Y3.388 Z-9.767
X30.023 Y3.369 Z-9.83
X30.041 Y3.338 Z-9.887
X30.065 Y3.296 Z-9.935
X30.093 Y3.247 Z-9.97
X30.125 Y3.192 Z-9.992
X30.158 Y3.134 Z-10
X31.159 Y1.395
G2 X31.8 Y-1 I-4.16 J-2.395
X31.777 Y-2.412 I-44.287
G3 X31.755 Y-3.823 I44.264 J-1.412
X32.177 Y-4.245 I0.422
G1 X137.005 Y-4.2
G2 X139.4 Y-4.84 J-4.8
X139.5 Y-5.014 I-0.1 J-0.173
G1 X139.501 Y-42.986
G2 X139.4 Y-43.16 I-0.2
X137.005 Y-43.8 I-2.395 J4.16
G1 X32.182 Y-43.755
G3 X31.76 Y-44.177 J-0.422
X31.782 Y-45.589 I44.274
G2 X31.805 Y-47 I-44.252 J-1.411
X31.164 Y-49.395 I-4.8
X27.98 Y-50.038 I-1.875 J1.079
G3 X24.901 Y-49 I-3.079 J-4.048
G1 X4.006
G2 X-1 Y-44 I-0.006 J5
G1 Y-4
G2 X4 Y1 I5
G1 X27
G2 X29 Y-1 J-2
G1 Y-4
G3 X32 Y-7 I3 J-0.001
G1 X106.005
X137.005
G2 X139.005 Y-9 J-2
G1 Y-39
G2 X137.005 Y-41 I-2
G1 X32.005
G3 X29.004 Y-44 J-3
G1 Y-47
G2 X27.004 Y-49 I-2
G1 X24.901
G3 X24.809 Y-49.015 J-0.3
G1 X23.382 Y-49.478
X23.319 Y-49.499 Z-9.992
X23.258 Y-49.518 Z-9.97
X23.204 Y-49.536 Z-9.935
X23.159 Y-49.551 Z-9.887
X23.125 Y-49.562 Z-9.83
X23.104 Y-49.569 Z-9.767
X23.097 Y-49.571 Z-9.7
G0 Z5
X35.69 Y3.395
G1 Z-10.7 F400
X35.692 Y3.388 Z-10.767
X35.698 Y3.366 Z-10.83
X35.707 Y3.331 Z-10.887
X35.718 Y3.285 Z-10.935
X35.733 Y3.23 Z-10.97
X35.749 Y3.169 Z-10.992
X35.765 Y3.104 Z-11
X36.209 Y1.397
G2 X36.335 Y0.842 I-9.307 J-2.416
G3 X36.733 Y0.515 I0.397 J0.078
G1 X137.005 Y0.56
G2 X139.321 Y0.276 J-9.561
X139.472 Y0.082 I-0.048 J-0.194
G1 X139.479 Y-48.08
G2 X139.327 Y-48.274 I-0.2
X137.005 Y-48.561 I-2.322 J9.274
G1 X36.737 Y-48.516
G3 X36.34 Y-48.842 J-0.405
G2 X36.217 Y-49.384 I-9.433 J1.862
G1 X36.214 Y-49.395
X36.197 Y-49.46 Z-10.992
X36.181 Y-49.521 Z-10.97
X36.167 Y-49.576 Z-10.935
X36.155 Y-49.622 Z-10.887
X36.146 Y-49.657 Z-10.83
X36.141 Y-49.678 Z-10.767
X36.139 Y-49.686 Z-10.7
G0 Z5
X33.069 Y3.392
G1 Z-10.7 F400
X33.071 Y3.385 Z-10.767
X33.079 Y3.364 Z-10.83
X33.09 Y3.33 Z-10.887
X33.106 Y3.285 Z-10.935
X33.125 Y3.232 Z-10.97
X33.146 Y3.172 Z-10.992
X33.168 Y3.109 Z-11
X33.767 Y1.391
G2 X34.168 Y-1 I-6.768 J-2.363
X34.16 Y-1.265 I-4.238
G3 X34.151 Y-1.529 I4.229 J-0.265
X34.471 Y-1.849 I0.319
G1 X137.005 Y-1.804
G2 X139.399 Y-2.213 J-7.197
X139.532 Y-2.402 I-0.067 J-0.189
G1 X139.528 Y-45.6
G2 X139.395 Y-45.789 I-0.2
X137.005 Y-46.197 I-2.39 J6.788
G1 X34.475 Y-46.152
G3 X34.156 Y-46.471 J-0.319
X34.164 Y-46.736 I4.234
G2 X34.173 Y-47 I-4.226 J-0.264
X33.763 Y-49.394 I-7.197
G1 X33.759 Y-49.405
X33.737 Y-49.468 Z-10.992
X33.716 Y-49.527 Z-10.97
X33.697 Y-49.581 Z-10.935
X33.681 Y-49.626 Z-10.887
X33.669 Y-49.66 Z-10.83
X33.662 Y-49.681 Z-10.767
X33.659 Y-49.688 Z-10.7
G0 Z5
X30.008 Y3.394
G1 Z-10.7 F400
X30.012 Y3.388 Z-10.767
X30.023 Y3.369 Z-10.83
X30.041 Y3.338 Z-10.887
X30.065 Y3.296 Z-10.935
X30.093 Y3.247 Z-10.97
X30.125 Y3.192 Z-10.992
X30.158 Y3.134 Z-11
X31.159 Y1.395
G2 X31.8 Y-1 I-4.16 J-2.395
X31.777 Y-2.412 I-44.287
G3 X31.755 Y-3.823 I44.264 J-1.412
X32.177 Y-4.245 I0.422
G1 X137.005 Y-4.2
G2 X139.4 Y-4.84 J-4.8
X139.5 Y-5.014 I-0.1 J-0.173
G1 X139.501 Y-42.986
G2 X139.4 Y-43.16 I-0.2
X137.005 Y-43.8 I-2.395 J4.16
G1 X32.182 Y-43.755
G3 X31.76 Y-44.177 J-0.422
X31.782 Y-45.589 I44.274
G2 X31.805 Y-47 I-44.252 J-1.411
X31.164 Y-49.395 I-4.8
X27.98 Y-50.038 I-1.875 J1.079
G3 X24.901 Y-49 I-3.079 J-4.048
G1 X4.006
G2 X-1 Y-44 I-0.006 J5
G1 Y-4
G2 X4 Y1 I5
G1 X27
G2 X29 Y-1 J-2
G1 Y-4
G3 X32 Y-7 I3 J-0.001
G1 X106.005
X137.005
G2 X139.005 Y-9 J-2
G1 Y-39
G2 X137.005 Y-41 I-2
G1 X32.005
G3 X29.004 Y-44 J-3
G1 Y-47
G2 X27.004 Y-49 I-2
G1 X24.901
G3 X24.809 Y-49.015 J-0.3
G1 X23.382 Y-49.478
X23.319 Y-49.499 Z-10.992
X23.258 Y-49.518 Z-10.97
X23.204 Y-49.536 Z-10.935
X23.159 Y-49.551 Z-10.887
X23.125 Y-49.562 Z-10.83
X23.104 Y-49.569 Z-10.767
X23.097 Y-49.571 Z-10.7
G0 Z5
X35.69 Y3.395
G1 Z-11.7 F400
X35.692 Y3.388 Z-11.767
X35.698 Y3.366 Z-11.83
X35.707 Y3.331 Z-11.887
X35.718 Y3.285 Z-11.935
X35.733 Y3.23 Z-11.97
X35.749 Y3.169 Z-11.992
X35.765 Y3.104 Z-12
X36.209 Y1.397
G2 X36.335 Y0.842 I-9.307 J-2.416
G3 X36.733 Y0.515 I0.397 J0.078
G1 X137.005 Y0.56
G2 X139.321 Y0.276 J-9.561
X139.472 Y0.082 I-0.048 J-0.194
G1 X139.479 Y-48.08
G2 X139.327 Y-48.274 I-0.2
X137.005 Y-48.561 I-2.322 J9.274
G1 X36.737 Y-48.516
G3 X36.34 Y-48.842 J-0.405
G2 X36.217 Y-49.384 I-9.433 J1.862
G1 X36.214 Y-49.395
X36.197 Y-49.46 Z-11.992
X36.181 Y-49.521 Z-11.97
X36.167 Y-49.576 Z-11.935
X36.155 Y-49.622 Z-11.887
X36.146 Y-49.657 Z-11.83
X36.141 Y-49.678 Z-11.767
X36.139 Y-49.686 Z-11.7
G0 Z5
X33.069 Y3.392
G1 Z-11.7 F400
X33.071 Y3.385 Z-11.767
X33.079 Y3.364 Z-11.83
X33.09 Y3.33 Z-11.887
X33.106 Y3.285 Z-11.935
X33.125 Y3.232 Z-11.97
X33.146 Y3.172 Z-11.992
X33.168 Y3.109 Z-12
X33.767 Y1.391
G2 X34.168 Y-1 I-6.768 J-2.363
X34.16 Y-1.265 I-4.238
G3 X34.151 Y-1.529 I4.229 J-0.265
X34.471 Y-1.849 I0.319
G1 X137.005 Y-1.804
G2 X139.399 Y-2.213 J-7.197
X139.532 Y-2.402 I-0.067 J-0.189
G1 X139.528 Y-45.6
G2 X139.395 Y-45.789 I-0.2
X137.005 Y-46.197 I-2.39 J6.788
G1 X34.475 Y-46.152
G3 X34.156 Y-46.471 J-0.319
X34.164 Y-46.736 I4.234
G2 X34.173 Y-47 I-4.226 J-0.264
X33.763 Y-49.394 I-7.197
G1 X33.759 Y-49.405
X33.737 Y-49.468 Z-11.992
X33.716 Y-49.527 Z-11.97
X33.697 Y-49.581 Z-11.935
X33.681 Y-49.626 Z-11.887
X33.669 Y-49.66 Z-11.83
X33.662 Y-49.681 Z-11.767
X33.659 Y-49.688 Z-11.7
G0 Z5
X30.008 Y3.394
G1 Z-11.7 F400
X30.012 Y3.388 Z-11.767
X30.023 Y3.369 Z-11.83
X30.041 Y3.338 Z-11.887
X30.065 Y3.296 Z-11.935
X30.093 Y3.247 Z-11.97
X30.125 Y3.192 Z-11.992
X30.158 Y3.134 Z-12
X31.159 Y1.395
G2 X31.8 Y-1 I-4.16 J-2.395
X31.777 Y-2.412 I-44.287
G3 X31.755 Y-3.823 I44.264 J-1.412
X32.177 Y-4.245 I0.422
G1 X137.005 Y-4.2
G2 X139.4 Y-4.84 J-4.8
X139.5 Y-5.014 I-0.1 J-0.173
G1 X139.501 Y-42.986
G2 X139.4 Y-43.16 I-0.2
X137.005 Y-43.8 I-2.395 J4.16
G1 X32.182 Y-43.755
G3 X31.76 Y-44.177 J-0.422
X31.782 Y-45.589 I44.274
G2 X31.805 Y-47 I-44.252 J-1.411
X31.164 Y-49.395 I-4.8
X27.98 Y-50.038 I-1.875 J1.079
G3 X24.901 Y-49 I-3.079 J-4.048
G1 X4.006
G2 X-1 Y-44 I-0.006 J5
G1 Y-4
G2 X4 Y1 I5
G1 X27
G2 X29 Y-1 J-2
G1 Y-4
G3 X32 Y-7 I3 J-0.001
G1 X106.005
X137.005
G2 X139.005 Y-9 J-2
G1 Y-39
G2 X137.005 Y-41 I-2
G1 X32.005
G3 X29.004 Y-44 J-3
G1 Y-47
G2 X27.004 Y-49 I-2
G1 X24.901
G3 X24.809 Y-49.015 J-0.3
G1 X23.382 Y-49.478
X23.319 Y-49.499 Z-11.992
X23.258 Y-49.518 Z-11.97
X23.204 Y-49.536 Z-11.935
X23.159 Y-49.551 Z-11.887
X23.125 Y-49.562 Z-11.83
X23.104 Y-49.569 Z-11.767
X23.097 Y-49.571 Z-11.7
G0 Z5
X35.69 Y3.395
G1 Z-12.7 F400
X35.692 Y3.388 Z-12.767
X35.698 Y3.366 Z-12.83
X35.707 Y3.331 Z-12.887
X35.718 Y3.285 Z-12.935
X35.733 Y3.23 Z-12.97
X35.749 Y3.169 Z-12.992
X35.765 Y3.104 Z-13
X36.209 Y1.397
G2 X36.335 Y0.842 I-9.307 J-2.416
G3 X36.733 Y0.515 I0.397 J0.078
G1 X137.005 Y0.56
G2 X139.321 Y0.276 J-9.561
X139.472 Y0.082 I-0.048 J-0.194
G1 X139.479 Y-48.08
G2 X139.327 Y-48.274 I-0.2
X137.005 Y-48.561 I-2.322 J9.274
G1 X36.737 Y-48.516
G3 X36.34 Y-48.842 J-0.405
G2 X36.217 Y-49.384 I-9.433 J1.862
G1 X36.214 Y-49.395
X36.197 Y-49.46 Z-12.992
X36.181 Y-49.521 Z-12.97
X36.167 Y-49.576 Z-12.935
X36.155 Y-49.622 Z-12.887
X36.146 Y-49.657 Z-12.83
X36.141 Y-49.678 Z-12.767
X36.139 Y-49.686 Z-12.7
G0 Z5
X33.069 Y3.392
G1 Z-12.7 F400
X33.071 Y3.385 Z-12.767
X33.079 Y3.364 Z-12.83
X33.09 Y3.33 Z-12.887
X33.106 Y3.285 Z-12.935
X33.125 Y3.232 Z-12.97
X33.146 Y3.172 Z-12.992
X33.168 Y3.109 Z-13
X33.767 Y1.391
G2 X34.168 Y-1 I-6.768 J-2.363
X34.16 Y-1.265 I-4.238
G3 X34.151 Y-1.529 I4.229 J-0.265
X34.471 Y-1.849 I0.319
G1 X137.005 Y-1.804
G2 X139.399 Y-2.213 J-7.197
X139.532 Y-2.402 I-0.067 J-0.189
G1 X139.528 Y-45.6
G2 X139.395 Y-45.789 I-0.2
X137.005 Y-46.197 I-2.39 J6.788
G1 X34.475 Y-46.152
G3 X34.156 Y-46.471 J-0.319
X34.164 Y-46.736 I4.234
G2 X34.173 Y-47 I-4.226 J-0.264
X33.763 Y-49.394 I-7.197
G1 X33.759 Y-49.405
X33.737 Y-49.468 Z-12.992
X33.716 Y-49.527 Z-12.97
X33.697 Y-49.581 Z-12.935
X33.681 Y-49.626 Z-12.887
X33.669 Y-49.66 Z-12.83
X33.662 Y-49.681 Z-12.767
X33.659 Y-49.688 Z-12.7
G0 Z5
X30.008 Y3.394
G1 Z-12.7 F400
X30.012 Y3.388 Z-12.767
X30.023 Y3.369 Z-12.83
X30.041 Y3.338 Z-12.887
X30.065 Y3.296 Z-12.935
X30.093 Y3.247 Z-12.97
X30.125 Y3.192 Z-12.992
X30.158 Y3.134 Z-13
X31.159 Y1.395
G2 X31.8 Y-1 I-4.16 J-2.395
X31.777 Y-2.412 I-44.287
G3 X31.755 Y-3.823 I44.264 J-1.412
X32.177 Y-4.245 I0.422
G1 X137.005 Y-4.2
G2 X139.4 Y-4.84 J-4.8
X139.5 Y-5.014 I-0.1 J-0.173
G1 X139.501 Y-42.986
G2 X139.4 Y-43.16 I-0.2
X137.005 Y-43.8 I-2.395 J4.16
G1 X32.182 Y-43.755
G3 X31.76 Y-44.177 J-0.422
X31.782 Y-45.589 I44.274
G2 X31.805 Y-47 I-44.252 J-1.411
X31.164 Y-49.395 I-4.8
X27.98 Y-50.038 I-1.875 J1.079
G3 X24.901 Y-49 I-3.079 J-4.048
G1 X4.006
G2 X-1 Y-44 I-0.006 J5
G1 Y-4
G2 X4 Y1 I5
G1 X27
G2 X29 Y-1 J-2
G1 Y-4
G3 X32 Y-7 I3 J-0.001
G1 X106.005
X137.005
G2 X139.005 Y-9 J-2
G1 Y-39
G2 X137.005 Y-41 I-2
G1 X32.005
G3 X29.004 Y-44 J-3
G1 Y-47
G2 X27.004 Y-49 I-2
G1 X24.901
G3 X24.809 Y-49.015 J-0.3
G1 X23.382 Y-49.478
X23.319 Y-49.499 Z-12.992
X23.258 Y-49.518 Z-12.97
X23.204 Y-49.536 Z-12.935
X23.159 Y-49.551 Z-12.887
X23.125 Y-49.562 Z-12.83
X23.104 Y-49.569 Z-12.767
X23.097 Y-49.571 Z-12.7
G0 Z5
X35.69 Y3.395
G1 Z-13.7 F400
X35.692 Y3.388 Z-13.767
X35.698 Y3.366 Z-13.83
X35.707 Y3.331 Z-13.887
X35.718 Y3.285 Z-13.935
X35.733 Y3.23 Z-13.97
X35.749 Y3.169 Z-13.992
X35.765 Y3.104 Z-14
X36.209 Y1.397
G2 X36.335 Y0.842 I-9.307 J-2.416
G3 X36.733 Y0.515 I0.397 J0.078
G1 X137.005 Y0.56
G2 X139.321 Y0.276 J-9.561
X139.472 Y0.082 I-0.048 J-0.194
G1 X139.479 Y-48.08
G2 X139.327 Y-48.274 I-0.2
X137.005 Y-48.561 I-2.322 J9.274
G1 X36.737 Y-48.516
G3 X36.34 Y-48.842 J-0.405
G2 X36.217 Y-49.384 I-9.433 J1.862
G1 X36.214 Y-49.395
X36.197 Y-49.46 Z-13.992
X36.181 Y-49.521 Z-13.97
X36.167 Y-49.576 Z-13.935
X36.155 Y-49.622 Z-13.887
X36.146 Y-49.657 Z-13.83
X36.141 Y-49.678 Z-13.767
X36.139 Y-49.686 Z-13.7
G0 Z5
X33.069 Y3.392
G1 Z-13.7 F400
X33.071 Y3.385 Z-13.767
X33.079 Y3.364 Z-13.83
X33.09 Y3.33 Z-13.887
X33.106 Y3.285 Z-13.935
X33.125 Y3.232 Z-13.97
X33.146 Y3.172 Z-13.992
X33.168 Y3.109 Z-14
X33.767 Y1.391
G2 X34.168 Y-1 I-6.768 J-2.363
X34.16 Y-1.265 I-4.238
G3 X34.151 Y-1.529 I4.229 J-0.265
X34.471 Y-1.849 I0.319
G1 X137.005 Y-1.804
G2 X139.399 Y-2.213 J-7.197
X139.532 Y-2.402 I-0.067 J-0.189
G1 X139.528 Y-45.6
G2 X139.395 Y-45.789 I-0.2
X137.005 Y-46.197 I-2.39 J6.788
G1 X34.475 Y-46.152
G3 X34.156 Y-46.471 J-0.319
X34.164 Y-46.736 I4.234
G2 X34.173 Y-47 I-4.226 J-0.264
X33.763 Y-49.394 I-7.197
G1 X33.759 Y-49.405
X33.737 Y-49.468 Z-13.992
X33.716 Y-49.527 Z-13.97
X33.697 Y-49.581 Z-13.935
X33.681 Y-49.626 Z-13.887
X33.669 Y-49.66 Z-13.83
X33.662 Y-49.681 Z-13.767
X33.659 Y-49.688 Z-13.7
G0 Z5
X30.008 Y3.394
G1 Z-13.7 F400
X30.012 Y3.388 Z-13.767
X30.023 Y3.369 Z-13.83
X30.041 Y3.338 Z-13.887
X30.065 Y3.296 Z-13.935
X30.093 Y3.247 Z-13.97
X30.125 Y3.192 Z-13.992
X30.158 Y3.134 Z-14
X31.159 Y1.395
G2 X31.8 Y-1 I-4.16 J-2.395
X31.777 Y-2.412 I-44.287
G3 X31.755 Y-3.823 I44.264 J-1.412
X32.177 Y-4.245 I0.422
G1 X137.005 Y-4.2
G2 X139.4 Y-4.84 J-4.8
X139.5 Y-5.014 I-0.1 J-0.173
G1 X139.501 Y-42.986
G2 X139.4 Y-43.16 I-0.2
X137.005 Y-43.8 I-2.395 J4.16
G1 X32.182 Y-43.755
G3 X31.76 Y-44.177 J-0.422
X31.782 Y-45.589 I44.274
G2 X31.805 Y-47 I-44.252 J-1.411
X31.164 Y-49.395 I-4.8
X27.98 Y-50.038 I-1.875 J1.079
G3 X24.901 Y-49 I-3.079 J-4.048
G1 X4.006
G2 X-1 Y-44 I-0.006 J5
G1 Y-4
G2 X4 Y1 I5
G1 X27
G2 X29 Y-1 J-2
G1 Y-4
G3 X32 Y-7 I3 J-0.001
G1 X106.005
X137.005
G2 X139.005 Y-9 J-2
G1 Y-39
G2 X137.005 Y-41 I-2
G1 X32.005
G3 X29.004 Y-44 J-3
G1 Y-47
G2 X27.004 Y-49 I-2
G1 X24.901
G3 X24.809 Y-49.015 J-0.3
G1 X23.382 Y-49.478
X23.319 Y-49.499 Z-13.992
X23.258 Y-49.518 Z-13.97
X23.204 Y-49.536 Z-13.935
X23.159 Y-49.551 Z-13.887
X23.125 Y-49.562 Z-13.83
X23.104 Y-49.569 Z-13.767
X23.097 Y-49.571 Z-13.7
G0 Z5
X35.69 Y3.395
G1 Z-14.7 F400
X35.692 Y3.388 Z-14.767
X35.698 Y3.366 Z-14.83
X35.707 Y3.331 Z-14.887
X35.718 Y3.285 Z-14.935
X35.733 Y3.23 Z-14.97
X35.749 Y3.169 Z-14.992
X35.765 Y3.104 Z-15
X36.209 Y1.397
G2 X36.335 Y0.842 I-9.307 J-2.416
G3 X36.733 Y0.515 I0.397 J0.078
G1 X137.005 Y0.56
G2 X139.321 Y0.276 J-9.561
X139.472 Y0.082 I-0.048 J-0.194
G1 X139.479 Y-48.08
G2 X139.327 Y-48.274 I-0.2
X137.005 Y-48.561 I-2.322 J9.274
G1 X36.737 Y-48.516
G3 X36.34 Y-48.842 J-0.405
G2 X36.217 Y-49.384 I-9.433 J1.862
G1 X36.214 Y-49.395
X36.197 Y-49.46 Z-14.992
X36.181 Y-49.521 Z-14.97
X36.167 Y-49.576 Z-14.935
X36.155 Y-49.622 Z-14.887
X36.146 Y-49.657 Z-14.83
X36.141 Y-49.678 Z-14.767
X36.139 Y-49.686 Z-14.7
G0 Z5
X33.069 Y3.392
G1 Z-14.7 F400
X33.071 Y3.385 Z-14.767
X33.079 Y3.364 Z-14.83
X33.09 Y3.33 Z-14.887
X33.106 Y3.285 Z-14.935
X33.125 Y3.232 Z-14.97
X33.146 Y3.172 Z-14.992
X33.168 Y3.109 Z-15
X33.767 Y1.391
G2 X34.168 Y-1 I-6.768 J-2.363
X34.16 Y-1.265 I-4.238
G3 X34.151 Y-1.529 I4.229 J-0.265
X34.471 Y-1.849 I0.319
G1 X137.005 Y-1.804
G2 X139.399 Y-2.213 J-7.197
X139.532 Y-2.402 I-0.067 J-0.189
G1 X139.528 Y-45.6
G2 X139.395 Y-45.789 I-0.2
X137.005 Y-46.197 I-2.39 J6.788
G1 X34.475 Y-46.152
G3 X34.156 Y-46.471 J-0.319
X34.164 Y-46.736 I4.234
G2 X34.173 Y-47 I-4.226 J-0.264
X33.763 Y-49.394 I-7.197
G1 X33.759 Y-49.405
X33.737 Y-49.468 Z-14.992
X33.716 Y-49.527 Z-14.97
X33.697 Y-49.581 Z-14.935
X33.681 Y-49.626 Z-14.887
X33.669 Y-49.66 Z-14.83
X33.662 Y-49.681 Z-14.767
X33.659 Y-49.688 Z-14.7
G0 Z5
X30.008 Y3.394
G1 Z-14.7 F400
X30.012 Y3.388 Z-14.767
X30.023 Y3.369 Z-14.83
X30.041 Y3.338 Z-14.887
X30.065 Y3.296 Z-14.935
X30.093 Y3.247 Z-14.97
X30.125 Y3.192 Z-14.992
X30.158 Y3.134 Z-15
X31.159 Y1.395
G2 X31.8 Y-1 I-4.16 J-2.395
X31.777 Y-2.412 I-44.287
G3 X31.755 Y-3.823 I44.264 J-1.412
X32.177 Y-4.245 I0.422
G1 X137.005 Y-4.2
G2 X139.4 Y-4.84 J-4.8
X139.5 Y-5.014 I-0.1 J-0.173
G1 X139.501 Y-42.986
G2 X139.4 Y-43.16 I-0.2
X137.005 Y-43.8 I-2.395 J4.16
G1 X32.182 Y-43.755
G3 X31.76 Y-44.177 J-0.422
X31.782 Y-45.589 I44.274
G2 X31.805 Y-47 I-44.252 J-1.411
X31.164 Y-49.395 I-4.8
X27.98 Y-50.038 I-1.875 J1.079
G3 X24.901 Y-49 I-3.079 J-4.048
G1 X4.006
G2 X-1 Y-44 I-0.006 J5
G1 Y-4
G2 X4 Y1 I5
G1 X27
G2 X29 Y-1 J-2
G1 Y-4
G3 X32 Y-7 I3 J-0.001
G1 X106.005
X137.005
G2 X139.005 Y-9 J-2
G1 Y-39
G2 X137.005 Y-41 I-2
G1 X32.005
G3 X29.004 Y-44 J-3
G1 Y-47
G2 X27.004 Y-49 I-2
G1 X24.901
G3 X24.809 Y-49.015 J-0.3
G1 X23.382 Y-49.478
X23.319 Y-49.499 Z-14.992
X23.258 Y-49.518 Z-14.97
X23.204 Y-49.536 Z-14.935
X23.159 Y-49.551 Z-14.887
X23.125 Y-49.562 Z-14.83
X23.104 Y-49.569 Z-14.767
X23.097 Y-49.571 Z-14.7
G0 Z5
X35.69 Y3.395
G1 Z-15.7 F400
X35.692 Y3.388 Z-15.767
X35.698 Y3.366 Z-15.83
X35.707 Y3.331 Z-15.887
X35.718 Y3.285 Z-15.935
X35.733 Y3.23 Z-15.97
X35.749 Y3.169 Z-15.992
X35.765 Y3.104 Z-16
X36.209 Y1.397
G2 X36.335 Y0.842 I-9.307 J-2.416
G3 X36.733 Y0.515 I0.397 J0.078
G1 X137.005 Y0.56
G2 X139.321 Y0.276 J-9.561
X139.472 Y0.082 I-0.048 J-0.194
G1 X139.479 Y-48.08
G2 X139.327 Y-48.274 I-0.2
X137.005 Y-48.561 I-2.322 J9.274
G1 X36.737 Y-48.516
G3 X36.34 Y-48.842 J-0.405
G2 X36.217 Y-49.384 I-9.433 J1.862
G1 X36.214 Y-49.395
X36.197 Y-49.46 Z-15.992
X36.181 Y-49.521 Z-15.97
X36.167 Y-49.576 Z-15.935
X36.155 Y-49.622 Z-15.887
X36.146 Y-49.657 Z-15.83
X36.141 Y-49.678 Z-15.767
X36.139 Y-49.686 Z-15.7
G0 Z5
X33.069 Y3.392
G1 Z-15.7 F400
X33.071 Y3.385 Z-15.767
X33.079 Y3.364 Z-15.83
X33.09 Y3.33 Z-15.887
X33.106 Y3.285 Z-15.935
X33.125 Y3.232 Z-15.97
X33.146 Y3.172 Z-15.992
X33.168 Y3.109 Z-16
X33.767 Y1.391
G2 X34.168 Y-1 I-6.768 J-2.363
X34.16 Y-1.265 I-4.238
G3 X34.151 Y-1.529 I4.229 J-0.265
X34.471 Y-1.849 I0.319
G1 X137.005 Y-1.804
G2 X139.399 Y-2.213 J-7.197
X139.532 Y-2.402 I-0.067 J-0.189
G1 X139.528 Y-45.6
G2 X139.395 Y-45.789 I-0.2
X137.005 Y-46.197 I-2.39 J6.788
G1 X34.475 Y-46.152
G3 X34.156 Y-46.471 J-0.319
X34.164 Y-46.736 I4.234
G2 X34.173 Y-47 I-4.226 J-0.264
X33.763 Y-49.394 I-7.197
G1 X33.759 Y-49.405
X33.737 Y-49.468 Z-15.992
X33.716 Y-49.527 Z-15.97
X33.697 Y-49.581 Z-15.935
X33.681 Y-49.626 Z-15.887
X33.669 Y-49.66 Z-15.83
X33.662 Y-49.681 Z-15.767
X33.659 Y-49.688 Z-15.7
G0 Z5
X30.008 Y3.394
G1 Z-15.7 F400
X30.012 Y3.388 Z-15.767
X30.023 Y3.369 Z-15.83
X30.041 Y3.338 Z-15.887
X30.065 Y3.296 Z-15.935
X30.093 Y3.247 Z-15.97
X30.125 Y3.192 Z-15.992
X30.158 Y3.134 Z-16
X31.159 Y1.395
G2 X31.8 Y-1 I-4.16 J-2.395
X31.777 Y-2.412 I-44.287
G3 X31.755 Y-3.823 I44.264 J-1.412
X32.177 Y-4.245 I0.422
G1 X137.005 Y-4.2
G2 X139.4 Y-4.84 J-4.8
X139.5 Y-5.014 I-0.1 J-0.173
G1 X139.501 Y-42.986
G2 X139.4 Y-43.16 I-0.2
X137.005 Y-43.8 I-2.395 J4.16
G1 X32.182 Y-43.755
G3 X31.76 Y-44.177 J-0.422
X31.782 Y-45.589 I44.274
G2 X31.805 Y-47 I-44.252 J-1.411
X31.164 Y-49.395 I-4.8
X27.98 Y-50.038 I-1.875 J1.079
G3 X24.901 Y-49 I-3.079 J-4.048
G1 X4.006
G2 X-1 Y-44 I-0.006 J5
G1 Y-4
G2 X4 Y1 I5
G1 X27
G2 X29 Y-1 J-2
G1 Y-4
G3 X32 Y-7 I3 J-0.001
G1 X106.005
X137.005
G2 X139.005 Y-9 J-2
G1 Y-39
G2 X137.005 Y-41 I-2
G1 X32.005
G3 X29.004 Y-44 J-3
G1 Y-47
G2 X27.004 Y-49 I-2
G1 X24.901
G3 X24.809 Y-49.015 J-0.3
G1 X23.382 Y-49.478
X23.319 Y-49.499 Z-15.992
X23.258 Y-49.518 Z-15.97
X23.204 Y-49.536 Z-15.935
X23.159 Y-49.551 Z-15.887
X23.125 Y-49.562 Z-15.83
X23.104 Y-49.569 Z-15.767
X23.097 Y-49.571 Z-15.7
G0 Z5
X35.69 Y3.395
G1 Z-16.7 F400
X35.692 Y3.388 Z-16.767
X35.698 Y3.366 Z-16.83
X35.707 Y3.331 Z-16.887
X35.718 Y3.285 Z-16.935
X35.733 Y3.23 Z-16.97
X35.749 Y3.169 Z-16.992
X35.765 Y3.104 Z-17
X36.209 Y1.397
G2 X36.335 Y0.842 I-9.307 J-2.416
G3 X36.733 Y0.515 I0.397 J0.078
G1 X137.005 Y0.56
G2 X139.321 Y0.276 J-9.561
X139.472 Y0.082 I-0.048 J-0.194
G1 X139.479 Y-48.08
G2 X139.327 Y-48.274 I-0.2
X137.005 Y-48.561 I-2.322 J9.274
G1 X36.737 Y-48.516
G3 X36.34 Y-48.842 J-0.405
G2 X36.217 Y-49.384 I-9.433 J1.862
G1 X36.214 Y-49.395
X36.197 Y-49.46 Z-16.992
X36.181 Y-49.521 Z-16.97
X36.167 Y-49.576 Z-16.935
X36.155 Y-49.622 Z-16.887
X36.146 Y-49.657 Z-16.83
X36.141 Y-49.678 Z-16.767
X36.139 Y-49.686 Z-16.7
G0 Z5
X33.069 Y3.392
G1 Z-16.7 F400
X33.071 Y3.385 Z-16.767
X33.079 Y3.364 Z-16.83
X33.09 Y3.33 Z-16.887
X33.106 Y3.285 Z-16.935
X33.125 Y3.232 Z-16.97
X33.146 Y3.172 Z-16.992
X33.168 Y3.109 Z-17
X33.767 Y1.391
G2 X34.168 Y-1 I-6.768 J-2.363
X34.16 Y-1.265 I-4.238
G3 X34.151 Y-1.529 I4.229 J-0.265
X34.471 Y-1.849 I0.319
G1 X137.005 Y-1.804
G2 X139.399 Y-2.213 J-7.197
X139.532 Y-2.402 I-0.067 J-0.189
G1 X139.528 Y-45.6
G2 X139.395 Y-45.789 I-0.2
X137.005 Y-46.197 I-2.39 J6.788
G1 X34.475 Y-46.152
G3 X34.156 Y-46.471 J-0.319
X34.164 Y-46.736 I4.234
G2 X34.173 Y-47 I-4.226 J-0.264
X33.763 Y-49.394 I-7.197
G1 X33.759 Y-49.405
X33.737 Y-49.468 Z-16.992
X33.716 Y-49.527 Z-16.97
X33.697 Y-49.581 Z-16.935
X33.681 Y-49.626 Z-16.887
X33.669 Y-49.66 Z-16.83
X33.662 Y-49.681 Z-16.767
X33.659 Y-49.688 Z-16.7
G0 Z5
X30.008 Y3.394
G1 Z-16.7 F400
X30.012 Y3.388 Z-16.767
X30.023 Y3.369 Z-16.83
X30.041 Y3.338 Z-16.887
X30.065 Y3.296 Z-16.935
X30.093 Y3.247 Z-16.97
X30.125 Y3.192 Z-16.992
X30.158 Y3.134 Z-17
X31.159 Y1.395
G2 X31.8 Y-1 I-4.16 J-2.395
X31.777 Y-2.412 I-44.287
G3 X31.755 Y-3.823 I44.264 J-1.412
X32.177 Y-4.245 I0.422
G1 X137.005 Y-4.2
G2 X139.4 Y-4.84 J-4.8
X139.5 Y-5.014 I-0.1 J-0.173
G1 X139.501 Y-42.986
G2 X139.4 Y-43.16 I-0.2
X137.005 Y-43.8 I-2.395 J4.16
G1 X32.182 Y-43.755
G3 X31.76 Y-44.177 J-0.422
X31.782 Y-45.589 I44.274
G2 X31.805 Y-47 I-44.252 J-1.411
X31.164 Y-49.395 I-4.8
X27.98 Y-50.038 I-1.875 J1.079
G3 X24.901 Y-49 I-3.079 J-4.048
G1 X4.006
G2 X-1 Y-44 I-0.006 J5
G1 Y-4
G2 X4 Y1 I5
G1 X27
G2 X29 Y-1 J-2
G1 Y-4
G3 X32 Y-7 I3 J-0.001
G1 X106.005
X137.005
G2 X139.005 Y-9 J-2
G1 Y-39
G2 X137.005 Y-41 I-2
G1 X32.005
G3 X29.004 Y-44 J-3
G1 Y-47
G2 X27.004 Y-49 I-2
G1 X24.901
G3 X24.809 Y-49.015 J-0.3
G1 X23.382 Y-49.478
X23.319 Y-49.499 Z-16.992
X23.258 Y-49.518 Z-16.97
X23.204 Y-49.536 Z-16.935
X23.159 Y-49.551 Z-16.887
X23.125 Y-49.562 Z-16.83
X23.104 Y-49.569 Z-16.767
X23.097 Y-49.571 Z-16.7
G0 Z5
X35.69 Y3.395
G1 Z-17.7 F400
X35.692 Y3.388 Z-17.767
X35.698 Y3.366 Z-17.83
X35.707 Y3.331 Z-17.887
X35.718 Y3.285 Z-17.935
X35.733 Y3.23 Z-17.97
X35.749 Y3.169 Z-17.992
X35.765 Y3.104 Z-18
X36.209 Y1.397
G2 X36.335 Y0.842 I-9.307 J-2.416
G3 X36.733 Y0.515 I0.397 J0.078
G1 X137.005 Y0.56
G2 X139.321 Y0.276 J-9.561
X139.472 Y0.082 I-0.048 J-0.194
G1 X139.479 Y-48.08
G2 X139.327 Y-48.274 I-0.2
X137.005 Y-48.561 I-2.322 J9.274
G1 X36.737 Y-48.516
G3 X36.34 Y-48.842 J-0.405
G2 X36.217 Y-49.384 I-9.433 J1.862
G1 X36.214 Y-49.395
X36.197 Y-49.46 Z-17.992
X36.181 Y-49.521 Z-17.97
X36.167 Y-49.576 Z-17.935
X36.155 Y-49.622 Z-17.887
X36.146 Y-49.657 Z-17.83
X36.141 Y-49.678 Z-17.767
X36.139 Y-49.686 Z-17.7
G0 Z5
X33.069 Y3.392
G1 Z-17.7 F400
X33.071 Y3.385 Z-17.767
X33.079 Y3.364 Z-17.83
X33.09 Y3.33 Z-17.887
X33.106 Y3.285 Z-17.935
X33.125 Y3.232 Z-17.97
X33.146 Y3.172 Z-17.992
X33.168 Y3.109 Z-18
X33.767 Y1.391
G2 X34.168 Y-1 I-6.768 J-2.363
X34.16 Y-1.265 I-4.238
G3 X34.151 Y-1.529 I4.229 J-0.265
X34.471 Y-1.849 I0.319
G1 X137.005 Y-1.804
G2 X139.399 Y-2.213 J-7.197
X139.532 Y-2.402 I-0.067 J-0.189
G1 X139.528 Y-45.6
G2 X139.395 Y-45.789 I-0.2
X137.005 Y-46.197 I-2.39 J6.788
G1 X34.475 Y-46.152
G3 X34.156 Y-46.471 J-0.319
X34.164 Y-46.736 I4.234
G2 X34.173 Y-47 I-4.226 J-0.264
X33.763 Y-49.394 I-7.197
G1 X33.759 Y-49.405
X33.737 Y-49.468 Z-17.992
X33.716 Y-49.527 Z-17.97
X33.697 Y-49.581 Z-17.935
X33.681 Y-49.626 Z-17.887
X33.669 Y-49.66 Z-17.83
X33.662 Y-49.681 Z-17.767
X33.659 Y-49.688 Z-17.7
G0 Z5
X30.008 Y3.394
G1 Z-17.7 F400
X30.012 Y3.388 Z-17.767
X30.023 Y3.369 Z-17.83
X30.041 Y3.338 Z-17.887
X30.065 Y3.296 Z-17.935
X30.093 Y3.247 Z-17.97
X30.125 Y3.192 Z-17.992
X30.158 Y3.134 Z-18
X31.159 Y1.395
G2 X31.8 Y-1 I-4.16 J-2.395
X31.777 Y-2.412 I-44.287
G3 X31.755 Y-3.823 I44.264 J-1.412
X32.177 Y-4.245 I0.422
G1 X137.005 Y-4.2
G2 X139.4 Y-4.84 J-4.8
X139.5 Y-5.014 I-0.1 J-0.173
G1 X139.501 Y-42.986
G2 X139.4 Y-43.16 I-0.2
X137.005 Y-43.8 I-2.395 J4.16
G1 X32.182 Y-43.755
G3 X31.76 Y-44.177 J-0.422
X31.782 Y-45.589 I44.274
G2 X31.805 Y-47 I-44.252 J-1.411
X31.164 Y-49.395 I-4.8
X27.98 Y-50.038 I-1.875 J1.079
G3 X24.901 Y-49 I-3.079 J-4.048
G1 X4.006
G2 X-1 Y-44 I-0.006 J5
G1 Y-4
G2 X4 Y1 I5
G1 X27
G2 X29 Y-1 J-2
G1 Y-4
G3 X32 Y-7 I3 J-0.001
G1 X106.005
X137.005
G2 X139.005 Y-9 J-2
G1 Y-39
G2 X137.005 Y-41 I-2
G1 X32.005
G3 X29.004 Y-44 J-3
G1 Y-47
G2 X27.004 Y-49 I-2
G1 X24.901
G3 X24.809 Y-49.015 J-0.3
G1 X23.382 Y-49.478
X23.319 Y-49.499 Z-17.992
X23.258 Y-49.518 Z-17.97
X23.204 Y-49.536 Z-17.935
X23.159 Y-49.551 Z-17.887
X23.125 Y-49.562 Z-17.83
X23.104 Y-49.569 Z-17.767
X23.097 Y-49.571 Z-17.7
G0 Z5
X35.69 Y3.395
G1 Z-18.7 F400
X35.692 Y3.388 Z-18.767
X35.698 Y3.366 Z-18.83
X35.707 Y3.331 Z-18.887
X35.718 Y3.285 Z-18.935
X35.733 Y3.23 Z-18.97
X35.749 Y3.169 Z-18.992
X35.765 Y3.104 Z-19
X36.209 Y1.397
G2 X36.335 Y0.842 I-9.307 J-2.416
G3 X36.733 Y0.515 I0.397 J0.078
G1 X137.005 Y0.56
G2 X139.321 Y0.276 J-9.561
X139.472 Y0.082 I-0.048 J-0.194
G1 X139.479 Y-48.08
G2 X139.327 Y-48.274 I-0.2
X137.005 Y-48.561 I-2.322 J9.274
G1 X36.737 Y-48.516
G3 X36.34 Y-48.842 J-0.405
G2 X36.217 Y-49.384 I-9.433 J1.862
G1 X36.214 Y-49.395
X36.197 Y-49.46 Z-18.992
X36.181 Y-49.521 Z-18.97
X36.167 Y-49.576 Z-18.935
X36.155 Y-49.622 Z-18.887
X36.146 Y-49.657 Z-18.83
X36.141 Y-49.678 Z-18.767
X36.139 Y-49.686 Z-18.7
G0 Z5
X33.069 Y3.392
G1 Z-18.7 F400
X33.071 Y3.385 Z-18.767
X33.079 Y3.364 Z-18.83
X33.09 Y3.33 Z-18.887
X33.106 Y3.285 Z-18.935
X33.125 Y3.232 Z-18.97
X33.146 Y3.172 Z-18.992
X33.168 Y3.109 Z-19
X33.767 Y1.391
G2 X34.168 Y-1 I-6.768 J-2.363
X34.16 Y-1.265 I-4.238
G3 X34.151 Y-1.529 I4.229 J-0.265
X34.471 Y-1.849 I0.319
G1 X137.005 Y-1.804
G2 X139.399 Y-2.213 J-7.197
X139.532 Y-2.402 I-0.067 J-0.189
G1 X139.528 Y-45.6
G2 X139.395 Y-45.789 I-0.2
X137.005 Y-46.197 I-2.39 J6.788
G1 X34.475 Y-46.152
G3 X34.156 Y-46.471 J-0.319
X34.164 Y-46.736 I4.234
G2 X34.173 Y-47 I-4.226 J-0.264
X33.763 Y-49.394 I-7.197
G1 X33.759 Y-49.405
X33.737 Y-49.468 Z-18.992
X33.716 Y-49.527 Z-18.97
X33.697 Y-49.581 Z-18.935
X33.681 Y-49.626 Z-18.887
X33.669 Y-49.66 Z-18.83
X33.662 Y-49.681 Z-18.767
X33.659 Y-49.688 Z-18.7
G0 Z5
X30.008 Y3.394
G1 Z-18.7 F400
X30.012 Y3.388 Z-18.767
X30.023 Y3.369 Z-18.83
X30.041 Y3.338 Z-18.887
X30.065 Y3.296 Z-18.935
X30.093 Y3.247 Z-18.97
X30.125 Y3.192 Z-18.992
X30.158 Y3.134 Z-19
X31.159 Y1.395
G2 X31.8 Y-1 I-4.16 J-2.395
X31.777 Y-2.412 I-44.287
G3 X31.755 Y-3.823 I44.264 J-1.412
X32.177 Y-4.245 I0.422
G1 X137.005 Y-4.2
G2 X139.4 Y-4.84 J-4.8
X139.5 Y-5.014 I-0.1 J-0.173
G1 X139.501 Y-42.986
G2 X139.4 Y-43.16 I-0.2
X137.005 Y-43.8 I-2.395 J4.16
G1 X32.182 Y-43.755
G3 X31.76 Y-44.177 J-0.422
X31.782 Y-45.589 I44.274
G2 X31.805 Y-47 I-44.252 J-1.411
X31.164 Y-49.395 I-4.8
X27.98 Y-50.038 I-1.875 J1.079
G3 X24.901 Y-49 I-3.079 J-4.048
G1 X4.006
G2 X-1 Y-44 I-0.006 J5
G1 Y-4
G2 X4 Y1 I5
G1 X27
G2 X29 Y-1 J-2
G1 Y-4
G3 X32 Y-7 I3 J-0.001
G1 X106.005
X137.005
G2 X139.005 Y-9 J-2
G1 Y-39
G2 X137.005 Y-41 I-2
G1 X32.005
G3 X29.004 Y-44 J-3
G1 Y-47
G2 X27.004 Y-49 I-2
G1 X24.901
G3 X24.809 Y-49.015 J-0.3
G1 X23.382 Y-49.478
X23.319 Y-49.499 Z-18.992
X23.258 Y-49.518 Z-18.97
X23.204 Y-49.536 Z-18.935
X23.159 Y-49.551 Z-18.887
X23.125 Y-49.562 Z-18.83
X23.104 Y-49.569 Z-18.767
X23.097 Y-49.571 Z-18.7
G0 Z5
X35.69 Y3.395
G1 Z-19.2 F400
X35.692 Y3.388 Z-19.267
X35.698 Y3.366 Z-19.33
X35.707 Y3.331 Z-19.387
X35.718 Y3.285 Z-19.435
X35.733 Y3.23 Z-19.47
X35.749 Y3.169 Z-19.492
X35.765 Y3.104 Z-19.5
X36.209 Y1.397
G2 X36.335 Y0.842 I-9.307 J-2.416
G3 X36.733 Y0.515 I0.397 J0.078
G1 X137.005 Y0.56
G2 X139.321 Y0.276 J-9.561
X139.472 Y0.082 I-0.048 J-0.194
G1 X139.479 Y-48.08
G2 X139.327 Y-48.274 I-0.2
X137.005 Y-48.561 I-2.322 J9.274
G1 X36.737 Y-48.516
G3 X36.34 Y-48.842 J-0.405
G2 X36.217 Y-49.384 I-9.433 J1.862
G1 X36.214 Y-49.395
X36.197 Y-49.46 Z-19.492
X36.181 Y-49.521 Z-19.47
X36.167 Y-49.576 Z-19.435
X36.155 Y-49.622 Z-19.387
X36.146 Y-49.657 Z-19.33
X36.141 Y-49.678 Z-19.267
X36.139 Y-49.686 Z-19.2
G0 Z5
X33.069 Y3.392
G1 Z-19.2 F400
X33.071 Y3.385 Z-19.267
X33.079 Y3.364 Z-19.33
X33.09 Y3.33 Z-19.387
X33.106 Y3.285 Z-19.435
X33.125 Y3.232 Z-19.47
X33.146 Y3.172 Z-19.492
X33.168 Y3.109 Z-19.5
X33.767 Y1.391
G2 X34.168 Y-1 I-6.768 J-2.363
X34.16 Y-1.265 I-4.238
G3 X34.151 Y-1.529 I4.229 J-0.265
X34.471 Y-1.849 I0.319
G1 X137.005 Y-1.804
G2 X139.399 Y-2.213 J-7.197
X139.532 Y-2.402 I-0.067 J-0.189
G1 X139.528 Y-45.6
G2 X139.395 Y-45.789 I-0.2
X137.005 Y-46.197 I-2.39 J6.788
G1 X34.475 Y-46.152
G3 X34.156 Y-46.471 J-0.319
X34.164 Y-46.736 I4.234
G2 X34.173 Y-47 I-4.226 J-0.264
X33.763 Y-49.394 I-7.197
G1 X33.759 Y-49.405
X33.737 Y-49.468 Z-19.492
X33.716 Y-49.527 Z-19.47
X33.697 Y-49.581 Z-19.435
X33.681 Y-49.626 Z-19.387
X33.669 Y-49.66 Z-19.33
X33.662 Y-49.681 Z-19.267
X33.659 Y-49.688 Z-19.2
G0 Z5
X30.008 Y3.394
G1 Z-19.2 F400
X30.012 Y3.388 Z-19.267
X30.023 Y3.369 Z-19.33
X30.041 Y3.338 Z-19.387
X30.065 Y3.296 Z-19.435
X30.093 Y3.247 Z-19.47
X30.125 Y3.192 Z-19.492
X30.158 Y3.134 Z-19.5
X31.159 Y1.395
G2 X31.8 Y-1 I-4.16 J-2.395
X31.777 Y-2.412 I-44.287
G3 X31.755 Y-3.823 I44.264 J-1.412
X32.177 Y-4.245 I0.422
G1 X137.005 Y-4.2
G2 X139.4 Y-4.84 J-4.8
X139.5 Y-5.014 I-0.1 J-0.173
G1 X139.501 Y-42.986
G2 X139.4 Y-43.16 I-0.2
X137.005 Y-43.8 I-2.395 J4.16
G1 X32.182 Y-43.755
G3 X31.76 Y-44.177 J-0.422
X31.782 Y-45.589 I44.274
G2 X31.805 Y-47 I-44.252 J-1.411
X31.164 Y-49.395 I-4.8
X27.98 Y-50.038 I-1.875 J1.079
G3 X24.901 Y-49 I-3.079 J-4.048
G1 X4.006
G2 X-1 Y-44 I-0.006 J5
G1 Y-4
G2 X4 Y1 I5
G1 X27
G2 X29 Y-1 J-2
G1 Y-4
G3 X32 Y-7 I3 J-0.001
G1 X106.005
X137.005
G2 X139.005 Y-9 J-2
G1 Y-39
G2 X137.005 Y-41 I-2
G1 X32.005
G3 X29.004 Y-44 J-3
G1 Y-47
G2 X27.004 Y-49 I-2
G1 X24.901
G3 X24.809 Y-49.015 J-0.3
G1 X23.382 Y-49.478
X23.319 Y-49.499 Z-19.492
X23.258 Y-49.518 Z-19.47
X23.204 Y-49.536 Z-19.435
X23.159 Y-49.551 Z-19.387
X23.125 Y-49.562 Z-19.33
X23.104 Y-49.569 Z-19.267
X23.097 Y-49.571 Z-19.2
G0 Z15
M9
G28 G91 Z0
G28 X0 Y0
M30
%
