%
(1)
(T3  D=3.175 CR=0 - ZMIN=-20 - flat end mill)
G90 G94
G17
G21
G28 G91 Z0
G90

(2D Contour2)
M9
T3 M6
S16542 M3
G54
M8
G0 X41.54 Y137.322
Z15
Z5
G1 Z1.75 F600
Z-0.433
G18 G3 X41.223 Z-0.75 I-0.318
G1 X40.905
G17 G3 X40.588 Y137.005 J-0.317
G1 Y32.005
G3 X44 Y28.592 I3.412
G1 X47
G2 X48.588 Y27.004 J-1.587
G1 Y4.006
G2 X44 Y-0.587 I-4.588 J-0.006
G1 X4
G2 X-0.587 Y4 J4.587
G1 Y27
G2 X1 Y28.587 I1.587
G1 X4
G3 X7.413 Y32 I0.001 J3.413
G1 Y137.005
G2 X9 Y138.592 I1.587
G1 X39
G2 X40.588 Y137.005 J-1.587
G3 X40.905 Y136.688 I0.318
G1 X41.223
G18 G2 X41.54 Z-0.433 K0.317
G1 Y137.322
Z-1.183
G3 X41.223 Z-1.5 I-0.318
G1 X40.905
G17 G3 X40.588 Y137.005 J-0.317
G1 Y32.005
G3 X44 Y28.592 I3.412
G1 X47
G2 X48.588 Y27.004 J-1.587
G1 Y4.006
G2 X44 Y-0.587 I-4.588 J-0.006
G1 X4
G2 X-0.587 Y4 J4.587
G1 Y27
G2 X1 Y28.587 I1.587
G1 X4
G3 X7.413 Y32 I0.001 J3.413
G1 Y137.005
G2 X9 Y138.592 I1.587
G1 X39
G2 X40.588 Y137.005 J-1.587
G3 X40.905 Y136.688 I0.318
G1 X41.223
G18 G2 X41.54 Z-1.183 K0.317
G1 Y137.322
Z-1.933
G3 X41.223 Z-2.25 I-0.318
G1 X40.905
G17 G3 X40.588 Y137.005 J-0.317
G1 Y32.005
G3 X44 Y28.592 I3.412
G1 X47
G2 X48.588 Y27.004 J-1.587
G1 Y4.006
G2 X44 Y-0.587 I-4.588 J-0.006
G1 X4
G2 X-0.587 Y4 J4.587
G1 Y27
G2 X1 Y28.587 I1.587
G1 X4
G3 X7.413 Y32 I0.001 J3.413
G1 Y137.005
G2 X9 Y138.592 I1.587
G1 X39
G2 X40.588 Y137.005 J-1.587
G3 X40.905 Y136.688 I0.318
G1 X41.223
G18 G2 X41.54 Z-1.933 K0.317
G1 Y137.322
Z-2.683
G3 X41.223 Z-3 I-0.318
G1 X40.905
G17 G3 X40.588 Y137.005 J-0.317
G1 Y32.005
G3 X44 Y28.592 I3.412
G1 X47
G2 X48.588 Y27.004 J-1.587
G1 Y4.006
G2 X44 Y-0.587 I-4.588 J-0.006
G1 X4
G2 X-0.587 Y4 J4.587
G1 Y27
G2 X1 Y28.587 I1.587
G1 X4
G3 X7.413 Y32 I0.001 J3.413
G1 Y137.005
G2 X9 Y138.592 I1.587
G1 X39
G2 X40.588 Y137.005 J-1.587
G3 X40.905 Y136.688 I0.318
G1 X41.223
G18 G2 X41.54 Z-2.683 K0.318
G1 Y137.322
Z-3.433
G3 X41.223 Z-3.75 I-0.318
G1 X40.905
G17 G3 X40.588 Y137.005 J-0.317
G1 Y32.005
G3 X44 Y28.592 I3.412
G1 X47
G2 X48.588 Y27.004 J-1.587
G1 Y4.006
G2 X44 Y-0.587 I-4.588 J-0.006
G1 X4
G2 X-0.587 Y4 J4.587
G1 Y27
G2 X1 Y28.587 I1.587
G1 X4
G3 X7.413 Y32 I0.001 J3.413
G1 Y137.005
G2 X9 Y138.592 I1.587
G1 X39
G2 X40.588 Y137.005 J-1.587
G3 X40.905 Y136.688 I0.318
G1 X41.223
G18 G2 X41.54 Z-3.433 K0.318
G1 Y137.322
Z-4.183
G3 X41.223 Z-4.5 I-0.318
G1 X40.905
G17 G3 X40.588 Y137.005 J-0.317
G1 Y32.005
G3 X44 Y28.592 I3.412
G1 X47
G2 X48.588 Y27.004 J-1.587
G1 Y4.006
G2 X44 Y-0.587 I-4.588 J-0.006
G1 X4
G2 X-0.587 Y4 J4.587
G1 Y27
G2 X1 Y28.587 I1.587
G1 X4
G3 X7.413 Y32 I0.001 J3.413
G1 Y137.005
G2 X9 Y138.592 I1.587
G1 X39
G2 X40.588 Y137.005 J-1.587
G3 X40.905 Y136.688 I0.318
G1 X41.223
G18 G2 X41.54 Z-4.183 K0.318
G1 Y137.322
Z-4.933
G3 X41.223 Z-5.25 I-0.318
G1 X40.905
G17 G3 X40.588 Y137.005 J-0.317
G1 Y32.005
G3 X44 Y28.592 I3.412
G1 X47
G2 X48.588 Y27.004 J-1.587
G1 Y4.006
G2 X44 Y-0.587 I-4.588 J-0.006
G1 X4
G2 X-0.587 Y4 J4.587
G1 Y27
G2 X1 Y28.587 I1.587
G1 X4
G3 X7.413 Y32 I0.001 J3.413
G1 Y137.005
G2 X9 Y138.592 I1.587
G1 X39
G2 X40.588 Y137.005 J-1.587
G3 X40.905 Y136.688 I0.318
G1 X41.223
G18 G2 X41.54 Z-4.933 K0.318
G1 Y137.322
Z-5.683
G3 X41.223 Z-6 I-0.318
G1 X40.905
G17 G3 X40.588 Y137.005 J-0.317
G1 Y32.005
G3 X44 Y28.592 I3.412
G1 X47
G2 X48.588 Y27.004 J-1.587
G1 Y4.006
G2 X44 Y-0.587 I-4.588 J-0.006
G1 X4
G2 X-0.587 Y4 J4.587
G1 Y27
G2 X1 Y28.587 I1.587
G1 X4
G3 X7.413 Y32 I0.001 J3.413
G1 Y137.005
G2 X9 Y138.592 I1.587
G1 X39
G2 X40.588 Y137.005 J-1.587
G3 X40.905 Y136.688 I0.318
G1 X41.223
G18 G2 X41.54 Z-5.683 K0.318
G1 Y137.322
Z-6.433
G3 X41.223 Z-6.75 I-0.318
G1 X40.905
G17 G3 X40.588 Y137.005 J-0.317
G1 Y32.005
G3 X44 Y28.592 I3.412
G1 X47
G2 X48.588 Y27.004 J-1.587
G1 Y4.006
G2 X44 Y-0.587 I-4.588 J-0.006
G1 X4
G2 X-0.587 Y4 J4.587
G1 Y27
G2 X1 Y28.587 I1.587
G1 X4
G3 X7.413 Y32 I0.001 J3.413
G1 Y137.005
G2 X9 Y138.592 I1.587
G1 X39
G2 X40.588 Y137.005 J-1.587
G3 X40.905 Y136.688 I0.318
G1 X41.223
G18 G2 X41.54 Z-6.433 K0.318
G1 Y137.322
Z-7.183
G3 X41.223 Z-7.5 I-0.318
G1 X40.905
G17 G3 X40.588 Y137.005 J-0.317
G1 Y32.005
G3 X44 Y28.592 I3.412
G1 X47
G2 X48.588 Y27.004 J-1.587
G1 Y4.006
G2 X44 Y-0.587 I-4.588 J-0.006
G1 X4
G2 X-0.587 Y4 J4.587
G1 Y27
G2 X1 Y28.587 I1.587
G1 X4
G3 X7.413 Y32 I0.001 J3.413
G1 Y137.005
G2 X9 Y138.592 I1.587
G1 X39
G2 X40.588 Y137.005 J-1.587
G3 X40.905 Y136.688 I0.318
G1 X41.223
G18 G2 X41.54 Z-7.183 K0.318
G1 Y137.322
Z-7.933
G3 X41.223 Z-8.25 I-0.318
G1 X40.905
G17 G3 X40.588 Y137.005 J-0.317
G1 Y32.005
G3 X44 Y28.592 I3.412
G1 X47
G2 X48.588 Y27.004 J-1.587
G1 Y4.006
G2 X44 Y-0.587 I-4.588 J-0.006
G1 X4
G2 X-0.587 Y4 J4.587
G1 Y27
G2 X1 Y28.587 I1.587
G1 X4
G3 X7.413 Y32 I0.001 J3.413
G1 Y137.005
G2 X9 Y138.592 I1.587
G1 X39
G2 X40.588 Y137.005 J-1.587
G3 X40.905 Y136.688 I0.318
G1 X41.223
G18 G2 X41.54 Z-7.933 K0.318
G1 Y137.322
Z-8.683
G3 X41.223 Z-9 I-0.318
G1 X40.905
G17 G3 X40.588 Y137.005 J-0.317
G1 Y32.005
G3 X44 Y28.592 I3.412
G1 X47
G2 X48.588 Y27.004 J-1.587
G1 Y4.006
G2 X44 Y-0.587 I-4.588 J-0.006
G1 X4
G2 X-0.587 Y4 J4.587
G1 Y27
G2 X1 Y28.587 I1.587
G1 X4
G3 X7.413 Y32 I0.001 J3.413
G1 Y137.005
G2 X9 Y138.592 I1.587
G1 X39
G2 X40.588 Y137.005 J-1.587
G3 X40.905 Y136.688 I0.318
G1 X41.223
G18 G2 X41.54 Z-8.683 K0.318
G1 Y137.322
Z-9.433
G3 X41.223 Z-9.75 I-0.318
G1 X40.905
G17 G3 X40.588 Y137.005 J-0.317
G1 Y32.005
G3 X44 Y28.592 I3.412
G1 X47
G2 X48.588 Y27.004 J-1.587
G1 Y4.006
G2 X44 Y-0.587 I-4.588 J-0.006
G1 X4
G2 X-0.587 Y4 J4.587
G1 Y27
G2 X1 Y28.587 I1.587
G1 X4
G3 X7.413 Y32 I0.001 J3.413
G1 Y137.005
G2 X9 Y138.592 I1.587
G1 X39
G2 X40.588 Y137.005 J-1.587
G3 X40.905 Y136.688 I0.318
G1 X41.223
G18 G2 X41.54 Z-9.433 K0.318
G1 Y137.322
Z-10.183
G3 X41.223 Z-10.5 I-0.318
G1 X40.905
G17 G3 X40.588 Y137.005 J-0.317
G1 Y32.005
G3 X44 Y28.592 I3.412
G1 X47
G2 X48.588 Y27.004 J-1.587
G1 Y4.006
G2 X44 Y-0.587 I-4.588 J-0.006
G1 X4
G2 X-0.587 Y4 J4.587
G1 Y27
G2 X1 Y28.587 I1.587
G1 X4
G3 X7.413 Y32 I0.001 J3.413
G1 Y137.005
G2 X9 Y138.592 I1.587
G1 X39
G2 X40.588 Y137.005 J-1.587
G3 X40.905 Y136.688 I0.318
G1 X41.223
G18 G2 X41.54 Z-10.183 K0.318
G1 Y137.322
Z-10.933
G3 X41.223 Z-11.25 I-0.318
G1 X40.905
G17 G3 X40.588 Y137.005 J-0.317
G1 Y32.005
G3 X44 Y28.592 I3.412
G1 X47
G2 X48.588 Y27.004 J-1.587
G1 Y4.006
G2 X44 Y-0.587 I-4.588 J-0.006
G1 X4
G2 X-0.587 Y4 J4.587
G1 Y27
G2 X1 Y28.587 I1.587
G1 X4
G3 X7.413 Y32 I0.001 J3.413
G1 Y137.005
G2 X9 Y138.592 I1.587
G1 X39
G2 X40.588 Y137.005 J-1.587
G3 X40.905 Y136.688 I0.318
G1 X41.223
G18 G2 X41.54 Z-10.933 K0.318
G1 Y137.322
Z-11.683
G3 X41.223 Z-12 I-0.318
G1 X40.905
G17 G3 X40.588 Y137.005 J-0.317
G1 Y32.005
G3 X44 Y28.592 I3.412
G1 X47
G2 X48.588 Y27.004 J-1.587
G1 Y4.006
G2 X44 Y-0.587 I-4.588 J-0.006
G1 X4
G2 X-0.587 Y4 J4.587
G1 Y27
G2 X1 Y28.587 I1.587
G1 X4
G3 X7.413 Y32 I0.001 J3.413
G1 Y137.005
G2 X9 Y138.592 I1.587
G1 X39
G2 X40.588 Y137.005 J-1.587
G3 X40.905 Y136.688 I0.318
G1 X41.223
G18 G2 X41.54 Z-11.683 K0.318
G1 Y137.322
Z-12.433
G3 X41.223 Z-12.75 I-0.318
G1 X40.905
G17 G3 X40.588 Y137.005 J-0.317
G1 Y32.005
G3 X44 Y28.592 I3.412
G1 X47
G2 X48.588 Y27.004 J-1.587
G1 Y4.006
G2 X44 Y-0.587 I-4.588 J-0.006
G1 X4
G2 X-0.587 Y4 J4.587
G1 Y27
G2 X1 Y28.587 I1.587
G1 X4
G3 X7.413 Y32 I0.001 J3.413
G1 Y137.005
G2 X9 Y138.592 I1.587
G1 X39
G2 X40.588 Y137.005 J-1.587
G3 X40.905 Y136.688 I0.318
G1 X41.223
G18 G2 X41.54 Z-12.433 K0.318
G1 Y137.322
Z-13.183
G3 X41.223 Z-13.5 I-0.318
G1 X40.905
G17 G3 X40.588 Y137.005 J-0.317
G1 Y32.005
G3 X44 Y28.592 I3.412
G1 X47
G2 X48.588 Y27.004 J-1.587
G1 Y4.006
G2 X44 Y-0.587 I-4.588 J-0.006
G1 X4
G2 X-0.587 Y4 J4.587
G1 Y27
G2 X1 Y28.587 I1.587
G1 X4
G3 X7.413 Y32 I0.001 J3.413
G1 Y137.005
G2 X9 Y138.592 I1.587
G1 X39
G2 X40.588 Y137.005 J-1.587
G3 X40.905 Y136.688 I0.318
G1 X41.223
G18 G2 X41.54 Z-13.183 K0.318
G1 Y137.322
Z-13.933
G3 X41.223 Z-14.25 I-0.318
G1 X40.905
G17 G3 X40.588 Y137.005 J-0.317
G1 Y32.005
G3 X44 Y28.592 I3.412
G1 X47
G2 X48.588 Y27.004 J-1.587
G1 Y4.006
G2 X44 Y-0.587 I-4.588 J-0.006
G1 X4
G2 X-0.587 Y4 J4.587
G1 Y27
G2 X1 Y28.587 I1.587
G1 X4
G3 X7.413 Y32 I0.001 J3.413
G1 Y137.005
G2 X9 Y138.592 I1.587
G1 X39
G2 X40.588 Y137.005 J-1.587
G3 X40.905 Y136.688 I0.318
G1 X41.223
G18 G2 X41.54 Z-13.933 K0.318
G1 Y137.322
Z-14.683
G3 X41.223 Z-15 I-0.318
G1 X40.905
G17 G3 X40.588 Y137.005 J-0.317
G1 Y32.005
G3 X44 Y28.592 I3.412
G1 X47
G2 X48.588 Y27.004 J-1.587
G1 Y4.006
G2 X44 Y-0.587 I-4.588 J-0.006
G1 X4
G2 X-0.587 Y4 J4.587
G1 Y27
G2 X1 Y28.587 I1.587
G1 X4
G3 X7.413 Y32 I0.001 J3.413
G1 Y137.005
G2 X9 Y138.592 I1.587
G1 X39
G2 X40.588 Y137.005 J-1.587
G3 X40.905 Y136.688 I0.318
G1 X41.223
G18 G2 X41.54 Z-14.683 K0.318
G1 Y137.322
Z-15.433
G3 X41.223 Z-15.75 I-0.318
G1 X40.905
G17 G3 X40.588 Y137.005 J-0.317
G1 Y32.005
G3 X44 Y28.592 I3.412
G1 X47
G2 X48.588 Y27.004 J-1.587
G1 Y4.006
G2 X44 Y-0.587 I-4.588 J-0.006
G1 X4
G2 X-0.587 Y4 J4.587
G1 Y27
G2 X1 Y28.587 I1.587
G1 X4
G3 X7.413 Y32 I0.001 J3.413
G1 Y137.005
G2 X9 Y138.592 I1.587
G1 X39
G2 X40.588 Y137.005 J-1.587
G3 X40.905 Y136.688 I0.318
G1 X41.223
G18 G2 X41.54 Z-15.433 K0.318
G1 Y137.322
Z-16.183
G3 X41.223 Z-16.5 I-0.318
G1 X40.905
G17 G3 X40.588 Y137.005 J-0.317
G1 Y32.005
G3 X44 Y28.592 I3.412
G1 X47
G2 X48.588 Y27.004 J-1.587
G1 Y4.006
G2 X44 Y-0.587 I-4.588 J-0.006
G1 X4
G2 X-0.587 Y4 J4.587
G1 Y27
G2 X1 Y28.587 I1.587
G1 X4
G3 X7.413 Y32 I0.001 J3.413
G1 Y137.005
G2 X9 Y138.592 I1.587
G1 X39
G2 X40.588 Y137.005 J-1.587
G3 X40.905 Y136.688 I0.318
G1 X41.223
G18 G2 X41.54 Z-16.183 K0.317
G1 Y137.322
Z-16.933
G3 X41.223 Z-17.25 I-0.318
G1 X40.905
G17 G3 X40.588 Y137.005 J-0.317
G1 Y32.005
G3 X44 Y28.592 I3.412
G1 X47
G2 X48.588 Y27.004 J-1.587
G1 Y4.006
G2 X44 Y-0.587 I-4.588 J-0.006
G1 X4
G2 X-0.587 Y4 J4.587
G1 Y27
G2 X1 Y28.587 I1.587
G1 X4
G3 X7.413 Y32 I0.001 J3.413
G1 Y137.005
G2 X9 Y138.592 I1.587
G1 X39
G2 X40.588 Y137.005 J-1.587
G3 X40.905 Y136.688 I0.318
G1 X41.223
G18 G2 X41.54 Z-16.933 K0.317
G1 Y137.322
Z-17.683
G3 X41.223 Z-18 I-0.318
G1 X40.905
G17 G3 X40.588 Y137.005 J-0.317
G1 Y32.005
G3 X44 Y28.592 I3.412
G1 X47
G2 X48.588 Y27.004 J-1.587
G1 Y4.006
G2 X44 Y-0.587 I-4.588 J-0.006
G1 X4
G2 X-0.587 Y4 J4.587
G1 Y27
G2 X1 Y28.587 I1.587
G1 X4
G3 X7.413 Y32 I0.001 J3.413
G1 Y137.005
G2 X9 Y138.592 I1.587
G1 X39
G2 X40.588 Y137.005 J-1.587
G3 X40.905 Y136.688 I0.318
G1 X41.223
G18 G2 X41.54 Z-17.683 K0.317
G1 Y137.322
Z-18.433
G3 X41.223 Z-18.75 I-0.318
G1 X40.905
G17 G3 X40.588 Y137.005 J-0.317
G1 Y32.005
G3 X44 Y28.592 I3.412
G1 X47
G2 X48.588 Y27.004 J-1.587
G1 Y4.006
G2 X44 Y-0.587 I-4.588 J-0.006
G1 X4
G2 X-0.587 Y4 J4.587
G1 Y27
G2 X1 Y28.587 I1.587
G1 X4
G3 X7.413 Y32 I0.001 J3.413
G1 Y137.005
G2 X9 Y138.592 I1.587
G1 X39
G2 X40.588 Y137.005 J-1.587
G3 X40.905 Y136.688 I0.318
G1 X41.223
G18 G2 X41.54 Z-18.433 K0.317
G1 Y137.322
Z-19.183
G3 X41.223 Z-19.5 I-0.318
G1 X40.905
G17 G3 X40.588 Y137.005 J-0.317
G1 Y32.005
G3 X44 Y28.592 I3.412
G1 X47
G2 X48.588 Y27.004 J-1.587
G1 Y4.006
G2 X44 Y-0.587 I-4.588 J-0.006
G1 X4
G2 X-0.587 Y4 J4.587
G1 Y27
G2 X1 Y28.587 I1.587
G1 X4
G3 X7.413 Y32 I0.001 J3.413
G1 Y137.005
G2 X9 Y138.592 I1.587
G1 X39
G2 X40.588 Y137.005 J-1.587
G3 X40.905 Y136.688 I0.318
G1 X41.223
G18 G2 X41.54 Z-19.183 K0.317
G1 Y137.322
Z-19.683
G3 X41.223 Z-20 I-0.318
G1 X40.905
G17 G3 X40.588 Y137.005 J-0.317
G1 Y32.005
G3 X44 Y28.592 I3.412
G1 X47
G2 X48.588 Y27.004 J-1.587
G1 Y4.006
G2 X44 Y-0.587 I-4.588 J-0.006
G1 X4
G2 X-0.587 Y4 J4.587
G1 Y27
G2 X1 Y28.587 I1.587
G1 X4
G3 X7.413 Y32 I0.001 J3.413
G1 Y137.005
G2 X9 Y138.592 I1.587
G1 X39
G2 X40.588 Y137.005 J-1.587
G3 X40.905 Y136.688 I0.318
G1 X41.223
G18 G2 X41.54 Z-19.683 K0.317
G0 Z15
G17
M9
G28 G91 Z0
G28 X0 Y0
M30
%
