%
(1)
(T1  D=3 CR=0 - ZMIN=-20 - flat end mill)
G90 G94
G17
G21
G28 G91 Z0
G90

(2D Pocket3)
M9
T1 M6
S17507 M3
G54
M8
G0 X-2.903 Y35.238
Z15
Z5
G1 Z-0.2 F600
X-2.896 Y35.24 Z-0.267
X-2.875 Y35.246 Z-0.33
X-2.84 Y35.256 Z-0.387
X-2.794 Y35.268 Z-0.435
X-2.74 Y35.283 Z-0.47
X-2.678 Y35.3 Z-0.492
X-2.614 Y35.318 Z-0.5
X-1.387 Y35.655
G2 X-0.301 Y35.882 I2.401 J-8.747
G3 X0.023 Y36.257 I-0.055 J0.374
G1 X-0.022 Y137.005
G2 X0.301 Y139.399 I9.022
X0.494 Y139.546 I0.193 J-0.053
G1 X47.506 Y139.549
G2 X47.698 Y139.402 J-0.2
X48.022 Y137.005 I-8.698 J-2.397
G1 X47.977 Y36.261
G3 X48.301 Y35.887 I0.378
G2 X49.387 Y35.659 I-1.314 J-8.975
G1 X49.399 Y35.656
X49.463 Y35.638 Z-0.492
X49.524 Y35.622 Z-0.47
X49.579 Y35.607 Z-0.435
X49.625 Y35.594 Z-0.387
X49.659 Y35.585 Z-0.33
X49.681 Y35.579 Z-0.267
X49.688 Y35.577 Z-0.2
G0 Z5
X-2.904 Y32.668
G1 Z-0.2 F600
X-2.897 Y32.671 Z-0.267
X-2.876 Y32.679 Z-0.33
X-2.843 Y32.692 Z-0.387
X-2.799 Y32.709 Z-0.435
X-2.746 Y32.729 Z-0.47
X-2.686 Y32.752 Z-0.492
X-2.624 Y32.775 Z-0.5
X-1.397 Y33.244
G2 X1 Y33.684 I2.384 J-6.244
X1.515 Y33.668 J-8.242
G3 X2.029 Y33.651 I0.515 J8.225
X2.349 Y33.971 J0.319
G1 X2.304 Y137.005
G2 X2.743 Y139.392 I6.697
X2.93 Y139.52 I0.187 J-0.071
G1 X45.07 Y139.521
G2 X45.257 Y139.393 J-0.2
X45.697 Y137.005 I-6.257 J-2.388
G1 X45.652 Y33.975
G3 X45.971 Y33.656 I0.319
X46.486 Y33.672 J8.238
G2 X47 Y33.688 I0.514 J-8.222
X49.387 Y33.249 J-6.697
G1 X49.397 Y33.244
X49.46 Y33.221 Z-0.492
X49.519 Y33.198 Z-0.47
X49.572 Y33.178 Z-0.435
X49.617 Y33.161 Z-0.387
X49.65 Y33.148 Z-0.33
X49.671 Y33.14 Z-0.267
X49.678 Y33.138 Z-0.2
G0 Z5
X-2.904 Y29.564
G1 Z-0.2 F600
X-2.898 Y29.568 Z-0.267
X-2.879 Y29.58 Z-0.33
X-2.85 Y29.6 Z-0.387
X-2.81 Y29.627 Z-0.435
X-2.763 Y29.658 Z-0.47
X-2.71 Y29.693 Z-0.492
X-2.655 Y29.73 Z-0.5
X-1.387 Y30.576
G2 X1 Y31.3 I2.387 J-3.577
G1 X4
G3 X4.7 Y32 J0.7
G1 Y137.005
G2 X5.429 Y139.401 I4.3
X5.596 Y139.489 I0.166 J-0.111
G1 X42.411 Y139.481
G2 X42.577 Y139.392 J-0.2
X43.3 Y137.005 I-3.577 J-2.387
G1 Y32.005
G3 X44 Y31.305 I0.7
G1 X47
G2 X49.396 Y30.575 J-4.3
X49.735 Y27.313 I-1.189 J-1.773
G3 X48.5 Y24.274 I3.119 J-3.039
G1 Y4.006
G2 X44 Y-0.5 I-4.5 J-0.006
G1 X4
G2 X-0.5 Y4 J4.5
G1 Y27
G2 X1 Y28.5 I1.5
G1 X4
G3 X7.5 Y32 I0.001 J3.5
G1 Y106.364
Y137.005
G2 X9 Y138.505 I1.5
G1 X39
G2 X40.5 Y137.005 J-1.5
G1 Y32.005
G3 X44 Y28.504 I3.5
G1 X47
G2 X48.5 Y27.004 J-1.5
G1 Y24.274
G3 X48.557 Y24.098 I0.3
G1 X49.439 Y22.884
X49.478 Y22.83 Z-0.492
X49.515 Y22.779 Z-0.47
X49.549 Y22.733 Z-0.435
X49.577 Y22.695 Z-0.387
X49.598 Y22.666 Z-0.33
X49.611 Y22.648 Z-0.267
X49.615 Y22.642 Z-0.2
G0 Z5
X-2.903 Y35.238
G1 Z-0.7 F600
X-2.896 Y35.24 Z-0.767
X-2.875 Y35.246 Z-0.83
X-2.84 Y35.256 Z-0.887
X-2.794 Y35.268 Z-0.935
X-2.74 Y35.283 Z-0.97
X-2.678 Y35.3 Z-0.992
X-2.614 Y35.318 Z-1
X-1.387 Y35.655
G2 X-0.301 Y35.882 I2.401 J-8.747
G3 X0.023 Y36.257 I-0.055 J0.374
G1 X-0.022 Y137.005
G2 X0.301 Y139.399 I9.022
X0.494 Y139.546 I0.193 J-0.053
G1 X47.506 Y139.549
G2 X47.698 Y139.402 J-0.2
X48.022 Y137.005 I-8.698 J-2.397
G1 X47.977 Y36.261
G3 X48.301 Y35.887 I0.378
G2 X49.387 Y35.659 I-1.314 J-8.975
G1 X49.399 Y35.656
X49.463 Y35.638 Z-0.992
X49.524 Y35.622 Z-0.97
X49.579 Y35.607 Z-0.935
X49.625 Y35.594 Z-0.887
X49.659 Y35.585 Z-0.83
X49.681 Y35.579 Z-0.767
X49.688 Y35.577 Z-0.7
G0 Z5
X-2.904 Y32.668
G1 Z-0.7 F600
X-2.897 Y32.671 Z-0.767
X-2.876 Y32.679 Z-0.83
X-2.843 Y32.692 Z-0.887
X-2.799 Y32.709 Z-0.935
X-2.746 Y32.729 Z-0.97
X-2.686 Y32.752 Z-0.992
X-2.624 Y32.775 Z-1
X-1.397 Y33.244
G2 X1 Y33.684 I2.384 J-6.244
X1.515 Y33.668 J-8.242
G3 X2.029 Y33.651 I0.515 J8.225
X2.349 Y33.971 J0.319
G1 X2.304 Y137.005
G2 X2.743 Y139.392 I6.697
X2.93 Y139.52 I0.187 J-0.071
G1 X45.07 Y139.521
G2 X45.257 Y139.393 J-0.2
X45.697 Y137.005 I-6.257 J-2.388
G1 X45.652 Y33.975
G3 X45.971 Y33.656 I0.319
X46.486 Y33.672 J8.238
G2 X47 Y33.688 I0.514 J-8.222
X49.387 Y33.249 J-6.697
G1 X49.397 Y33.244
X49.46 Y33.221 Z-0.992
X49.519 Y33.198 Z-0.97
X49.572 Y33.178 Z-0.935
X49.617 Y33.161 Z-0.887
X49.65 Y33.148 Z-0.83
X49.671 Y33.14 Z-0.767
X49.678 Y33.138 Z-0.7
G0 Z5
X-2.904 Y29.564
G1 Z-0.7 F600
X-2.898 Y29.568 Z-0.767
X-2.879 Y29.58 Z-0.83
X-2.85 Y29.6 Z-0.887
X-2.81 Y29.627 Z-0.935
X-2.763 Y29.658 Z-0.97
X-2.71 Y29.693 Z-0.992
X-2.655 Y29.73 Z-1
X-1.387 Y30.576
G2 X1 Y31.3 I2.387 J-3.577
G1 X4
G3 X4.7 Y32 J0.7
G1 Y137.005
G2 X5.429 Y139.401 I4.3
X5.596 Y139.489 I0.166 J-0.111
G1 X42.411 Y139.481
G2 X42.577 Y139.392 J-0.2
X43.3 Y137.005 I-3.577 J-2.387
G1 Y32.005
G3 X44 Y31.305 I0.7
G1 X47
G2 X49.396 Y30.575 J-4.3
X49.735 Y27.313 I-1.189 J-1.773
G3 X48.5 Y24.274 I3.119 J-3.039
G1 Y4.006
G2 X44 Y-0.5 I-4.5 J-0.006
G1 X4
G2 X-0.5 Y4 J4.5
G1 Y27
G2 X1 Y28.5 I1.5
G1 X4
G3 X7.5 Y32 I0.001 J3.5
G1 Y106.364
Y137.005
G2 X9 Y138.505 I1.5
G1 X39
G2 X40.5 Y137.005 J-1.5
G1 Y32.005
G3 X44 Y28.504 I3.5
G1 X47
G2 X48.5 Y27.004 J-1.5
G1 Y24.274
G3 X48.557 Y24.098 I0.3
G1 X49.439 Y22.884
X49.478 Y22.83 Z-0.992
X49.515 Y22.779 Z-0.97
X49.549 Y22.733 Z-0.935
X49.577 Y22.695 Z-0.887
X49.598 Y22.666 Z-0.83
X49.611 Y22.648 Z-0.767
X49.615 Y22.642 Z-0.7
G0 Z5
X-2.903 Y35.238
G1 Z-1.2 F600
X-2.896 Y35.24 Z-1.267
X-2.875 Y35.246 Z-1.33
X-2.84 Y35.256 Z-1.387
X-2.794 Y35.268 Z-1.435
X-2.74 Y35.283 Z-1.47
X-2.678 Y35.3 Z-1.492
X-2.614 Y35.318 Z-1.5
X-1.387 Y35.655
G2 X-0.301 Y35.882 I2.401 J-8.747
G3 X0.023 Y36.257 I-0.055 J0.374
G1 X-0.022 Y137.005
G2 X0.301 Y139.399 I9.022
X0.494 Y139.546 I0.193 J-0.053
G1 X47.506 Y139.549
G2 X47.698 Y139.402 J-0.2
X48.022 Y137.005 I-8.698 J-2.397
G1 X47.977 Y36.261
G3 X48.301 Y35.887 I0.378
G2 X49.387 Y35.659 I-1.314 J-8.975
G1 X49.399 Y35.656
X49.463 Y35.638 Z-1.492
X49.524 Y35.622 Z-1.47
X49.579 Y35.607 Z-1.435
X49.625 Y35.594 Z-1.387
X49.659 Y35.585 Z-1.33
X49.681 Y35.579 Z-1.267
X49.688 Y35.577 Z-1.2
G0 Z5
X-2.904 Y32.668
G1 Z-1.2 F600
X-2.897 Y32.671 Z-1.267
X-2.876 Y32.679 Z-1.33
X-2.843 Y32.692 Z-1.387
X-2.799 Y32.709 Z-1.435
X-2.746 Y32.729 Z-1.47
X-2.686 Y32.752 Z-1.492
X-2.624 Y32.775 Z-1.5
X-1.397 Y33.244
G2 X1 Y33.684 I2.384 J-6.244
X1.515 Y33.668 J-8.242
G3 X2.029 Y33.651 I0.515 J8.225
X2.349 Y33.971 J0.319
G1 X2.304 Y137.005
G2 X2.743 Y139.392 I6.697
X2.93 Y139.52 I0.187 J-0.071
G1 X45.07 Y139.521
G2 X45.257 Y139.393 J-0.2
X45.697 Y137.005 I-6.257 J-2.388
G1 X45.652 Y33.975
G3 X45.971 Y33.656 I0.319
X46.486 Y33.672 J8.238
G2 X47 Y33.688 I0.514 J-8.222
X49.387 Y33.249 J-6.697
G1 X49.397 Y33.244
X49.46 Y33.221 Z-1.492
X49.519 Y33.198 Z-1.47
X49.572 Y33.178 Z-1.435
X49.617 Y33.161 Z-1.387
X49.65 Y33.148 Z-1.33
X49.671 Y33.14 Z-1.267
X49.678 Y33.138 Z-1.2
G0 Z5
X-2.904 Y29.564
G1 Z-1.2 F600
X-2.898 Y29.568 Z-1.267
X-2.879 Y29.58 Z-1.33
X-2.85 Y29.6 Z-1.387
X-2.81 Y29.627 Z-1.435
X-2.763 Y29.658 Z-1.47
X-2.71 Y29.693 Z-1.492
X-2.655 Y29.73 Z-1.5
X-1.387 Y30.576
G2 X1 Y31.3 I2.387 J-3.577
G1 X4
G3 X4.7 Y32 J0.7
G1 Y137.005
G2 X5.429 Y139.401 I4.3
X5.596 Y139.489 I0.166 J-0.111
G1 X42.411 Y139.481
G2 X42.577 Y139.392 J-0.2
X43.3 Y137.005 I-3.577 J-2.387
G1 Y32.005
G3 X44 Y31.305 I0.7
G1 X47
G2 X49.396 Y30.575 J-4.3
X49.735 Y27.313 I-1.189 J-1.773
G3 X48.5 Y24.274 I3.119 J-3.039
G1 Y4.006
G2 X44 Y-0.5 I-4.5 J-0.006
G1 X4
G2 X-0.5 Y4 J4.5
G1 Y27
G2 X1 Y28.5 I1.5
G1 X4
G3 X7.5 Y32 I0.001 J3.5
G1 Y106.364
Y137.005
G2 X9 Y138.505 I1.5
G1 X39
G2 X40.5 Y137.005 J-1.5
G1 Y32.005
G3 X44 Y28.504 I3.5
G1 X47
G2 X48.5 Y27.004 J-1.5
G1 Y24.274
G3 X48.557 Y24.098 I0.3
G1 X49.439 Y22.884
X49.478 Y22.83 Z-1.492
X49.515 Y22.779 Z-1.47
X49.549 Y22.733 Z-1.435
X49.577 Y22.695 Z-1.387
X49.598 Y22.666 Z-1.33
X49.611 Y22.648 Z-1.267
X49.615 Y22.642 Z-1.2
G0 Z5
X-2.903 Y35.238
G1 Z-1.7 F600
X-2.896 Y35.24 Z-1.767
X-2.875 Y35.246 Z-1.83
X-2.84 Y35.256 Z-1.887
X-2.794 Y35.268 Z-1.935
X-2.74 Y35.283 Z-1.97
X-2.678 Y35.3 Z-1.992
X-2.614 Y35.318 Z-2
X-1.387 Y35.655
G2 X-0.301 Y35.882 I2.401 J-8.747
G3 X0.023 Y36.257 I-0.055 J0.374
G1 X-0.022 Y137.005
G2 X0.301 Y139.399 I9.022
X0.494 Y139.546 I0.193 J-0.053
G1 X47.506 Y139.549
G2 X47.698 Y139.402 J-0.2
X48.022 Y137.005 I-8.698 J-2.397
G1 X47.977 Y36.261
G3 X48.301 Y35.887 I0.378
G2 X49.387 Y35.659 I-1.314 J-8.975
G1 X49.399 Y35.656
X49.463 Y35.638 Z-1.992
X49.524 Y35.622 Z-1.97
X49.579 Y35.607 Z-1.935
X49.625 Y35.594 Z-1.887
X49.659 Y35.585 Z-1.83
X49.681 Y35.579 Z-1.767
X49.688 Y35.577 Z-1.7
G0 Z5
X-2.904 Y32.668
G1 Z-1.7 F600
X-2.897 Y32.671 Z-1.767
X-2.876 Y32.679 Z-1.83
X-2.843 Y32.692 Z-1.887
X-2.799 Y32.709 Z-1.935
X-2.746 Y32.729 Z-1.97
X-2.686 Y32.752 Z-1.992
X-2.624 Y32.775 Z-2
X-1.397 Y33.244
G2 X1 Y33.684 I2.384 J-6.244
X1.515 Y33.668 J-8.242
G3 X2.029 Y33.651 I0.515 J8.225
X2.349 Y33.971 J0.319
G1 X2.304 Y137.005
G2 X2.743 Y139.392 I6.697
X2.93 Y139.52 I0.187 J-0.071
G1 X45.07 Y139.521
G2 X45.257 Y139.393 J-0.2
X45.697 Y137.005 I-6.257 J-2.388
G1 X45.652 Y33.975
G3 X45.971 Y33.656 I0.319
X46.486 Y33.672 J8.238
G2 X47 Y33.688 I0.514 J-8.222
X49.387 Y33.249 J-6.697
G1 X49.397 Y33.244
X49.46 Y33.221 Z-1.992
X49.519 Y33.198 Z-1.97
X49.572 Y33.178 Z-1.935
X49.617 Y33.161 Z-1.887
X49.65 Y33.148 Z-1.83
X49.671 Y33.14 Z-1.767
X49.678 Y33.138 Z-1.7
G0 Z5
X-2.904 Y29.564
G1 Z-1.7 F600
X-2.898 Y29.568 Z-1.767
X-2.879 Y29.58 Z-1.83
X-2.85 Y29.6 Z-1.887
X-2.81 Y29.627 Z-1.935
X-2.763 Y29.658 Z-1.97
X-2.71 Y29.693 Z-1.992
X-2.655 Y29.73 Z-2
X-1.387 Y30.576
G2 X1 Y31.3 I2.387 J-3.577
G1 X4
G3 X4.7 Y32 J0.7
G1 Y137.005
G2 X5.429 Y139.401 I4.3
X5.596 Y139.489 I0.166 J-0.111
G1 X42.411 Y139.481
G2 X42.577 Y139.392 J-0.2
X43.3 Y137.005 I-3.577 J-2.387
G1 Y32.005
G3 X44 Y31.305 I0.7
G1 X47
G2 X49.396 Y30.575 J-4.3
X49.735 Y27.313 I-1.189 J-1.773
G3 X48.5 Y24.274 I3.119 J-3.039
G1 Y4.006
G2 X44 Y-0.5 I-4.5 J-0.006
G1 X4
G2 X-0.5 Y4 J4.5
G1 Y27
G2 X1 Y28.5 I1.5
G1 X4
G3 X7.5 Y32 I0.001 J3.5
G1 Y106.364
Y137.005
G2 X9 Y138.505 I1.5
G1 X39
G2 X40.5 Y137.005 J-1.5
G1 Y32.005
G3 X44 Y28.504 I3.5
G1 X47
G2 X48.5 Y27.004 J-1.5
G1 Y24.274
G3 X48.557 Y24.098 I0.3
G1 X49.439 Y22.884
X49.478 Y22.83 Z-1.992
X49.515 Y22.779 Z-1.97
X49.549 Y22.733 Z-1.935
X49.577 Y22.695 Z-1.887
X49.598 Y22.666 Z-1.83
X49.611 Y22.648 Z-1.767
X49.615 Y22.642 Z-1.7
G0 Z5
X-2.903 Y35.238
G1 Z-2.2 F600
X-2.896 Y35.24 Z-2.267
X-2.875 Y35.246 Z-2.33
X-2.84 Y35.256 Z-2.387
X-2.794 Y35.268 Z-2.435
X-2.74 Y35.283 Z-2.47
X-2.678 Y35.3 Z-2.492
X-2.614 Y35.318 Z-2.5
X-1.387 Y35.655
G2 X-0.301 Y35.882 I2.401 J-8.747
G3 X0.023 Y36.257 I-0.055 J0.374
G1 X-0.022 Y137.005
G2 X0.301 Y139.399 I9.022
X0.494 Y139.546 I0.193 J-0.053
G1 X47.506 Y139.549
G2 X47.698 Y139.402 J-0.2
X48.022 Y137.005 I-8.698 J-2.397
G1 X47.977 Y36.261
G3 X48.301 Y35.887 I0.378
G2 X49.387 Y35.659 I-1.314 J-8.975
G1 X49.399 Y35.656
X49.463 Y35.638 Z-2.492
X49.524 Y35.622 Z-2.47
X49.579 Y35.607 Z-2.435
X49.625 Y35.594 Z-2.387
X49.659 Y35.585 Z-2.33
X49.681 Y35.579 Z-2.267
X49.688 Y35.577 Z-2.2
G0 Z5
X-2.904 Y32.668
G1 Z-2.2 F600
X-2.897 Y32.671 Z-2.267
X-2.876 Y32.679 Z-2.33
X-2.843 Y32.692 Z-2.387
X-2.799 Y32.709 Z-2.435
X-2.746 Y32.729 Z-2.47
X-2.686 Y32.752 Z-2.492
X-2.624 Y32.775 Z-2.5
X-1.397 Y33.244
G2 X1 Y33.684 I2.384 J-6.244
X1.515 Y33.668 J-8.242
G3 X2.029 Y33.651 I0.515 J8.225
X2.349 Y33.971 J0.319
G1 X2.304 Y137.005
G2 X2.743 Y139.392 I6.697
X2.93 Y139.52 I0.187 J-0.071
G1 X45.07 Y139.521
G2 X45.257 Y139.393 J-0.2
X45.697 Y137.005 I-6.257 J-2.388
G1 X45.652 Y33.975
G3 X45.971 Y33.656 I0.319
X46.486 Y33.672 J8.238
G2 X47 Y33.688 I0.514 J-8.222
X49.387 Y33.249 J-6.697
G1 X49.397 Y33.244
X49.46 Y33.221 Z-2.492
X49.519 Y33.198 Z-2.47
X49.572 Y33.178 Z-2.435
X49.617 Y33.161 Z-2.387
X49.65 Y33.148 Z-2.33
X49.671 Y33.14 Z-2.267
X49.678 Y33.138 Z-2.2
G0 Z5
X-2.904 Y29.564
G1 Z-2.2 F600
X-2.898 Y29.568 Z-2.267
X-2.879 Y29.58 Z-2.33
X-2.85 Y29.6 Z-2.387
X-2.81 Y29.627 Z-2.435
X-2.763 Y29.658 Z-2.47
X-2.71 Y29.693 Z-2.492
X-2.655 Y29.73 Z-2.5
X-1.387 Y30.576
G2 X1 Y31.3 I2.387 J-3.577
G1 X4
G3 X4.7 Y32 J0.7
G1 Y137.005
G2 X5.429 Y139.401 I4.3
X5.596 Y139.489 I0.166 J-0.111
G1 X42.411 Y139.481
G2 X42.577 Y139.392 J-0.2
X43.3 Y137.005 I-3.577 J-2.387
G1 Y32.005
G3 X44 Y31.305 I0.7
G1 X47
G2 X49.396 Y30.575 J-4.3
X49.735 Y27.313 I-1.189 J-1.773
G3 X48.5 Y24.274 I3.119 J-3.039
G1 Y4.006
G2 X44 Y-0.5 I-4.5 J-0.006
G1 X4
G2 X-0.5 Y4 J4.5
G1 Y27
G2 X1 Y28.5 I1.5
G1 X4
G3 X7.5 Y32 I0.001 J3.5
G1 Y106.364
Y137.005
G2 X9 Y138.505 I1.5
G1 X39
G2 X40.5 Y137.005 J-1.5
G1 Y32.005
G3 X44 Y28.504 I3.5
G1 X47
G2 X48.5 Y27.004 J-1.5
G1 Y24.274
G3 X48.557 Y24.098 I0.3
G1 X49.439 Y22.884
X49.478 Y22.83 Z-2.492
X49.515 Y22.779 Z-2.47
X49.549 Y22.733 Z-2.435
X49.577 Y22.695 Z-2.387
X49.598 Y22.666 Z-2.33
X49.611 Y22.648 Z-2.267
X49.615 Y22.642 Z-2.2
G0 Z5
X-2.903 Y35.238
G1 Z-2.7 F600
X-2.896 Y35.24 Z-2.767
X-2.875 Y35.246 Z-2.83
X-2.84 Y35.256 Z-2.887
X-2.794 Y35.268 Z-2.935
X-2.74 Y35.283 Z-2.97
X-2.678 Y35.3 Z-2.992
X-2.614 Y35.318 Z-3
X-1.387 Y35.655
G2 X-0.301 Y35.882 I2.401 J-8.747
G3 X0.023 Y36.257 I-0.055 J0.374
G1 X-0.022 Y137.005
G2 X0.301 Y139.399 I9.022
X0.494 Y139.546 I0.193 J-0.053
G1 X47.506 Y139.549
G2 X47.698 Y139.402 J-0.2
X48.022 Y137.005 I-8.698 J-2.397
G1 X47.977 Y36.261
G3 X48.301 Y35.887 I0.378
G2 X49.387 Y35.659 I-1.314 J-8.975
G1 X49.399 Y35.656
X49.463 Y35.638 Z-2.992
X49.524 Y35.622 Z-2.97
X49.579 Y35.607 Z-2.935
X49.625 Y35.594 Z-2.887
X49.659 Y35.585 Z-2.83
X49.681 Y35.579 Z-2.767
X49.688 Y35.577 Z-2.7
G0 Z5
X-2.904 Y32.668
G1 Z-2.7 F600
X-2.897 Y32.671 Z-2.767
X-2.876 Y32.679 Z-2.83
X-2.843 Y32.692 Z-2.887
X-2.799 Y32.709 Z-2.935
X-2.746 Y32.729 Z-2.97
X-2.686 Y32.752 Z-2.992
X-2.624 Y32.775 Z-3
X-1.397 Y33.244
G2 X1 Y33.684 I2.384 J-6.244
X1.515 Y33.668 J-8.242
G3 X2.029 Y33.651 I0.515 J8.225
X2.349 Y33.971 J0.319
G1 X2.304 Y137.005
G2 X2.743 Y139.392 I6.697
X2.93 Y139.52 I0.187 J-0.071
G1 X45.07 Y139.521
G2 X45.257 Y139.393 J-0.2
X45.697 Y137.005 I-6.257 J-2.388
G1 X45.652 Y33.975
G3 X45.971 Y33.656 I0.319
X46.486 Y33.672 J8.238
G2 X47 Y33.688 I0.514 J-8.222
X49.387 Y33.249 J-6.697
G1 X49.397 Y33.244
X49.46 Y33.221 Z-2.992
X49.519 Y33.198 Z-2.97
X49.572 Y33.178 Z-2.935
X49.617 Y33.161 Z-2.887
X49.65 Y33.148 Z-2.83
X49.671 Y33.14 Z-2.767
X49.678 Y33.138 Z-2.7
G0 Z5
X-2.904 Y29.564
G1 Z-2.7 F600
X-2.898 Y29.568 Z-2.767
X-2.879 Y29.58 Z-2.83
X-2.85 Y29.6 Z-2.887
X-2.81 Y29.627 Z-2.935
X-2.763 Y29.658 Z-2.97
X-2.71 Y29.693 Z-2.992
X-2.655 Y29.73 Z-3
X-1.387 Y30.576
G2 X1 Y31.3 I2.387 J-3.577
G1 X4
G3 X4.7 Y32 J0.7
G1 Y137.005
G2 X5.429 Y139.401 I4.3
X5.596 Y139.489 I0.166 J-0.111
G1 X42.411 Y139.481
G2 X42.577 Y139.392 J-0.2
X43.3 Y137.005 I-3.577 J-2.387
G1 Y32.005
G3 X44 Y31.305 I0.7
G1 X47
G2 X49.396 Y30.575 J-4.3
X49.735 Y27.313 I-1.189 J-1.773
G3 X48.5 Y24.274 I3.119 J-3.039
G1 Y4.006
G2 X44 Y-0.5 I-4.5 J-0.006
G1 X4
G2 X-0.5 Y4 J4.5
G1 Y27
G2 X1 Y28.5 I1.5
G1 X4
G3 X7.5 Y32 I0.001 J3.5
G1 Y106.364
Y137.005
G2 X9 Y138.505 I1.5
G1 X39
G2 X40.5 Y137.005 J-1.5
G1 Y32.005
G3 X44 Y28.504 I3.5
G1 X47
G2 X48.5 Y27.004 J-1.5
G1 Y24.274
G3 X48.557 Y24.098 I0.3
G1 X49.439 Y22.884
X49.478 Y22.83 Z-2.992
X49.515 Y22.779 Z-2.97
X49.549 Y22.733 Z-2.935
X49.577 Y22.695 Z-2.887
X49.598 Y22.666 Z-2.83
X49.611 Y22.648 Z-2.767
X49.615 Y22.642 Z-2.7
G0 Z5
X-2.903 Y35.238
G1 Z-3.2 F600
X-2.896 Y35.24 Z-3.267
X-2.875 Y35.246 Z-3.33
X-2.84 Y35.256 Z-3.387
X-2.794 Y35.268 Z-3.435
X-2.74 Y35.283 Z-3.47
X-2.678 Y35.3 Z-3.492
X-2.614 Y35.318 Z-3.5
X-1.387 Y35.655
G2 X-0.301 Y35.882 I2.401 J-8.747
G3 X0.023 Y36.257 I-0.055 J0.374
G1 X-0.022 Y137.005
G2 X0.301 Y139.399 I9.022
X0.494 Y139.546 I0.193 J-0.053
G1 X47.506 Y139.549
G2 X47.698 Y139.402 J-0.2
X48.022 Y137.005 I-8.698 J-2.397
G1 X47.977 Y36.261
G3 X48.301 Y35.887 I0.378
G2 X49.387 Y35.659 I-1.314 J-8.975
G1 X49.399 Y35.656
X49.463 Y35.638 Z-3.492
X49.524 Y35.622 Z-3.47
X49.579 Y35.607 Z-3.435
X49.625 Y35.594 Z-3.387
X49.659 Y35.585 Z-3.33
X49.681 Y35.579 Z-3.267
X49.688 Y35.577 Z-3.2
G0 Z5
X-2.904 Y32.668
G1 Z-3.2 F600
X-2.897 Y32.671 Z-3.267
X-2.876 Y32.679 Z-3.33
X-2.843 Y32.692 Z-3.387
X-2.799 Y32.709 Z-3.435
X-2.746 Y32.729 Z-3.47
X-2.686 Y32.752 Z-3.492
X-2.624 Y32.775 Z-3.5
X-1.397 Y33.244
G2 X1 Y33.684 I2.384 J-6.244
X1.515 Y33.668 J-8.242
G3 X2.029 Y33.651 I0.515 J8.225
X2.349 Y33.971 J0.319
G1 X2.304 Y137.005
G2 X2.743 Y139.392 I6.697
X2.93 Y139.52 I0.187 J-0.071
G1 X45.07 Y139.521
G2 X45.257 Y139.393 J-0.2
X45.697 Y137.005 I-6.257 J-2.388
G1 X45.652 Y33.975
G3 X45.971 Y33.656 I0.319
X46.486 Y33.672 J8.238
G2 X47 Y33.688 I0.514 J-8.222
X49.387 Y33.249 J-6.697
G1 X49.397 Y33.244
X49.46 Y33.221 Z-3.492
X49.519 Y33.198 Z-3.47
X49.572 Y33.178 Z-3.435
X49.617 Y33.161 Z-3.387
X49.65 Y33.148 Z-3.33
X49.671 Y33.14 Z-3.267
X49.678 Y33.138 Z-3.2
G0 Z5
X-2.904 Y29.564
G1 Z-3.2 F600
X-2.898 Y29.568 Z-3.267
X-2.879 Y29.58 Z-3.33
X-2.85 Y29.6 Z-3.387
X-2.81 Y29.627 Z-3.435
X-2.763 Y29.658 Z-3.47
X-2.71 Y29.693 Z-3.492
X-2.655 Y29.73 Z-3.5
X-1.387 Y30.576
G2 X1 Y31.3 I2.387 J-3.577
G1 X4
G3 X4.7 Y32 J0.7
G1 Y137.005
G2 X5.429 Y139.401 I4.3
X5.596 Y139.489 I0.166 J-0.111
G1 X42.411 Y139.481
G2 X42.577 Y139.392 J-0.2
X43.3 Y137.005 I-3.577 J-2.387
G1 Y32.005
G3 X44 Y31.305 I0.7
G1 X47
G2 X49.396 Y30.575 J-4.3
X49.735 Y27.313 I-1.189 J-1.773
G3 X48.5 Y24.274 I3.119 J-3.039
G1 Y4.006
G2 X44 Y-0.5 I-4.5 J-0.006
G1 X4
G2 X-0.5 Y4 J4.5
G1 Y27
G2 X1 Y28.5 I1.5
G1 X4
G3 X7.5 Y32 I0.001 J3.5
G1 Y106.364
Y137.005
G2 X9 Y138.505 I1.5
G1 X39
G2 X40.5 Y137.005 J-1.5
G1 Y32.005
G3 X44 Y28.504 I3.5
G1 X47
G2 X48.5 Y27.004 J-1.5
G1 Y24.274
G3 X48.557 Y24.098 I0.3
G1 X49.439 Y22.884
X49.478 Y22.83 Z-3.492
X49.515 Y22.779 Z-3.47
X49.549 Y22.733 Z-3.435
X49.577 Y22.695 Z-3.387
X49.598 Y22.666 Z-3.33
X49.611 Y22.648 Z-3.267
X49.615 Y22.642 Z-3.2
G0 Z5
X-2.903 Y35.238
G1 Z-3.7 F600
X-2.896 Y35.24 Z-3.767
X-2.875 Y35.246 Z-3.83
X-2.84 Y35.256 Z-3.887
X-2.794 Y35.268 Z-3.935
X-2.74 Y35.283 Z-3.97
X-2.678 Y35.3 Z-3.992
X-2.614 Y35.318 Z-4
X-1.387 Y35.655
G2 X-0.301 Y35.882 I2.401 J-8.747
G3 X0.023 Y36.257 I-0.055 J0.374
G1 X-0.022 Y137.005
G2 X0.301 Y139.399 I9.022
X0.494 Y139.546 I0.193 J-0.053
G1 X47.506 Y139.549
G2 X47.698 Y139.402 J-0.2
X48.022 Y137.005 I-8.698 J-2.397
G1 X47.977 Y36.261
G3 X48.301 Y35.887 I0.378
G2 X49.387 Y35.659 I-1.314 J-8.975
G1 X49.399 Y35.656
X49.463 Y35.638 Z-3.992
X49.524 Y35.622 Z-3.97
X49.579 Y35.607 Z-3.935
X49.625 Y35.594 Z-3.887
X49.659 Y35.585 Z-3.83
X49.681 Y35.579 Z-3.767
X49.688 Y35.577 Z-3.7
G0 Z5
X-2.904 Y32.668
G1 Z-3.7 F600
X-2.897 Y32.671 Z-3.767
X-2.876 Y32.679 Z-3.83
X-2.843 Y32.692 Z-3.887
X-2.799 Y32.709 Z-3.935
X-2.746 Y32.729 Z-3.97
X-2.686 Y32.752 Z-3.992
X-2.624 Y32.775 Z-4
X-1.397 Y33.244
G2 X1 Y33.684 I2.384 J-6.244
X1.515 Y33.668 J-8.242
G3 X2.029 Y33.651 I0.515 J8.225
X2.349 Y33.971 J0.319
G1 X2.304 Y137.005
G2 X2.743 Y139.392 I6.697
X2.93 Y139.52 I0.187 J-0.071
G1 X45.07 Y139.521
G2 X45.257 Y139.393 J-0.2
X45.697 Y137.005 I-6.257 J-2.388
G1 X45.652 Y33.975
G3 X45.971 Y33.656 I0.319
X46.486 Y33.672 J8.238
G2 X47 Y33.688 I0.514 J-8.222
X49.387 Y33.249 J-6.697
G1 X49.397 Y33.244
X49.46 Y33.221 Z-3.992
X49.519 Y33.198 Z-3.97
X49.572 Y33.178 Z-3.935
X49.617 Y33.161 Z-3.887
X49.65 Y33.148 Z-3.83
X49.671 Y33.14 Z-3.767
X49.678 Y33.138 Z-3.7
G0 Z5
X-2.904 Y29.564
G1 Z-3.7 F600
X-2.898 Y29.568 Z-3.767
X-2.879 Y29.58 Z-3.83
X-2.85 Y29.6 Z-3.887
X-2.81 Y29.627 Z-3.935
X-2.763 Y29.658 Z-3.97
X-2.71 Y29.693 Z-3.992
X-2.655 Y29.73 Z-4
X-1.387 Y30.576
G2 X1 Y31.3 I2.387 J-3.577
G1 X4
G3 X4.7 Y32 J0.7
G1 Y137.005
G2 X5.429 Y139.401 I4.3
X5.596 Y139.489 I0.166 J-0.111
G1 X42.411 Y139.481
G2 X42.577 Y139.392 J-0.2
X43.3 Y137.005 I-3.577 J-2.387
G1 Y32.005
G3 X44 Y31.305 I0.7
G1 X47
G2 X49.396 Y30.575 J-4.3
X49.735 Y27.313 I-1.189 J-1.773
G3 X48.5 Y24.274 I3.119 J-3.039
G1 Y4.006
G2 X44 Y-0.5 I-4.5 J-0.006
G1 X4
G2 X-0.5 Y4 J4.5
G1 Y27
G2 X1 Y28.5 I1.5
G1 X4
G3 X7.5 Y32 I0.001 J3.5
G1 Y106.364
Y137.005
G2 X9 Y138.505 I1.5
G1 X39
G2 X40.5 Y137.005 J-1.5
G1 Y32.005
G3 X44 Y28.504 I3.5
G1 X47
G2 X48.5 Y27.004 J-1.5
G1 Y24.274
G3 X48.557 Y24.098 I0.3
G1 X49.439 Y22.884
X49.478 Y22.83 Z-3.992
X49.515 Y22.779 Z-3.97
X49.549 Y22.733 Z-3.935
X49.577 Y22.695 Z-3.887
X49.598 Y22.666 Z-3.83
X49.611 Y22.648 Z-3.767
X49.615 Y22.642 Z-3.7
G0 Z5
X-2.903 Y35.238
G1 Z-4.2 F600
X-2.896 Y35.24 Z-4.267
X-2.875 Y35.246 Z-4.33
X-2.84 Y35.256 Z-4.387
X-2.794 Y35.268 Z-4.435
X-2.74 Y35.283 Z-4.47
X-2.678 Y35.3 Z-4.492
X-2.614 Y35.318 Z-4.5
X-1.387 Y35.655
G2 X-0.301 Y35.882 I2.401 J-8.747
G3 X0.023 Y36.257 I-0.055 J0.374
G1 X-0.022 Y137.005
G2 X0.301 Y139.399 I9.022
X0.494 Y139.546 I0.193 J-0.053
G1 X47.506 Y139.549
G2 X47.698 Y139.402 J-0.2
X48.022 Y137.005 I-8.698 J-2.397
G1 X47.977 Y36.261
G3 X48.301 Y35.887 I0.378
G2 X49.387 Y35.659 I-1.314 J-8.975
G1 X49.399 Y35.656
X49.463 Y35.638 Z-4.492
X49.524 Y35.622 Z-4.47
X49.579 Y35.607 Z-4.435
X49.625 Y35.594 Z-4.387
X49.659 Y35.585 Z-4.33
X49.681 Y35.579 Z-4.267
X49.688 Y35.577 Z-4.2
G0 Z5
X-2.904 Y32.668
G1 Z-4.2 F600
X-2.897 Y32.671 Z-4.267
X-2.876 Y32.679 Z-4.33
X-2.843 Y32.692 Z-4.387
X-2.799 Y32.709 Z-4.435
X-2.746 Y32.729 Z-4.47
X-2.686 Y32.752 Z-4.492
X-2.624 Y32.775 Z-4.5
X-1.397 Y33.244
G2 X1 Y33.684 I2.384 J-6.244
X1.515 Y33.668 J-8.242
G3 X2.029 Y33.651 I0.515 J8.225
X2.349 Y33.971 J0.319
G1 X2.304 Y137.005
G2 X2.743 Y139.392 I6.697
X2.93 Y139.52 I0.187 J-0.071
G1 X45.07 Y139.521
G2 X45.257 Y139.393 J-0.2
X45.697 Y137.005 I-6.257 J-2.388
G1 X45.652 Y33.975
G3 X45.971 Y33.656 I0.319
X46.486 Y33.672 J8.238
G2 X47 Y33.688 I0.514 J-8.222
X49.387 Y33.249 J-6.697
G1 X49.397 Y33.244
X49.46 Y33.221 Z-4.492
X49.519 Y33.198 Z-4.47
X49.572 Y33.178 Z-4.435
X49.617 Y33.161 Z-4.387
X49.65 Y33.148 Z-4.33
X49.671 Y33.14 Z-4.267
X49.678 Y33.138 Z-4.2
G0 Z5
X-2.904 Y29.564
G1 Z-4.2 F600
X-2.898 Y29.568 Z-4.267
X-2.879 Y29.58 Z-4.33
X-2.85 Y29.6 Z-4.387
X-2.81 Y29.627 Z-4.435
X-2.763 Y29.658 Z-4.47
X-2.71 Y29.693 Z-4.492
X-2.655 Y29.73 Z-4.5
X-1.387 Y30.576
G2 X1 Y31.3 I2.387 J-3.577
G1 X4
G3 X4.7 Y32 J0.7
G1 Y137.005
G2 X5.429 Y139.401 I4.3
X5.596 Y139.489 I0.166 J-0.111
G1 X42.411 Y139.481
G2 X42.577 Y139.392 J-0.2
X43.3 Y137.005 I-3.577 J-2.387
G1 Y32.005
G3 X44 Y31.305 I0.7
G1 X47
G2 X49.396 Y30.575 J-4.3
X49.735 Y27.313 I-1.189 J-1.773
G3 X48.5 Y24.274 I3.119 J-3.039
G1 Y4.006
G2 X44 Y-0.5 I-4.5 J-0.006
G1 X4
G2 X-0.5 Y4 J4.5
G1 Y27
G2 X1 Y28.5 I1.5
G1 X4
G3 X7.5 Y32 I0.001 J3.5
G1 Y106.364
Y137.005
G2 X9 Y138.505 I1.5
G1 X39
G2 X40.5 Y137.005 J-1.5
G1 Y32.005
G3 X44 Y28.504 I3.5
G1 X47
G2 X48.5 Y27.004 J-1.5
G1 Y24.274
G3 X48.557 Y24.098 I0.3
G1 X49.439 Y22.884
X49.478 Y22.83 Z-4.492
X49.515 Y22.779 Z-4.47
X49.549 Y22.733 Z-4.435
X49.577 Y22.695 Z-4.387
X49.598 Y22.666 Z-4.33
X49.611 Y22.648 Z-4.267
X49.615 Y22.642 Z-4.2
G0 Z5
X-2.903 Y35.238
G1 Z-4.7 F600
X-2.896 Y35.24 Z-4.767
X-2.875 Y35.246 Z-4.83
X-2.84 Y35.256 Z-4.887
X-2.794 Y35.268 Z-4.935
X-2.74 Y35.283 Z-4.97
X-2.678 Y35.3 Z-4.992
X-2.614 Y35.318 Z-5
X-1.387 Y35.655
G2 X-0.301 Y35.882 I2.401 J-8.747
G3 X0.023 Y36.257 I-0.055 J0.374
G1 X-0.022 Y137.005
G2 X0.301 Y139.399 I9.022
X0.494 Y139.546 I0.193 J-0.053
G1 X47.506 Y139.549
G2 X47.698 Y139.402 J-0.2
X48.022 Y137.005 I-8.698 J-2.397
G1 X47.977 Y36.261
G3 X48.301 Y35.887 I0.378
G2 X49.387 Y35.659 I-1.314 J-8.975
G1 X49.399 Y35.656
X49.463 Y35.638 Z-4.992
X49.524 Y35.622 Z-4.97
X49.579 Y35.607 Z-4.935
X49.625 Y35.594 Z-4.887
X49.659 Y35.585 Z-4.83
X49.681 Y35.579 Z-4.767
X49.688 Y35.577 Z-4.7
G0 Z5
X-2.904 Y32.668
G1 Z-4.7 F600
X-2.897 Y32.671 Z-4.767
X-2.876 Y32.679 Z-4.83
X-2.843 Y32.692 Z-4.887
X-2.799 Y32.709 Z-4.935
X-2.746 Y32.729 Z-4.97
X-2.686 Y32.752 Z-4.992
X-2.624 Y32.775 Z-5
X-1.397 Y33.244
G2 X1 Y33.684 I2.384 J-6.244
X1.515 Y33.668 J-8.242
G3 X2.029 Y33.651 I0.515 J8.225
X2.349 Y33.971 J0.319
G1 X2.304 Y137.005
G2 X2.743 Y139.392 I6.697
X2.93 Y139.52 I0.187 J-0.071
G1 X45.07 Y139.521
G2 X45.257 Y139.393 J-0.2
X45.697 Y137.005 I-6.257 J-2.388
G1 X45.652 Y33.975
G3 X45.971 Y33.656 I0.319
X46.486 Y33.672 J8.238
G2 X47 Y33.688 I0.514 J-8.222
X49.387 Y33.249 J-6.697
G1 X49.397 Y33.244
X49.46 Y33.221 Z-4.992
X49.519 Y33.198 Z-4.97
X49.572 Y33.178 Z-4.935
X49.617 Y33.161 Z-4.887
X49.65 Y33.148 Z-4.83
X49.671 Y33.14 Z-4.767
X49.678 Y33.138 Z-4.7
G0 Z5
X-2.904 Y29.564
G1 Z-4.7 F600
X-2.898 Y29.568 Z-4.767
X-2.879 Y29.58 Z-4.83
X-2.85 Y29.6 Z-4.887
X-2.81 Y29.627 Z-4.935
X-2.763 Y29.658 Z-4.97
X-2.71 Y29.693 Z-4.992
X-2.655 Y29.73 Z-5
X-1.387 Y30.576
G2 X1 Y31.3 I2.387 J-3.577
G1 X4
G3 X4.7 Y32 J0.7
G1 Y137.005
G2 X5.429 Y139.401 I4.3
X5.596 Y139.489 I0.166 J-0.111
G1 X42.411 Y139.481
G2 X42.577 Y139.392 J-0.2
X43.3 Y137.005 I-3.577 J-2.387
G1 Y32.005
G3 X44 Y31.305 I0.7
G1 X47
G2 X49.396 Y30.575 J-4.3
X49.735 Y27.313 I-1.189 J-1.773
G3 X48.5 Y24.274 I3.119 J-3.039
G1 Y4.006
G2 X44 Y-0.5 I-4.5 J-0.006
G1 X4
G2 X-0.5 Y4 J4.5
G1 Y27
G2 X1 Y28.5 I1.5
G1 X4
G3 X7.5 Y32 I0.001 J3.5
G1 Y106.364
Y137.005
G2 X9 Y138.505 I1.5
G1 X39
G2 X40.5 Y137.005 J-1.5
G1 Y32.005
G3 X44 Y28.504 I3.5
G1 X47
G2 X48.5 Y27.004 J-1.5
G1 Y24.274
G3 X48.557 Y24.098 I0.3
G1 X49.439 Y22.884
X49.478 Y22.83 Z-4.992
X49.515 Y22.779 Z-4.97
X49.549 Y22.733 Z-4.935
X49.577 Y22.695 Z-4.887
X49.598 Y22.666 Z-4.83
X49.611 Y22.648 Z-4.767
X49.615 Y22.642 Z-4.7
G0 Z5
X-2.903 Y35.238
G1 Z-5.2 F600
X-2.896 Y35.24 Z-5.267
X-2.875 Y35.246 Z-5.33
X-2.84 Y35.256 Z-5.387
X-2.794 Y35.268 Z-5.435
X-2.74 Y35.283 Z-5.47
X-2.678 Y35.3 Z-5.492
X-2.614 Y35.318 Z-5.5
X-1.387 Y35.655
G2 X-0.301 Y35.882 I2.401 J-8.747
G3 X0.023 Y36.257 I-0.055 J0.374
G1 X-0.022 Y137.005
G2 X0.301 Y139.399 I9.022
X0.494 Y139.546 I0.193 J-0.053
G1 X47.506 Y139.549
G2 X47.698 Y139.402 J-0.2
X48.022 Y137.005 I-8.698 J-2.397
G1 X47.977 Y36.261
G3 X48.301 Y35.887 I0.378
G2 X49.387 Y35.659 I-1.314 J-8.975
G1 X49.399 Y35.656
X49.463 Y35.638 Z-5.492
X49.524 Y35.622 Z-5.47
X49.579 Y35.607 Z-5.435
X49.625 Y35.594 Z-5.387
X49.659 Y35.585 Z-5.33
X49.681 Y35.579 Z-5.267
X49.688 Y35.577 Z-5.2
G0 Z5
X-2.904 Y32.668
G1 Z-5.2 F600
X-2.897 Y32.671 Z-5.267
X-2.876 Y32.679 Z-5.33
X-2.843 Y32.692 Z-5.387
X-2.799 Y32.709 Z-5.435
X-2.746 Y32.729 Z-5.47
X-2.686 Y32.752 Z-5.492
X-2.624 Y32.775 Z-5.5
X-1.397 Y33.244
G2 X1 Y33.684 I2.384 J-6.244
X1.515 Y33.668 J-8.242
G3 X2.029 Y33.651 I0.515 J8.225
X2.349 Y33.971 J0.319
G1 X2.304 Y137.005
G2 X2.743 Y139.392 I6.697
X2.93 Y139.52 I0.187 J-0.071
G1 X45.07 Y139.521
G2 X45.257 Y139.393 J-0.2
X45.697 Y137.005 I-6.257 J-2.388
G1 X45.652 Y33.975
G3 X45.971 Y33.656 I0.319
X46.486 Y33.672 J8.238
G2 X47 Y33.688 I0.514 J-8.222
X49.387 Y33.249 J-6.697
G1 X49.397 Y33.244
X49.46 Y33.221 Z-5.492
X49.519 Y33.198 Z-5.47
X49.572 Y33.178 Z-5.435
X49.617 Y33.161 Z-5.387
X49.65 Y33.148 Z-5.33
X49.671 Y33.14 Z-5.267
X49.678 Y33.138 Z-5.2
G0 Z5
X-2.904 Y29.564
G1 Z-5.2 F600
X-2.898 Y29.568 Z-5.267
X-2.879 Y29.58 Z-5.33
X-2.85 Y29.6 Z-5.387
X-2.81 Y29.627 Z-5.435
X-2.763 Y29.658 Z-5.47
X-2.71 Y29.693 Z-5.492
X-2.655 Y29.73 Z-5.5
X-1.387 Y30.576
G2 X1 Y31.3 I2.387 J-3.577
G1 X4
G3 X4.7 Y32 J0.7
G1 Y137.005
G2 X5.429 Y139.401 I4.3
X5.596 Y139.489 I0.166 J-0.111
G1 X42.411 Y139.481
G2 X42.577 Y139.392 J-0.2
X43.3 Y137.005 I-3.577 J-2.387
G1 Y32.005
G3 X44 Y31.305 I0.7
G1 X47
G2 X49.396 Y30.575 J-4.3
X49.735 Y27.313 I-1.189 J-1.773
G3 X48.5 Y24.274 I3.119 J-3.039
G1 Y4.006
G2 X44 Y-0.5 I-4.5 J-0.006
G1 X4
G2 X-0.5 Y4 J4.5
G1 Y27
G2 X1 Y28.5 I1.5
G1 X4
G3 X7.5 Y32 I0.001 J3.5
G1 Y106.364
Y137.005
G2 X9 Y138.505 I1.5
G1 X39
G2 X40.5 Y137.005 J-1.5
G1 Y32.005
G3 X44 Y28.504 I3.5
G1 X47
G2 X48.5 Y27.004 J-1.5
G1 Y24.274
G3 X48.557 Y24.098 I0.3
G1 X49.439 Y22.884
X49.478 Y22.83 Z-5.492
X49.515 Y22.779 Z-5.47
X49.549 Y22.733 Z-5.435
X49.577 Y22.695 Z-5.387
X49.598 Y22.666 Z-5.33
X49.611 Y22.648 Z-5.267
X49.615 Y22.642 Z-5.2
G0 Z5
X-2.903 Y35.238
G1 Z-5.7 F600
X-2.896 Y35.24 Z-5.767
X-2.875 Y35.246 Z-5.83
X-2.84 Y35.256 Z-5.887
X-2.794 Y35.268 Z-5.935
X-2.74 Y35.283 Z-5.97
X-2.678 Y35.3 Z-5.992
X-2.614 Y35.318 Z-6
X-1.387 Y35.655
G2 X-0.301 Y35.882 I2.401 J-8.747
G3 X0.023 Y36.257 I-0.055 J0.374
G1 X-0.022 Y137.005
G2 X0.301 Y139.399 I9.022
X0.494 Y139.546 I0.193 J-0.053
G1 X47.506 Y139.549
G2 X47.698 Y139.402 J-0.2
X48.022 Y137.005 I-8.698 J-2.397
G1 X47.977 Y36.261
G3 X48.301 Y35.887 I0.378
G2 X49.387 Y35.659 I-1.314 J-8.975
G1 X49.399 Y35.656
X49.463 Y35.638 Z-5.992
X49.524 Y35.622 Z-5.97
X49.579 Y35.607 Z-5.935
X49.625 Y35.594 Z-5.887
X49.659 Y35.585 Z-5.83
X49.681 Y35.579 Z-5.767
X49.688 Y35.577 Z-5.7
G0 Z5
X-2.904 Y32.668
G1 Z-5.7 F600
X-2.897 Y32.671 Z-5.767
X-2.876 Y32.679 Z-5.83
X-2.843 Y32.692 Z-5.887
X-2.799 Y32.709 Z-5.935
X-2.746 Y32.729 Z-5.97
X-2.686 Y32.752 Z-5.992
X-2.624 Y32.775 Z-6
X-1.397 Y33.244
G2 X1 Y33.684 I2.384 J-6.244
X1.515 Y33.668 J-8.242
G3 X2.029 Y33.651 I0.515 J8.225
X2.349 Y33.971 J0.319
G1 X2.304 Y137.005
G2 X2.743 Y139.392 I6.697
X2.93 Y139.52 I0.187 J-0.071
G1 X45.07 Y139.521
G2 X45.257 Y139.393 J-0.2
X45.697 Y137.005 I-6.257 J-2.388
G1 X45.652 Y33.975
G3 X45.971 Y33.656 I0.319
X46.486 Y33.672 J8.238
G2 X47 Y33.688 I0.514 J-8.222
X49.387 Y33.249 J-6.697
G1 X49.397 Y33.244
X49.46 Y33.221 Z-5.992
X49.519 Y33.198 Z-5.97
X49.572 Y33.178 Z-5.935
X49.617 Y33.161 Z-5.887
X49.65 Y33.148 Z-5.83
X49.671 Y33.14 Z-5.767
X49.678 Y33.138 Z-5.7
G0 Z5
X-2.904 Y29.564
G1 Z-5.7 F600
X-2.898 Y29.568 Z-5.767
X-2.879 Y29.58 Z-5.83
X-2.85 Y29.6 Z-5.887
X-2.81 Y29.627 Z-5.935
X-2.763 Y29.658 Z-5.97
X-2.71 Y29.693 Z-5.992
X-2.655 Y29.73 Z-6
X-1.387 Y30.576
G2 X1 Y31.3 I2.387 J-3.577
G1 X4
G3 X4.7 Y32 J0.7
G1 Y137.005
G2 X5.429 Y139.401 I4.3
X5.596 Y139.489 I0.166 J-0.111
G1 X42.411 Y139.481
G2 X42.577 Y139.392 J-0.2
X43.3 Y137.005 I-3.577 J-2.387
G1 Y32.005
G3 X44 Y31.305 I0.7
G1 X47
G2 X49.396 Y30.575 J-4.3
X49.735 Y27.313 I-1.189 J-1.773
G3 X48.5 Y24.274 I3.119 J-3.039
G1 Y4.006
G2 X44 Y-0.5 I-4.5 J-0.006
G1 X4
G2 X-0.5 Y4 J4.5
G1 Y27
G2 X1 Y28.5 I1.5
G1 X4
G3 X7.5 Y32 I0.001 J3.5
G1 Y106.364
Y137.005
G2 X9 Y138.505 I1.5
G1 X39
G2 X40.5 Y137.005 J-1.5
G1 Y32.005
G3 X44 Y28.504 I3.5
G1 X47
G2 X48.5 Y27.004 J-1.5
G1 Y24.274
G3 X48.557 Y24.098 I0.3
G1 X49.439 Y22.884
X49.478 Y22.83 Z-5.992
X49.515 Y22.779 Z-5.97
X49.549 Y22.733 Z-5.935
X49.577 Y22.695 Z-5.887
X49.598 Y22.666 Z-5.83
X49.611 Y22.648 Z-5.767
X49.615 Y22.642 Z-5.7
G0 Z5
X-2.903 Y35.238
G1 Z-6.2 F600
X-2.896 Y35.24 Z-6.267
X-2.875 Y35.246 Z-6.33
X-2.84 Y35.256 Z-6.387
X-2.794 Y35.268 Z-6.435
X-2.74 Y35.283 Z-6.47
X-2.678 Y35.3 Z-6.492
X-2.614 Y35.318 Z-6.5
X-1.387 Y35.655
G2 X-0.301 Y35.882 I2.401 J-8.747
G3 X0.023 Y36.257 I-0.055 J0.374
G1 X-0.022 Y137.005
G2 X0.301 Y139.399 I9.022
X0.494 Y139.546 I0.193 J-0.053
G1 X47.506 Y139.549
G2 X47.698 Y139.402 J-0.2
X48.022 Y137.005 I-8.698 J-2.397
G1 X47.977 Y36.261
G3 X48.301 Y35.887 I0.378
G2 X49.387 Y35.659 I-1.314 J-8.975
G1 X49.399 Y35.656
X49.463 Y35.638 Z-6.492
X49.524 Y35.622 Z-6.47
X49.579 Y35.607 Z-6.435
X49.625 Y35.594 Z-6.387
X49.659 Y35.585 Z-6.33
X49.681 Y35.579 Z-6.267
X49.688 Y35.577 Z-6.2
G0 Z5
X-2.904 Y32.668
G1 Z-6.2 F600
X-2.897 Y32.671 Z-6.267
X-2.876 Y32.679 Z-6.33
X-2.843 Y32.692 Z-6.387
X-2.799 Y32.709 Z-6.435
X-2.746 Y32.729 Z-6.47
X-2.686 Y32.752 Z-6.492
X-2.624 Y32.775 Z-6.5
X-1.397 Y33.244
G2 X1 Y33.684 I2.384 J-6.244
X1.515 Y33.668 J-8.242
G3 X2.029 Y33.651 I0.515 J8.225
X2.349 Y33.971 J0.319
G1 X2.304 Y137.005
G2 X2.743 Y139.392 I6.697
X2.93 Y139.52 I0.187 J-0.071
G1 X45.07 Y139.521
G2 X45.257 Y139.393 J-0.2
X45.697 Y137.005 I-6.257 J-2.388
G1 X45.652 Y33.975
G3 X45.971 Y33.656 I0.319
X46.486 Y33.672 J8.238
G2 X47 Y33.688 I0.514 J-8.222
X49.387 Y33.249 J-6.697
G1 X49.397 Y33.244
X49.46 Y33.221 Z-6.492
X49.519 Y33.198 Z-6.47
X49.572 Y33.178 Z-6.435
X49.617 Y33.161 Z-6.387
X49.65 Y33.148 Z-6.33
X49.671 Y33.14 Z-6.267
X49.678 Y33.138 Z-6.2
G0 Z5
X-2.904 Y29.564
G1 Z-6.2 F600
X-2.898 Y29.568 Z-6.267
X-2.879 Y29.58 Z-6.33
X-2.85 Y29.6 Z-6.387
X-2.81 Y29.627 Z-6.435
X-2.763 Y29.658 Z-6.47
X-2.71 Y29.693 Z-6.492
X-2.655 Y29.73 Z-6.5
X-1.387 Y30.576
G2 X1 Y31.3 I2.387 J-3.577
G1 X4
G3 X4.7 Y32 J0.7
G1 Y137.005
G2 X5.429 Y139.401 I4.3
X5.596 Y139.489 I0.166 J-0.111
G1 X42.411 Y139.481
G2 X42.577 Y139.392 J-0.2
X43.3 Y137.005 I-3.577 J-2.387
G1 Y32.005
G3 X44 Y31.305 I0.7
G1 X47
G2 X49.396 Y30.575 J-4.3
X49.735 Y27.313 I-1.189 J-1.773
G3 X48.5 Y24.274 I3.119 J-3.039
G1 Y4.006
G2 X44 Y-0.5 I-4.5 J-0.006
G1 X4
G2 X-0.5 Y4 J4.5
G1 Y27
G2 X1 Y28.5 I1.5
G1 X4
G3 X7.5 Y32 I0.001 J3.5
G1 Y106.364
Y137.005
G2 X9 Y138.505 I1.5
G1 X39
G2 X40.5 Y137.005 J-1.5
G1 Y32.005
G3 X44 Y28.504 I3.5
G1 X47
G2 X48.5 Y27.004 J-1.5
G1 Y24.274
G3 X48.557 Y24.098 I0.3
G1 X49.439 Y22.884
X49.478 Y22.83 Z-6.492
X49.515 Y22.779 Z-6.47
X49.549 Y22.733 Z-6.435
X49.577 Y22.695 Z-6.387
X49.598 Y22.666 Z-6.33
X49.611 Y22.648 Z-6.267
X49.615 Y22.642 Z-6.2
G0 Z5
X-2.903 Y35.238
G1 Z-6.7 F600
X-2.896 Y35.24 Z-6.767
X-2.875 Y35.246 Z-6.83
X-2.84 Y35.256 Z-6.887
X-2.794 Y35.268 Z-6.935
X-2.74 Y35.283 Z-6.97
X-2.678 Y35.3 Z-6.992
X-2.614 Y35.318 Z-7
X-1.387 Y35.655
G2 X-0.301 Y35.882 I2.401 J-8.747
G3 X0.023 Y36.257 I-0.055 J0.374
G1 X-0.022 Y137.005
G2 X0.301 Y139.399 I9.022
X0.494 Y139.546 I0.193 J-0.053
G1 X47.506 Y139.549
G2 X47.698 Y139.402 J-0.2
X48.022 Y137.005 I-8.698 J-2.397
G1 X47.977 Y36.261
G3 X48.301 Y35.887 I0.378
G2 X49.387 Y35.659 I-1.314 J-8.975
G1 X49.399 Y35.656
X49.463 Y35.638 Z-6.992
X49.524 Y35.622 Z-6.97
X49.579 Y35.607 Z-6.935
X49.625 Y35.594 Z-6.887
X49.659 Y35.585 Z-6.83
X49.681 Y35.579 Z-6.767
X49.688 Y35.577 Z-6.7
G0 Z5
X-2.904 Y32.668
G1 Z-6.7 F600
X-2.897 Y32.671 Z-6.767
X-2.876 Y32.679 Z-6.83
X-2.843 Y32.692 Z-6.887
X-2.799 Y32.709 Z-6.935
X-2.746 Y32.729 Z-6.97
X-2.686 Y32.752 Z-6.992
X-2.624 Y32.775 Z-7
X-1.397 Y33.244
G2 X1 Y33.684 I2.384 J-6.244
X1.515 Y33.668 J-8.242
G3 X2.029 Y33.651 I0.515 J8.225
X2.349 Y33.971 J0.319
G1 X2.304 Y137.005
G2 X2.743 Y139.392 I6.697
X2.93 Y139.52 I0.187 J-0.071
G1 X45.07 Y139.521
G2 X45.257 Y139.393 J-0.2
X45.697 Y137.005 I-6.257 J-2.388
G1 X45.652 Y33.975
G3 X45.971 Y33.656 I0.319
X46.486 Y33.672 J8.238
G2 X47 Y33.688 I0.514 J-8.222
X49.387 Y33.249 J-6.697
G1 X49.397 Y33.244
X49.46 Y33.221 Z-6.992
X49.519 Y33.198 Z-6.97
X49.572 Y33.178 Z-6.935
X49.617 Y33.161 Z-6.887
X49.65 Y33.148 Z-6.83
X49.671 Y33.14 Z-6.767
X49.678 Y33.138 Z-6.7
G0 Z5
X-2.904 Y29.564
G1 Z-6.7 F600
X-2.898 Y29.568 Z-6.767
X-2.879 Y29.58 Z-6.83
X-2.85 Y29.6 Z-6.887
X-2.81 Y29.627 Z-6.935
X-2.763 Y29.658 Z-6.97
X-2.71 Y29.693 Z-6.992
X-2.655 Y29.73 Z-7
X-1.387 Y30.576
G2 X1 Y31.3 I2.387 J-3.577
G1 X4
G3 X4.7 Y32 J0.7
G1 Y137.005
G2 X5.429 Y139.401 I4.3
X5.596 Y139.489 I0.166 J-0.111
G1 X42.411 Y139.481
G2 X42.577 Y139.392 J-0.2
X43.3 Y137.005 I-3.577 J-2.387
G1 Y32.005
G3 X44 Y31.305 I0.7
G1 X47
G2 X49.396 Y30.575 J-4.3
X49.735 Y27.313 I-1.189 J-1.773
G3 X48.5 Y24.274 I3.119 J-3.039
G1 Y4.006
G2 X44 Y-0.5 I-4.5 J-0.006
G1 X4
G2 X-0.5 Y4 J4.5
G1 Y27
G2 X1 Y28.5 I1.5
G1 X4
G3 X7.5 Y32 I0.001 J3.5
G1 Y106.364
Y137.005
G2 X9 Y138.505 I1.5
G1 X39
G2 X40.5 Y137.005 J-1.5
G1 Y32.005
G3 X44 Y28.504 I3.5
G1 X47
G2 X48.5 Y27.004 J-1.5
G1 Y24.274
G3 X48.557 Y24.098 I0.3
G1 X49.439 Y22.884
X49.478 Y22.83 Z-6.992
X49.515 Y22.779 Z-6.97
X49.549 Y22.733 Z-6.935
X49.577 Y22.695 Z-6.887
X49.598 Y22.666 Z-6.83
X49.611 Y22.648 Z-6.767
X49.615 Y22.642 Z-6.7
G0 Z5
X-2.903 Y35.238
G1 Z-7.2 F600
X-2.896 Y35.24 Z-7.267
X-2.875 Y35.246 Z-7.33
X-2.84 Y35.256 Z-7.387
X-2.794 Y35.268 Z-7.435
X-2.74 Y35.283 Z-7.47
X-2.678 Y35.3 Z-7.492
X-2.614 Y35.318 Z-7.5
X-1.387 Y35.655
G2 X-0.301 Y35.882 I2.401 J-8.747
G3 X0.023 Y36.257 I-0.055 J0.374
G1 X-0.022 Y137.005
G2 X0.301 Y139.399 I9.022
X0.494 Y139.546 I0.193 J-0.053
G1 X47.506 Y139.549
G2 X47.698 Y139.402 J-0.2
X48.022 Y137.005 I-8.698 J-2.397
G1 X47.977 Y36.261
G3 X48.301 Y35.887 I0.378
G2 X49.387 Y35.659 I-1.314 J-8.975
G1 X49.399 Y35.656
X49.463 Y35.638 Z-7.492
X49.524 Y35.622 Z-7.47
X49.579 Y35.607 Z-7.435
X49.625 Y35.594 Z-7.387
X49.659 Y35.585 Z-7.33
X49.681 Y35.579 Z-7.267
X49.688 Y35.577 Z-7.2
G0 Z5
X-2.904 Y32.668
G1 Z-7.2 F600
X-2.897 Y32.671 Z-7.267
X-2.876 Y32.679 Z-7.33
X-2.843 Y32.692 Z-7.387
X-2.799 Y32.709 Z-7.435
X-2.746 Y32.729 Z-7.47
X-2.686 Y32.752 Z-7.492
X-2.624 Y32.775 Z-7.5
X-1.397 Y33.244
G2 X1 Y33.684 I2.384 J-6.244
X1.515 Y33.668 J-8.242
G3 X2.029 Y33.651 I0.515 J8.225
X2.349 Y33.971 J0.319
G1 X2.304 Y137.005
G2 X2.743 Y139.392 I6.697
X2.93 Y139.52 I0.187 J-0.071
G1 X45.07 Y139.521
G2 X45.257 Y139.393 J-0.2
X45.697 Y137.005 I-6.257 J-2.388
G1 X45.652 Y33.975
G3 X45.971 Y33.656 I0.319
X46.486 Y33.672 J8.238
G2 X47 Y33.688 I0.514 J-8.222
X49.387 Y33.249 J-6.697
G1 X49.397 Y33.244
X49.46 Y33.221 Z-7.492
X49.519 Y33.198 Z-7.47
X49.572 Y33.178 Z-7.435
X49.617 Y33.161 Z-7.387
X49.65 Y33.148 Z-7.33
X49.671 Y33.14 Z-7.267
X49.678 Y33.138 Z-7.2
G0 Z5
X-2.904 Y29.564
G1 Z-7.2 F600
X-2.898 Y29.568 Z-7.267
X-2.879 Y29.58 Z-7.33
X-2.85 Y29.6 Z-7.387
X-2.81 Y29.627 Z-7.435
X-2.763 Y29.658 Z-7.47
X-2.71 Y29.693 Z-7.492
X-2.655 Y29.73 Z-7.5
X-1.387 Y30.576
G2 X1 Y31.3 I2.387 J-3.577
G1 X4
G3 X4.7 Y32 J0.7
G1 Y137.005
G2 X5.429 Y139.401 I4.3
X5.596 Y139.489 I0.166 J-0.111
G1 X42.411 Y139.481
G2 X42.577 Y139.392 J-0.2
X43.3 Y137.005 I-3.577 J-2.387
G1 Y32.005
G3 X44 Y31.305 I0.7
G1 X47
G2 X49.396 Y30.575 J-4.3
X49.735 Y27.313 I-1.189 J-1.773
G3 X48.5 Y24.274 I3.119 J-3.039
G1 Y4.006
G2 X44 Y-0.5 I-4.5 J-0.006
G1 X4
G2 X-0.5 Y4 J4.5
G1 Y27
G2 X1 Y28.5 I1.5
G1 X4
G3 X7.5 Y32 I0.001 J3.5
G1 Y106.364
Y137.005
G2 X9 Y138.505 I1.5
G1 X39
G2 X40.5 Y137.005 J-1.5
G1 Y32.005
G3 X44 Y28.504 I3.5
G1 X47
G2 X48.5 Y27.004 J-1.5
G1 Y24.274
G3 X48.557 Y24.098 I0.3
G1 X49.439 Y22.884
X49.478 Y22.83 Z-7.492
X49.515 Y22.779 Z-7.47
X49.549 Y22.733 Z-7.435
X49.577 Y22.695 Z-7.387
X49.598 Y22.666 Z-7.33
X49.611 Y22.648 Z-7.267
X49.615 Y22.642 Z-7.2
G0 Z5
X-2.903 Y35.238
G1 Z-7.7 F600
X-2.896 Y35.24 Z-7.767
X-2.875 Y35.246 Z-7.83
X-2.84 Y35.256 Z-7.887
X-2.794 Y35.268 Z-7.935
X-2.74 Y35.283 Z-7.97
X-2.678 Y35.3 Z-7.992
X-2.614 Y35.318 Z-8
X-1.387 Y35.655
G2 X-0.301 Y35.882 I2.401 J-8.747
G3 X0.023 Y36.257 I-0.055 J0.374
G1 X-0.022 Y137.005
G2 X0.301 Y139.399 I9.022
X0.494 Y139.546 I0.193 J-0.053
G1 X47.506 Y139.549
G2 X47.698 Y139.402 J-0.2
X48.022 Y137.005 I-8.698 J-2.397
G1 X47.977 Y36.261
G3 X48.301 Y35.887 I0.378
G2 X49.387 Y35.659 I-1.314 J-8.975
G1 X49.399 Y35.656
X49.463 Y35.638 Z-7.992
X49.524 Y35.622 Z-7.97
X49.579 Y35.607 Z-7.935
X49.625 Y35.594 Z-7.887
X49.659 Y35.585 Z-7.83
X49.681 Y35.579 Z-7.767
X49.688 Y35.577 Z-7.7
G0 Z5
X-2.904 Y32.668
G1 Z-7.7 F600
X-2.897 Y32.671 Z-7.767
X-2.876 Y32.679 Z-7.83
X-2.843 Y32.692 Z-7.887
X-2.799 Y32.709 Z-7.935
X-2.746 Y32.729 Z-7.97
X-2.686 Y32.752 Z-7.992
X-2.624 Y32.775 Z-8
X-1.397 Y33.244
G2 X1 Y33.684 I2.384 J-6.244
X1.515 Y33.668 J-8.242
G3 X2.029 Y33.651 I0.515 J8.225
X2.349 Y33.971 J0.319
G1 X2.304 Y137.005
G2 X2.743 Y139.392 I6.697
X2.93 Y139.52 I0.187 J-0.071
G1 X45.07 Y139.521
G2 X45.257 Y139.393 J-0.2
X45.697 Y137.005 I-6.257 J-2.388
G1 X45.652 Y33.975
G3 X45.971 Y33.656 I0.319
X46.486 Y33.672 J8.238
G2 X47 Y33.688 I0.514 J-8.222
X49.387 Y33.249 J-6.697
G1 X49.397 Y33.244
X49.46 Y33.221 Z-7.992
X49.519 Y33.198 Z-7.97
X49.572 Y33.178 Z-7.935
X49.617 Y33.161 Z-7.887
X49.65 Y33.148 Z-7.83
X49.671 Y33.14 Z-7.767
X49.678 Y33.138 Z-7.7
G0 Z5
X-2.904 Y29.564
G1 Z-7.7 F600
X-2.898 Y29.568 Z-7.767
X-2.879 Y29.58 Z-7.83
X-2.85 Y29.6 Z-7.887
X-2.81 Y29.627 Z-7.935
X-2.763 Y29.658 Z-7.97
X-2.71 Y29.693 Z-7.992
X-2.655 Y29.73 Z-8
X-1.387 Y30.576
G2 X1 Y31.3 I2.387 J-3.577
G1 X4
G3 X4.7 Y32 J0.7
G1 Y137.005
G2 X5.429 Y139.401 I4.3
X5.596 Y139.489 I0.166 J-0.111
G1 X42.411 Y139.481
G2 X42.577 Y139.392 J-0.2
X43.3 Y137.005 I-3.577 J-2.387
G1 Y32.005
G3 X44 Y31.305 I0.7
G1 X47
G2 X49.396 Y30.575 J-4.3
X49.735 Y27.313 I-1.189 J-1.773
G3 X48.5 Y24.274 I3.119 J-3.039
G1 Y4.006
G2 X44 Y-0.5 I-4.5 J-0.006
G1 X4
G2 X-0.5 Y4 J4.5
G1 Y27
G2 X1 Y28.5 I1.5
G1 X4
G3 X7.5 Y32 I0.001 J3.5
G1 Y106.364
Y137.005
G2 X9 Y138.505 I1.5
G1 X39
G2 X40.5 Y137.005 J-1.5
G1 Y32.005
G3 X44 Y28.504 I3.5
G1 X47
G2 X48.5 Y27.004 J-1.5
G1 Y24.274
G3 X48.557 Y24.098 I0.3
G1 X49.439 Y22.884
X49.478 Y22.83 Z-7.992
X49.515 Y22.779 Z-7.97
X49.549 Y22.733 Z-7.935
X49.577 Y22.695 Z-7.887
X49.598 Y22.666 Z-7.83
X49.611 Y22.648 Z-7.767
X49.615 Y22.642 Z-7.7
G0 Z5
X-2.903 Y35.238
G1 Z-8.2 F600
X-2.896 Y35.24 Z-8.267
X-2.875 Y35.246 Z-8.33
X-2.84 Y35.256 Z-8.387
X-2.794 Y35.268 Z-8.435
X-2.74 Y35.283 Z-8.47
X-2.678 Y35.3 Z-8.492
X-2.614 Y35.318 Z-8.5
X-1.387 Y35.655
G2 X-0.301 Y35.882 I2.401 J-8.747
G3 X0.023 Y36.257 I-0.055 J0.374
G1 X-0.022 Y137.005
G2 X0.301 Y139.399 I9.022
X0.494 Y139.546 I0.193 J-0.053
G1 X47.506 Y139.549
G2 X47.698 Y139.402 J-0.2
X48.022 Y137.005 I-8.698 J-2.397
G1 X47.977 Y36.261
G3 X48.301 Y35.887 I0.378
G2 X49.387 Y35.659 I-1.314 J-8.975
G1 X49.399 Y35.656
X49.463 Y35.638 Z-8.492
X49.524 Y35.622 Z-8.47
X49.579 Y35.607 Z-8.435
X49.625 Y35.594 Z-8.387
X49.659 Y35.585 Z-8.33
X49.681 Y35.579 Z-8.267
X49.688 Y35.577 Z-8.2
G0 Z5
X-2.904 Y32.668
G1 Z-8.2 F600
X-2.897 Y32.671 Z-8.267
X-2.876 Y32.679 Z-8.33
X-2.843 Y32.692 Z-8.387
X-2.799 Y32.709 Z-8.435
X-2.746 Y32.729 Z-8.47
X-2.686 Y32.752 Z-8.492
X-2.624 Y32.775 Z-8.5
X-1.397 Y33.244
G2 X1 Y33.684 I2.384 J-6.244
X1.515 Y33.668 J-8.242
G3 X2.029 Y33.651 I0.515 J8.225
X2.349 Y33.971 J0.319
G1 X2.304 Y137.005
G2 X2.743 Y139.392 I6.697
X2.93 Y139.52 I0.187 J-0.071
G1 X45.07 Y139.521
G2 X45.257 Y139.393 J-0.2
X45.697 Y137.005 I-6.257 J-2.388
G1 X45.652 Y33.975
G3 X45.971 Y33.656 I0.319
X46.486 Y33.672 J8.238
G2 X47 Y33.688 I0.514 J-8.222
X49.387 Y33.249 J-6.697
G1 X49.397 Y33.244
X49.46 Y33.221 Z-8.492
X49.519 Y33.198 Z-8.47
X49.572 Y33.178 Z-8.435
X49.617 Y33.161 Z-8.387
X49.65 Y33.148 Z-8.33
X49.671 Y33.14 Z-8.267
X49.678 Y33.138 Z-8.2
G0 Z5
X-2.904 Y29.564
G1 Z-8.2 F600
X-2.898 Y29.568 Z-8.267
X-2.879 Y29.58 Z-8.33
X-2.85 Y29.6 Z-8.387
X-2.81 Y29.627 Z-8.435
X-2.763 Y29.658 Z-8.47
X-2.71 Y29.693 Z-8.492
X-2.655 Y29.73 Z-8.5
X-1.387 Y30.576
G2 X1 Y31.3 I2.387 J-3.577
G1 X4
G3 X4.7 Y32 J0.7
G1 Y137.005
G2 X5.429 Y139.401 I4.3
X5.596 Y139.489 I0.166 J-0.111
G1 X42.411 Y139.481
G2 X42.577 Y139.392 J-0.2
X43.3 Y137.005 I-3.577 J-2.387
G1 Y32.005
G3 X44 Y31.305 I0.7
G1 X47
G2 X49.396 Y30.575 J-4.3
X49.735 Y27.313 I-1.189 J-1.773
G3 X48.5 Y24.274 I3.119 J-3.039
G1 Y4.006
G2 X44 Y-0.5 I-4.5 J-0.006
G1 X4
G2 X-0.5 Y4 J4.5
G1 Y27
G2 X1 Y28.5 I1.5
G1 X4
G3 X7.5 Y32 I0.001 J3.5
G1 Y106.364
Y137.005
G2 X9 Y138.505 I1.5
G1 X39
G2 X40.5 Y137.005 J-1.5
G1 Y32.005
G3 X44 Y28.504 I3.5
G1 X47
G2 X48.5 Y27.004 J-1.5
G1 Y24.274
G3 X48.557 Y24.098 I0.3
G1 X49.439 Y22.884
X49.478 Y22.83 Z-8.492
X49.515 Y22.779 Z-8.47
X49.549 Y22.733 Z-8.435
X49.577 Y22.695 Z-8.387
X49.598 Y22.666 Z-8.33
X49.611 Y22.648 Z-8.267
X49.615 Y22.642 Z-8.2
G0 Z5
X-2.903 Y35.238
G1 Z-8.7 F600
X-2.896 Y35.24 Z-8.767
X-2.875 Y35.246 Z-8.83
X-2.84 Y35.256 Z-8.887
X-2.794 Y35.268 Z-8.935
X-2.74 Y35.283 Z-8.97
X-2.678 Y35.3 Z-8.992
X-2.614 Y35.318 Z-9
X-1.387 Y35.655
G2 X-0.301 Y35.882 I2.401 J-8.747
G3 X0.023 Y36.257 I-0.055 J0.374
G1 X-0.022 Y137.005
G2 X0.301 Y139.399 I9.022
X0.494 Y139.546 I0.193 J-0.053
G1 X47.506 Y139.549
G2 X47.698 Y139.402 J-0.2
X48.022 Y137.005 I-8.698 J-2.397
G1 X47.977 Y36.261
G3 X48.301 Y35.887 I0.378
G2 X49.387 Y35.659 I-1.314 J-8.975
G1 X49.399 Y35.656
X49.463 Y35.638 Z-8.992
X49.524 Y35.622 Z-8.97
X49.579 Y35.607 Z-8.935
X49.625 Y35.594 Z-8.887
X49.659 Y35.585 Z-8.83
X49.681 Y35.579 Z-8.767
X49.688 Y35.577 Z-8.7
G0 Z5
X-2.904 Y32.668
G1 Z-8.7 F600
X-2.897 Y32.671 Z-8.767
X-2.876 Y32.679 Z-8.83
X-2.843 Y32.692 Z-8.887
X-2.799 Y32.709 Z-8.935
X-2.746 Y32.729 Z-8.97
X-2.686 Y32.752 Z-8.992
X-2.624 Y32.775 Z-9
X-1.397 Y33.244
G2 X1 Y33.684 I2.384 J-6.244
X1.515 Y33.668 J-8.242
G3 X2.029 Y33.651 I0.515 J8.225
X2.349 Y33.971 J0.319
G1 X2.304 Y137.005
G2 X2.743 Y139.392 I6.697
X2.93 Y139.52 I0.187 J-0.071
G1 X45.07 Y139.521
G2 X45.257 Y139.393 J-0.2
X45.697 Y137.005 I-6.257 J-2.388
G1 X45.652 Y33.975
G3 X45.971 Y33.656 I0.319
X46.486 Y33.672 J8.238
G2 X47 Y33.688 I0.514 J-8.222
X49.387 Y33.249 J-6.697
G1 X49.397 Y33.244
X49.46 Y33.221 Z-8.992
X49.519 Y33.198 Z-8.97
X49.572 Y33.178 Z-8.935
X49.617 Y33.161 Z-8.887
X49.65 Y33.148 Z-8.83
X49.671 Y33.14 Z-8.767
X49.678 Y33.138 Z-8.7
G0 Z5
X-2.904 Y29.564
G1 Z-8.7 F600
X-2.898 Y29.568 Z-8.767
X-2.879 Y29.58 Z-8.83
X-2.85 Y29.6 Z-8.887
X-2.81 Y29.627 Z-8.935
X-2.763 Y29.658 Z-8.97
X-2.71 Y29.693 Z-8.992
X-2.655 Y29.73 Z-9
X-1.387 Y30.576
G2 X1 Y31.3 I2.387 J-3.577
G1 X4
G3 X4.7 Y32 J0.7
G1 Y137.005
G2 X5.429 Y139.401 I4.3
X5.596 Y139.489 I0.166 J-0.111
G1 X42.411 Y139.481
G2 X42.577 Y139.392 J-0.2
X43.3 Y137.005 I-3.577 J-2.387
G1 Y32.005
G3 X44 Y31.305 I0.7
G1 X47
G2 X49.396 Y30.575 J-4.3
X49.735 Y27.313 I-1.189 J-1.773
G3 X48.5 Y24.274 I3.119 J-3.039
G1 Y4.006
G2 X44 Y-0.5 I-4.5 J-0.006
G1 X4
G2 X-0.5 Y4 J4.5
G1 Y27
G2 X1 Y28.5 I1.5
G1 X4
G3 X7.5 Y32 I0.001 J3.5
G1 Y106.364
Y137.005
G2 X9 Y138.505 I1.5
G1 X39
G2 X40.5 Y137.005 J-1.5
G1 Y32.005
G3 X44 Y28.504 I3.5
G1 X47
G2 X48.5 Y27.004 J-1.5
G1 Y24.274
G3 X48.557 Y24.098 I0.3
G1 X49.439 Y22.884
X49.478 Y22.83 Z-8.992
X49.515 Y22.779 Z-8.97
X49.549 Y22.733 Z-8.935
X49.577 Y22.695 Z-8.887
X49.598 Y22.666 Z-8.83
X49.611 Y22.648 Z-8.767
X49.615 Y22.642 Z-8.7
G0 Z5
X-2.903 Y35.238
G1 Z-9.2 F600
X-2.896 Y35.24 Z-9.267
X-2.875 Y35.246 Z-9.33
X-2.84 Y35.256 Z-9.387
X-2.794 Y35.268 Z-9.435
X-2.74 Y35.283 Z-9.47
X-2.678 Y35.3 Z-9.492
X-2.614 Y35.318 Z-9.5
X-1.387 Y35.655
G2 X-0.301 Y35.882 I2.401 J-8.747
G3 X0.023 Y36.257 I-0.055 J0.374
G1 X-0.022 Y137.005
G2 X0.301 Y139.399 I9.022
X0.494 Y139.546 I0.193 J-0.053
G1 X47.506 Y139.549
G2 X47.698 Y139.402 J-0.2
X48.022 Y137.005 I-8.698 J-2.397
G1 X47.977 Y36.261
G3 X48.301 Y35.887 I0.378
G2 X49.387 Y35.659 I-1.314 J-8.975
G1 X49.399 Y35.656
X49.463 Y35.638 Z-9.492
X49.524 Y35.622 Z-9.47
X49.579 Y35.607 Z-9.435
X49.625 Y35.594 Z-9.387
X49.659 Y35.585 Z-9.33
X49.681 Y35.579 Z-9.267
X49.688 Y35.577 Z-9.2
G0 Z5
X-2.904 Y32.668
G1 Z-9.2 F600
X-2.897 Y32.671 Z-9.267
X-2.876 Y32.679 Z-9.33
X-2.843 Y32.692 Z-9.387
X-2.799 Y32.709 Z-9.435
X-2.746 Y32.729 Z-9.47
X-2.686 Y32.752 Z-9.492
X-2.624 Y32.775 Z-9.5
X-1.397 Y33.244
G2 X1 Y33.684 I2.384 J-6.244
X1.515 Y33.668 J-8.242
G3 X2.029 Y33.651 I0.515 J8.225
X2.349 Y33.971 J0.319
G1 X2.304 Y137.005
G2 X2.743 Y139.392 I6.697
X2.93 Y139.52 I0.187 J-0.071
G1 X45.07 Y139.521
G2 X45.257 Y139.393 J-0.2
X45.697 Y137.005 I-6.257 J-2.388
G1 X45.652 Y33.975
G3 X45.971 Y33.656 I0.319
X46.486 Y33.672 J8.238
G2 X47 Y33.688 I0.514 J-8.222
X49.387 Y33.249 J-6.697
G1 X49.397 Y33.244
X49.46 Y33.221 Z-9.492
X49.519 Y33.198 Z-9.47
X49.572 Y33.178 Z-9.435
X49.617 Y33.161 Z-9.387
X49.65 Y33.148 Z-9.33
X49.671 Y33.14 Z-9.267
X49.678 Y33.138 Z-9.2
G0 Z5
X-2.904 Y29.564
G1 Z-9.2 F600
X-2.898 Y29.568 Z-9.267
X-2.879 Y29.58 Z-9.33
X-2.85 Y29.6 Z-9.387
X-2.81 Y29.627 Z-9.435
X-2.763 Y29.658 Z-9.47
X-2.71 Y29.693 Z-9.492
X-2.655 Y29.73 Z-9.5
X-1.387 Y30.576
G2 X1 Y31.3 I2.387 J-3.577
G1 X4
G3 X4.7 Y32 J0.7
G1 Y137.005
G2 X5.429 Y139.401 I4.3
X5.596 Y139.489 I0.166 J-0.111
G1 X42.411 Y139.481
G2 X42.577 Y139.392 J-0.2
X43.3 Y137.005 I-3.577 J-2.387
G1 Y32.005
G3 X44 Y31.305 I0.7
G1 X47
G2 X49.396 Y30.575 J-4.3
X49.735 Y27.313 I-1.189 J-1.773
G3 X48.5 Y24.274 I3.119 J-3.039
G1 Y4.006
G2 X44 Y-0.5 I-4.5 J-0.006
G1 X4
G2 X-0.5 Y4 J4.5
G1 Y27
G2 X1 Y28.5 I1.5
G1 X4
G3 X7.5 Y32 I0.001 J3.5
G1 Y106.364
Y137.005
G2 X9 Y138.505 I1.5
G1 X39
G2 X40.5 Y137.005 J-1.5
G1 Y32.005
G3 X44 Y28.504 I3.5
G1 X47
G2 X48.5 Y27.004 J-1.5
G1 Y24.274
G3 X48.557 Y24.098 I0.3
G1 X49.439 Y22.884
X49.478 Y22.83 Z-9.492
X49.515 Y22.779 Z-9.47
X49.549 Y22.733 Z-9.435
X49.577 Y22.695 Z-9.387
X49.598 Y22.666 Z-9.33
X49.611 Y22.648 Z-9.267
X49.615 Y22.642 Z-9.2
G0 Z5
X-2.903 Y35.238
G1 Z-9.7 F600
X-2.896 Y35.24 Z-9.767
X-2.875 Y35.246 Z-9.83
X-2.84 Y35.256 Z-9.887
X-2.794 Y35.268 Z-9.935
X-2.74 Y35.283 Z-9.97
X-2.678 Y35.3 Z-9.992
X-2.614 Y35.318 Z-10
X-1.387 Y35.655
G2 X-0.301 Y35.882 I2.401 J-8.747
G3 X0.023 Y36.257 I-0.055 J0.374
G1 X-0.022 Y137.005
G2 X0.301 Y139.399 I9.022
X0.494 Y139.546 I0.193 J-0.053
G1 X47.506 Y139.549
G2 X47.698 Y139.402 J-0.2
X48.022 Y137.005 I-8.698 J-2.397
G1 X47.977 Y36.261
G3 X48.301 Y35.887 I0.378
G2 X49.387 Y35.659 I-1.314 J-8.975
G1 X49.399 Y35.656
X49.463 Y35.638 Z-9.992
X49.524 Y35.622 Z-9.97
X49.579 Y35.607 Z-9.935
X49.625 Y35.594 Z-9.887
X49.659 Y35.585 Z-9.83
X49.681 Y35.579 Z-9.767
X49.688 Y35.577 Z-9.7
G0 Z5
X-2.904 Y32.668
G1 Z-9.7 F600
X-2.897 Y32.671 Z-9.767
X-2.876 Y32.679 Z-9.83
X-2.843 Y32.692 Z-9.887
X-2.799 Y32.709 Z-9.935
X-2.746 Y32.729 Z-9.97
X-2.686 Y32.752 Z-9.992
X-2.624 Y32.775 Z-10
X-1.397 Y33.244
G2 X1 Y33.684 I2.384 J-6.244
X1.515 Y33.668 J-8.242
G3 X2.029 Y33.651 I0.515 J8.225
X2.349 Y33.971 J0.319
G1 X2.304 Y137.005
G2 X2.743 Y139.392 I6.697
X2.93 Y139.52 I0.187 J-0.071
G1 X45.07 Y139.521
G2 X45.257 Y139.393 J-0.2
X45.697 Y137.005 I-6.257 J-2.388
G1 X45.652 Y33.975
G3 X45.971 Y33.656 I0.319
X46.486 Y33.672 J8.238
G2 X47 Y33.688 I0.514 J-8.222
X49.387 Y33.249 J-6.697
G1 X49.397 Y33.244
X49.46 Y33.221 Z-9.992
X49.519 Y33.198 Z-9.97
X49.572 Y33.178 Z-9.935
X49.617 Y33.161 Z-9.887
X49.65 Y33.148 Z-9.83
X49.671 Y33.14 Z-9.767
X49.678 Y33.138 Z-9.7
G0 Z5
X-2.904 Y29.564
G1 Z-9.7 F600
X-2.898 Y29.568 Z-9.767
X-2.879 Y29.58 Z-9.83
X-2.85 Y29.6 Z-9.887
X-2.81 Y29.627 Z-9.935
X-2.763 Y29.658 Z-9.97
X-2.71 Y29.693 Z-9.992
X-2.655 Y29.73 Z-10
X-1.387 Y30.576
G2 X1 Y31.3 I2.387 J-3.577
G1 X4
G3 X4.7 Y32 J0.7
G1 Y137.005
G2 X5.429 Y139.401 I4.3
X5.596 Y139.489 I0.166 J-0.111
G1 X42.411 Y139.481
G2 X42.577 Y139.392 J-0.2
X43.3 Y137.005 I-3.577 J-2.387
G1 Y32.005
G3 X44 Y31.305 I0.7
G1 X47
G2 X49.396 Y30.575 J-4.3
X49.735 Y27.313 I-1.189 J-1.773
G3 X48.5 Y24.274 I3.119 J-3.039
G1 Y4.006
G2 X44 Y-0.5 I-4.5 J-0.006
G1 X4
G2 X-0.5 Y4 J4.5
G1 Y27
G2 X1 Y28.5 I1.5
G1 X4
G3 X7.5 Y32 I0.001 J3.5
G1 Y106.364
Y137.005
G2 X9 Y138.505 I1.5
G1 X39
G2 X40.5 Y137.005 J-1.5
G1 Y32.005
G3 X44 Y28.504 I3.5
G1 X47
G2 X48.5 Y27.004 J-1.5
G1 Y24.274
G3 X48.557 Y24.098 I0.3
G1 X49.439 Y22.884
X49.478 Y22.83 Z-9.992
X49.515 Y22.779 Z-9.97
X49.549 Y22.733 Z-9.935
X49.577 Y22.695 Z-9.887
X49.598 Y22.666 Z-9.83
X49.611 Y22.648 Z-9.767
X49.615 Y22.642 Z-9.7
G0 Z5
X-2.903 Y35.238
G1 Z-10.2 F600
X-2.896 Y35.24 Z-10.267
X-2.875 Y35.246 Z-10.33
X-2.84 Y35.256 Z-10.387
X-2.794 Y35.268 Z-10.435
X-2.74 Y35.283 Z-10.47
X-2.678 Y35.3 Z-10.492
X-2.614 Y35.318 Z-10.5
X-1.387 Y35.655
G2 X-0.301 Y35.882 I2.401 J-8.747
G3 X0.023 Y36.257 I-0.055 J0.374
G1 X-0.022 Y137.005
G2 X0.301 Y139.399 I9.022
X0.494 Y139.546 I0.193 J-0.053
G1 X47.506 Y139.549
G2 X47.698 Y139.402 J-0.2
X48.022 Y137.005 I-8.698 J-2.397
G1 X47.977 Y36.261
G3 X48.301 Y35.887 I0.378
G2 X49.387 Y35.659 I-1.314 J-8.975
G1 X49.399 Y35.656
X49.463 Y35.638 Z-10.492
X49.524 Y35.622 Z-10.47
X49.579 Y35.607 Z-10.435
X49.625 Y35.594 Z-10.387
X49.659 Y35.585 Z-10.33
X49.681 Y35.579 Z-10.267
X49.688 Y35.577 Z-10.2
G0 Z5
X-2.904 Y32.668
G1 Z-10.2 F600
X-2.897 Y32.671 Z-10.267
X-2.876 Y32.679 Z-10.33
X-2.843 Y32.692 Z-10.387
X-2.799 Y32.709 Z-10.435
X-2.746 Y32.729 Z-10.47
X-2.686 Y32.752 Z-10.492
X-2.624 Y32.775 Z-10.5
X-1.397 Y33.244
G2 X1 Y33.684 I2.384 J-6.244
X1.515 Y33.668 J-8.242
G3 X2.029 Y33.651 I0.515 J8.225
X2.349 Y33.971 J0.319
G1 X2.304 Y137.005
G2 X2.743 Y139.392 I6.697
X2.93 Y139.52 I0.187 J-0.071
G1 X45.07 Y139.521
G2 X45.257 Y139.393 J-0.2
X45.697 Y137.005 I-6.257 J-2.388
G1 X45.652 Y33.975
G3 X45.971 Y33.656 I0.319
X46.486 Y33.672 J8.238
G2 X47 Y33.688 I0.514 J-8.222
X49.387 Y33.249 J-6.697
G1 X49.397 Y33.244
X49.46 Y33.221 Z-10.492
X49.519 Y33.198 Z-10.47
X49.572 Y33.178 Z-10.435
X49.617 Y33.161 Z-10.387
X49.65 Y33.148 Z-10.33
X49.671 Y33.14 Z-10.267
X49.678 Y33.138 Z-10.2
G0 Z5
X-2.904 Y29.564
G1 Z-10.2 F600
X-2.898 Y29.568 Z-10.267
X-2.879 Y29.58 Z-10.33
X-2.85 Y29.6 Z-10.387
X-2.81 Y29.627 Z-10.435
X-2.763 Y29.658 Z-10.47
X-2.71 Y29.693 Z-10.492
X-2.655 Y29.73 Z-10.5
X-1.387 Y30.576
G2 X1 Y31.3 I2.387 J-3.577
G1 X4
G3 X4.7 Y32 J0.7
G1 Y137.005
G2 X5.429 Y139.401 I4.3
X5.596 Y139.489 I0.166 J-0.111
G1 X42.411 Y139.481
G2 X42.577 Y139.392 J-0.2
X43.3 Y137.005 I-3.577 J-2.387
G1 Y32.005
G3 X44 Y31.305 I0.7
G1 X47
G2 X49.396 Y30.575 J-4.3
X49.735 Y27.313 I-1.189 J-1.773
G3 X48.5 Y24.274 I3.119 J-3.039
G1 Y4.006
G2 X44 Y-0.5 I-4.5 J-0.006
G1 X4
G2 X-0.5 Y4 J4.5
G1 Y27
G2 X1 Y28.5 I1.5
G1 X4
G3 X7.5 Y32 I0.001 J3.5
G1 Y106.364
Y137.005
G2 X9 Y138.505 I1.5
G1 X39
G2 X40.5 Y137.005 J-1.5
G1 Y32.005
G3 X44 Y28.504 I3.5
G1 X47
G2 X48.5 Y27.004 J-1.5
G1 Y24.274
G3 X48.557 Y24.098 I0.3
G1 X49.439 Y22.884
X49.478 Y22.83 Z-10.492
X49.515 Y22.779 Z-10.47
X49.549 Y22.733 Z-10.435
X49.577 Y22.695 Z-10.387
X49.598 Y22.666 Z-10.33
X49.611 Y22.648 Z-10.267
X49.615 Y22.642 Z-10.2
G0 Z5
X-2.903 Y35.238
G1 Z-10.7 F600
X-2.896 Y35.24 Z-10.767
X-2.875 Y35.246 Z-10.83
X-2.84 Y35.256 Z-10.887
X-2.794 Y35.268 Z-10.935
X-2.74 Y35.283 Z-10.97
X-2.678 Y35.3 Z-10.992
X-2.614 Y35.318 Z-11
X-1.387 Y35.655
G2 X-0.301 Y35.882 I2.401 J-8.747
G3 X0.023 Y36.257 I-0.055 J0.374
G1 X-0.022 Y137.005
G2 X0.301 Y139.399 I9.022
X0.494 Y139.546 I0.193 J-0.053
G1 X47.506 Y139.549
G2 X47.698 Y139.402 J-0.2
X48.022 Y137.005 I-8.698 J-2.397
G1 X47.977 Y36.261
G3 X48.301 Y35.887 I0.378
G2 X49.387 Y35.659 I-1.314 J-8.975
G1 X49.399 Y35.656
X49.463 Y35.638 Z-10.992
X49.524 Y35.622 Z-10.97
X49.579 Y35.607 Z-10.935
X49.625 Y35.594 Z-10.887
X49.659 Y35.585 Z-10.83
X49.681 Y35.579 Z-10.767
X49.688 Y35.577 Z-10.7
G0 Z5
X-2.904 Y32.668
G1 Z-10.7 F600
X-2.897 Y32.671 Z-10.767
X-2.876 Y32.679 Z-10.83
X-2.843 Y32.692 Z-10.887
X-2.799 Y32.709 Z-10.935
X-2.746 Y32.729 Z-10.97
X-2.686 Y32.752 Z-10.992
X-2.624 Y32.775 Z-11
X-1.397 Y33.244
G2 X1 Y33.684 I2.384 J-6.244
X1.515 Y33.668 J-8.242
G3 X2.029 Y33.651 I0.515 J8.225
X2.349 Y33.971 J0.319
G1 X2.304 Y137.005
G2 X2.743 Y139.392 I6.697
X2.93 Y139.52 I0.187 J-0.071
G1 X45.07 Y139.521
G2 X45.257 Y139.393 J-0.2
X45.697 Y137.005 I-6.257 J-2.388
G1 X45.652 Y33.975
G3 X45.971 Y33.656 I0.319
X46.486 Y33.672 J8.238
G2 X47 Y33.688 I0.514 J-8.222
X49.387 Y33.249 J-6.697
G1 X49.397 Y33.244
X49.46 Y33.221 Z-10.992
X49.519 Y33.198 Z-10.97
X49.572 Y33.178 Z-10.935
X49.617 Y33.161 Z-10.887
X49.65 Y33.148 Z-10.83
X49.671 Y33.14 Z-10.767
X49.678 Y33.138 Z-10.7
G0 Z5
X-2.904 Y29.564
G1 Z-10.7 F600
X-2.898 Y29.568 Z-10.767
X-2.879 Y29.58 Z-10.83
X-2.85 Y29.6 Z-10.887
X-2.81 Y29.627 Z-10.935
X-2.763 Y29.658 Z-10.97
X-2.71 Y29.693 Z-10.992
X-2.655 Y29.73 Z-11
X-1.387 Y30.576
G2 X1 Y31.3 I2.387 J-3.577
G1 X4
G3 X4.7 Y32 J0.7
G1 Y137.005
G2 X5.429 Y139.401 I4.3
X5.596 Y139.489 I0.166 J-0.111
G1 X42.411 Y139.481
G2 X42.577 Y139.392 J-0.2
X43.3 Y137.005 I-3.577 J-2.387
G1 Y32.005
G3 X44 Y31.305 I0.7
G1 X47
G2 X49.396 Y30.575 J-4.3
X49.735 Y27.313 I-1.189 J-1.773
G3 X48.5 Y24.274 I3.119 J-3.039
G1 Y4.006
G2 X44 Y-0.5 I-4.5 J-0.006
G1 X4
G2 X-0.5 Y4 J4.5
G1 Y27
G2 X1 Y28.5 I1.5
G1 X4
G3 X7.5 Y32 I0.001 J3.5
G1 Y106.364
Y137.005
G2 X9 Y138.505 I1.5
G1 X39
G2 X40.5 Y137.005 J-1.5
G1 Y32.005
G3 X44 Y28.504 I3.5
G1 X47
G2 X48.5 Y27.004 J-1.5
G1 Y24.274
G3 X48.557 Y24.098 I0.3
G1 X49.439 Y22.884
X49.478 Y22.83 Z-10.992
X49.515 Y22.779 Z-10.97
X49.549 Y22.733 Z-10.935
X49.577 Y22.695 Z-10.887
X49.598 Y22.666 Z-10.83
X49.611 Y22.648 Z-10.767
X49.615 Y22.642 Z-10.7
G0 Z5
X-2.903 Y35.238
G1 Z-11.2 F600
X-2.896 Y35.24 Z-11.267
X-2.875 Y35.246 Z-11.33
X-2.84 Y35.256 Z-11.387
X-2.794 Y35.268 Z-11.435
X-2.74 Y35.283 Z-11.47
X-2.678 Y35.3 Z-11.492
X-2.614 Y35.318 Z-11.5
X-1.387 Y35.655
G2 X-0.301 Y35.882 I2.401 J-8.747
G3 X0.023 Y36.257 I-0.055 J0.374
G1 X-0.022 Y137.005
G2 X0.301 Y139.399 I9.022
X0.494 Y139.546 I0.193 J-0.053
G1 X47.506 Y139.549
G2 X47.698 Y139.402 J-0.2
X48.022 Y137.005 I-8.698 J-2.397
G1 X47.977 Y36.261
G3 X48.301 Y35.887 I0.378
G2 X49.387 Y35.659 I-1.314 J-8.975
G1 X49.399 Y35.656
X49.463 Y35.638 Z-11.492
X49.524 Y35.622 Z-11.47
X49.579 Y35.607 Z-11.435
X49.625 Y35.594 Z-11.387
X49.659 Y35.585 Z-11.33
X49.681 Y35.579 Z-11.267
X49.688 Y35.577 Z-11.2
G0 Z5
X-2.904 Y32.668
G1 Z-11.2 F600
X-2.897 Y32.671 Z-11.267
X-2.876 Y32.679 Z-11.33
X-2.843 Y32.692 Z-11.387
X-2.799 Y32.709 Z-11.435
X-2.746 Y32.729 Z-11.47
X-2.686 Y32.752 Z-11.492
X-2.624 Y32.775 Z-11.5
X-1.397 Y33.244
G2 X1 Y33.684 I2.384 J-6.244
X1.515 Y33.668 J-8.242
G3 X2.029 Y33.651 I0.515 J8.225
X2.349 Y33.971 J0.319
G1 X2.304 Y137.005
G2 X2.743 Y139.392 I6.697
X2.93 Y139.52 I0.187 J-0.071
G1 X45.07 Y139.521
G2 X45.257 Y139.393 J-0.2
X45.697 Y137.005 I-6.257 J-2.388
G1 X45.652 Y33.975
G3 X45.971 Y33.656 I0.319
X46.486 Y33.672 J8.238
G2 X47 Y33.688 I0.514 J-8.222
X49.387 Y33.249 J-6.697
G1 X49.397 Y33.244
X49.46 Y33.221 Z-11.492
X49.519 Y33.198 Z-11.47
X49.572 Y33.178 Z-11.435
X49.617 Y33.161 Z-11.387
X49.65 Y33.148 Z-11.33
X49.671 Y33.14 Z-11.267
X49.678 Y33.138 Z-11.2
G0 Z5
X-2.904 Y29.564
G1 Z-11.2 F600
X-2.898 Y29.568 Z-11.267
X-2.879 Y29.58 Z-11.33
X-2.85 Y29.6 Z-11.387
X-2.81 Y29.627 Z-11.435
X-2.763 Y29.658 Z-11.47
X-2.71 Y29.693 Z-11.492
X-2.655 Y29.73 Z-11.5
X-1.387 Y30.576
G2 X1 Y31.3 I2.387 J-3.577
G1 X4
G3 X4.7 Y32 J0.7
G1 Y137.005
G2 X5.429 Y139.401 I4.3
X5.596 Y139.489 I0.166 J-0.111
G1 X42.411 Y139.481
G2 X42.577 Y139.392 J-0.2
X43.3 Y137.005 I-3.577 J-2.387
G1 Y32.005
G3 X44 Y31.305 I0.7
G1 X47
G2 X49.396 Y30.575 J-4.3
X49.735 Y27.313 I-1.189 J-1.773
G3 X48.5 Y24.274 I3.119 J-3.039
G1 Y4.006
G2 X44 Y-0.5 I-4.5 J-0.006
G1 X4
G2 X-0.5 Y4 J4.5
G1 Y27
G2 X1 Y28.5 I1.5
G1 X4
G3 X7.5 Y32 I0.001 J3.5
G1 Y106.364
Y137.005
G2 X9 Y138.505 I1.5
G1 X39
G2 X40.5 Y137.005 J-1.5
G1 Y32.005
G3 X44 Y28.504 I3.5
G1 X47
G2 X48.5 Y27.004 J-1.5
G1 Y24.274
G3 X48.557 Y24.098 I0.3
G1 X49.439 Y22.884
X49.478 Y22.83 Z-11.492
X49.515 Y22.779 Z-11.47
X49.549 Y22.733 Z-11.435
X49.577 Y22.695 Z-11.387
X49.598 Y22.666 Z-11.33
X49.611 Y22.648 Z-11.267
X49.615 Y22.642 Z-11.2
G0 Z5
X-2.903 Y35.238
G1 Z-11.7 F600
X-2.896 Y35.24 Z-11.767
X-2.875 Y35.246 Z-11.83
X-2.84 Y35.256 Z-11.887
X-2.794 Y35.268 Z-11.935
X-2.74 Y35.283 Z-11.97
X-2.678 Y35.3 Z-11.992
X-2.614 Y35.318 Z-12
X-1.387 Y35.655
G2 X-0.301 Y35.882 I2.401 J-8.747
G3 X0.023 Y36.257 I-0.055 J0.374
G1 X-0.022 Y137.005
G2 X0.301 Y139.399 I9.022
X0.494 Y139.546 I0.193 J-0.053
G1 X47.506 Y139.549
G2 X47.698 Y139.402 J-0.2
X48.022 Y137.005 I-8.698 J-2.397
G1 X47.977 Y36.261
G3 X48.301 Y35.887 I0.378
G2 X49.387 Y35.659 I-1.314 J-8.975
G1 X49.399 Y35.656
X49.463 Y35.638 Z-11.992
X49.524 Y35.622 Z-11.97
X49.579 Y35.607 Z-11.935
X49.625 Y35.594 Z-11.887
X49.659 Y35.585 Z-11.83
X49.681 Y35.579 Z-11.767
X49.688 Y35.577 Z-11.7
G0 Z5
X-2.904 Y32.668
G1 Z-11.7 F600
X-2.897 Y32.671 Z-11.767
X-2.876 Y32.679 Z-11.83
X-2.843 Y32.692 Z-11.887
X-2.799 Y32.709 Z-11.935
X-2.746 Y32.729 Z-11.97
X-2.686 Y32.752 Z-11.992
X-2.624 Y32.775 Z-12
X-1.397 Y33.244
G2 X1 Y33.684 I2.384 J-6.244
X1.515 Y33.668 J-8.242
G3 X2.029 Y33.651 I0.515 J8.225
X2.349 Y33.971 J0.319
G1 X2.304 Y137.005
G2 X2.743 Y139.392 I6.697
X2.93 Y139.52 I0.187 J-0.071
G1 X45.07 Y139.521
G2 X45.257 Y139.393 J-0.2
X45.697 Y137.005 I-6.257 J-2.388
G1 X45.652 Y33.975
G3 X45.971 Y33.656 I0.319
X46.486 Y33.672 J8.238
G2 X47 Y33.688 I0.514 J-8.222
X49.387 Y33.249 J-6.697
G1 X49.397 Y33.244
X49.46 Y33.221 Z-11.992
X49.519 Y33.198 Z-11.97
X49.572 Y33.178 Z-11.935
X49.617 Y33.161 Z-11.887
X49.65 Y33.148 Z-11.83
X49.671 Y33.14 Z-11.767
X49.678 Y33.138 Z-11.7
G0 Z5
X-2.904 Y29.564
G1 Z-11.7 F600
X-2.898 Y29.568 Z-11.767
X-2.879 Y29.58 Z-11.83
X-2.85 Y29.6 Z-11.887
X-2.81 Y29.627 Z-11.935
X-2.763 Y29.658 Z-11.97
X-2.71 Y29.693 Z-11.992
X-2.655 Y29.73 Z-12
X-1.387 Y30.576
G2 X1 Y31.3 I2.387 J-3.577
G1 X4
G3 X4.7 Y32 J0.7
G1 Y137.005
G2 X5.429 Y139.401 I4.3
X5.596 Y139.489 I0.166 J-0.111
G1 X42.411 Y139.481
G2 X42.577 Y139.392 J-0.2
X43.3 Y137.005 I-3.577 J-2.387
G1 Y32.005
G3 X44 Y31.305 I0.7
G1 X47
G2 X49.396 Y30.575 J-4.3
X49.735 Y27.313 I-1.189 J-1.773
G3 X48.5 Y24.274 I3.119 J-3.039
G1 Y4.006
G2 X44 Y-0.5 I-4.5 J-0.006
G1 X4
G2 X-0.5 Y4 J4.5
G1 Y27
G2 X1 Y28.5 I1.5
G1 X4
G3 X7.5 Y32 I0.001 J3.5
G1 Y106.364
Y137.005
G2 X9 Y138.505 I1.5
G1 X39
G2 X40.5 Y137.005 J-1.5
G1 Y32.005
G3 X44 Y28.504 I3.5
G1 X47
G2 X48.5 Y27.004 J-1.5
G1 Y24.274
G3 X48.557 Y24.098 I0.3
G1 X49.439 Y22.884
X49.478 Y22.83 Z-11.992
X49.515 Y22.779 Z-11.97
X49.549 Y22.733 Z-11.935
X49.577 Y22.695 Z-11.887
X49.598 Y22.666 Z-11.83
X49.611 Y22.648 Z-11.767
X49.615 Y22.642 Z-11.7
G0 Z5
X-2.903 Y35.238
G1 Z-12.2 F600
X-2.896 Y35.24 Z-12.267
X-2.875 Y35.246 Z-12.33
X-2.84 Y35.256 Z-12.387
X-2.794 Y35.268 Z-12.435
X-2.74 Y35.283 Z-12.47
X-2.678 Y35.3 Z-12.492
X-2.614 Y35.318 Z-12.5
X-1.387 Y35.655
G2 X-0.301 Y35.882 I2.401 J-8.747
G3 X0.023 Y36.257 I-0.055 J0.374
G1 X-0.022 Y137.005
G2 X0.301 Y139.399 I9.022
X0.494 Y139.546 I0.193 J-0.053
G1 X47.506 Y139.549
G2 X47.698 Y139.402 J-0.2
X48.022 Y137.005 I-8.698 J-2.397
G1 X47.977 Y36.261
G3 X48.301 Y35.887 I0.378
G2 X49.387 Y35.659 I-1.314 J-8.975
G1 X49.399 Y35.656
X49.463 Y35.638 Z-12.492
X49.524 Y35.622 Z-12.47
X49.579 Y35.607 Z-12.435
X49.625 Y35.594 Z-12.387
X49.659 Y35.585 Z-12.33
X49.681 Y35.579 Z-12.267
X49.688 Y35.577 Z-12.2
G0 Z5
X-2.904 Y32.668
G1 Z-12.2 F600
X-2.897 Y32.671 Z-12.267
X-2.876 Y32.679 Z-12.33
X-2.843 Y32.692 Z-12.387
X-2.799 Y32.709 Z-12.435
X-2.746 Y32.729 Z-12.47
X-2.686 Y32.752 Z-12.492
X-2.624 Y32.775 Z-12.5
X-1.397 Y33.244
G2 X1 Y33.684 I2.384 J-6.244
X1.515 Y33.668 J-8.242
G3 X2.029 Y33.651 I0.515 J8.225
X2.349 Y33.971 J0.319
G1 X2.304 Y137.005
G2 X2.743 Y139.392 I6.697
X2.93 Y139.52 I0.187 J-0.071
G1 X45.07 Y139.521
G2 X45.257 Y139.393 J-0.2
X45.697 Y137.005 I-6.257 J-2.388
G1 X45.652 Y33.975
G3 X45.971 Y33.656 I0.319
X46.486 Y33.672 J8.238
G2 X47 Y33.688 I0.514 J-8.222
X49.387 Y33.249 J-6.697
G1 X49.397 Y33.244
X49.46 Y33.221 Z-12.492
X49.519 Y33.198 Z-12.47
X49.572 Y33.178 Z-12.435
X49.617 Y33.161 Z-12.387
X49.65 Y33.148 Z-12.33
X49.671 Y33.14 Z-12.267
X49.678 Y33.138 Z-12.2
G0 Z5
X-2.904 Y29.564
G1 Z-12.2 F600
X-2.898 Y29.568 Z-12.267
X-2.879 Y29.58 Z-12.33
X-2.85 Y29.6 Z-12.387
X-2.81 Y29.627 Z-12.435
X-2.763 Y29.658 Z-12.47
X-2.71 Y29.693 Z-12.492
X-2.655 Y29.73 Z-12.5
X-1.387 Y30.576
G2 X1 Y31.3 I2.387 J-3.577
G1 X4
G3 X4.7 Y32 J0.7
G1 Y137.005
G2 X5.429 Y139.401 I4.3
X5.596 Y139.489 I0.166 J-0.111
G1 X42.411 Y139.481
G2 X42.577 Y139.392 J-0.2
X43.3 Y137.005 I-3.577 J-2.387
G1 Y32.005
G3 X44 Y31.305 I0.7
G1 X47
G2 X49.396 Y30.575 J-4.3
X49.735 Y27.313 I-1.189 J-1.773
G3 X48.5 Y24.274 I3.119 J-3.039
G1 Y4.006
G2 X44 Y-0.5 I-4.5 J-0.006
G1 X4
G2 X-0.5 Y4 J4.5
G1 Y27
G2 X1 Y28.5 I1.5
G1 X4
G3 X7.5 Y32 I0.001 J3.5
G1 Y106.364
Y137.005
G2 X9 Y138.505 I1.5
G1 X39
G2 X40.5 Y137.005 J-1.5
G1 Y32.005
G3 X44 Y28.504 I3.5
G1 X47
G2 X48.5 Y27.004 J-1.5
G1 Y24.274
G3 X48.557 Y24.098 I0.3
G1 X49.439 Y22.884
X49.478 Y22.83 Z-12.492
X49.515 Y22.779 Z-12.47
X49.549 Y22.733 Z-12.435
X49.577 Y22.695 Z-12.387
X49.598 Y22.666 Z-12.33
X49.611 Y22.648 Z-12.267
X49.615 Y22.642 Z-12.2
G0 Z5
X-2.903 Y35.238
G1 Z-12.7 F600
X-2.896 Y35.24 Z-12.767
X-2.875 Y35.246 Z-12.83
X-2.84 Y35.256 Z-12.887
X-2.794 Y35.268 Z-12.935
X-2.74 Y35.283 Z-12.97
X-2.678 Y35.3 Z-12.992
X-2.614 Y35.318 Z-13
X-1.387 Y35.655
G2 X-0.301 Y35.882 I2.401 J-8.747
G3 X0.023 Y36.257 I-0.055 J0.374
G1 X-0.022 Y137.005
G2 X0.301 Y139.399 I9.022
X0.494 Y139.546 I0.193 J-0.053
G1 X47.506 Y139.549
G2 X47.698 Y139.402 J-0.2
X48.022 Y137.005 I-8.698 J-2.397
G1 X47.977 Y36.261
G3 X48.301 Y35.887 I0.378
G2 X49.387 Y35.659 I-1.314 J-8.975
G1 X49.399 Y35.656
X49.463 Y35.638 Z-12.992
X49.524 Y35.622 Z-12.97
X49.579 Y35.607 Z-12.935
X49.625 Y35.594 Z-12.887
X49.659 Y35.585 Z-12.83
X49.681 Y35.579 Z-12.767
X49.688 Y35.577 Z-12.7
G0 Z5
X-2.904 Y32.668
G1 Z-12.7 F600
X-2.897 Y32.671 Z-12.767
X-2.876 Y32.679 Z-12.83
X-2.843 Y32.692 Z-12.887
X-2.799 Y32.709 Z-12.935
X-2.746 Y32.729 Z-12.97
X-2.686 Y32.752 Z-12.992
X-2.624 Y32.775 Z-13
X-1.397 Y33.244
G2 X1 Y33.684 I2.384 J-6.244
X1.515 Y33.668 J-8.242
G3 X2.029 Y33.651 I0.515 J8.225
X2.349 Y33.971 J0.319
G1 X2.304 Y137.005
G2 X2.743 Y139.392 I6.697
X2.93 Y139.52 I0.187 J-0.071
G1 X45.07 Y139.521
G2 X45.257 Y139.393 J-0.2
X45.697 Y137.005 I-6.257 J-2.388
G1 X45.652 Y33.975
G3 X45.971 Y33.656 I0.319
X46.486 Y33.672 J8.238
G2 X47 Y33.688 I0.514 J-8.222
X49.387 Y33.249 J-6.697
G1 X49.397 Y33.244
X49.46 Y33.221 Z-12.992
X49.519 Y33.198 Z-12.97
X49.572 Y33.178 Z-12.935
X49.617 Y33.161 Z-12.887
X49.65 Y33.148 Z-12.83
X49.671 Y33.14 Z-12.767
X49.678 Y33.138 Z-12.7
G0 Z5
X-2.904 Y29.564
G1 Z-12.7 F600
X-2.898 Y29.568 Z-12.767
X-2.879 Y29.58 Z-12.83
X-2.85 Y29.6 Z-12.887
X-2.81 Y29.627 Z-12.935
X-2.763 Y29.658 Z-12.97
X-2.71 Y29.693 Z-12.992
X-2.655 Y29.73 Z-13
X-1.387 Y30.576
G2 X1 Y31.3 I2.387 J-3.577
G1 X4
G3 X4.7 Y32 J0.7
G1 Y137.005
G2 X5.429 Y139.401 I4.3
X5.596 Y139.489 I0.166 J-0.111
G1 X42.411 Y139.481
G2 X42.577 Y139.392 J-0.2
X43.3 Y137.005 I-3.577 J-2.387
G1 Y32.005
G3 X44 Y31.305 I0.7
G1 X47
G2 X49.396 Y30.575 J-4.3
X49.735 Y27.313 I-1.189 J-1.773
G3 X48.5 Y24.274 I3.119 J-3.039
G1 Y4.006
G2 X44 Y-0.5 I-4.5 J-0.006
G1 X4
G2 X-0.5 Y4 J4.5
G1 Y27
G2 X1 Y28.5 I1.5
G1 X4
G3 X7.5 Y32 I0.001 J3.5
G1 Y106.364
Y137.005
G2 X9 Y138.505 I1.5
G1 X39
G2 X40.5 Y137.005 J-1.5
G1 Y32.005
G3 X44 Y28.504 I3.5
G1 X47
G2 X48.5 Y27.004 J-1.5
G1 Y24.274
G3 X48.557 Y24.098 I0.3
G1 X49.439 Y22.884
X49.478 Y22.83 Z-12.992
X49.515 Y22.779 Z-12.97
X49.549 Y22.733 Z-12.935
X49.577 Y22.695 Z-12.887
X49.598 Y22.666 Z-12.83
X49.611 Y22.648 Z-12.767
X49.615 Y22.642 Z-12.7
G0 Z5
X-2.903 Y35.238
G1 Z-13.2 F600
X-2.896 Y35.24 Z-13.267
X-2.875 Y35.246 Z-13.33
X-2.84 Y35.256 Z-13.387
X-2.794 Y35.268 Z-13.435
X-2.74 Y35.283 Z-13.47
X-2.678 Y35.3 Z-13.492
X-2.614 Y35.318 Z-13.5
X-1.387 Y35.655
G2 X-0.301 Y35.882 I2.401 J-8.747
G3 X0.023 Y36.257 I-0.055 J0.374
G1 X-0.022 Y137.005
G2 X0.301 Y139.399 I9.022
X0.494 Y139.546 I0.193 J-0.053
G1 X47.506 Y139.549
G2 X47.698 Y139.402 J-0.2
X48.022 Y137.005 I-8.698 J-2.397
G1 X47.977 Y36.261
G3 X48.301 Y35.887 I0.378
G2 X49.387 Y35.659 I-1.314 J-8.975
G1 X49.399 Y35.656
X49.463 Y35.638 Z-13.492
X49.524 Y35.622 Z-13.47
X49.579 Y35.607 Z-13.435
X49.625 Y35.594 Z-13.387
X49.659 Y35.585 Z-13.33
X49.681 Y35.579 Z-13.267
X49.688 Y35.577 Z-13.2
G0 Z5
X-2.904 Y32.668
G1 Z-13.2 F600
X-2.897 Y32.671 Z-13.267
X-2.876 Y32.679 Z-13.33
X-2.843 Y32.692 Z-13.387
X-2.799 Y32.709 Z-13.435
X-2.746 Y32.729 Z-13.47
X-2.686 Y32.752 Z-13.492
X-2.624 Y32.775 Z-13.5
X-1.397 Y33.244
G2 X1 Y33.684 I2.384 J-6.244
X1.515 Y33.668 J-8.242
G3 X2.029 Y33.651 I0.515 J8.225
X2.349 Y33.971 J0.319
G1 X2.304 Y137.005
G2 X2.743 Y139.392 I6.697
X2.93 Y139.52 I0.187 J-0.071
G1 X45.07 Y139.521
G2 X45.257 Y139.393 J-0.2
X45.697 Y137.005 I-6.257 J-2.388
G1 X45.652 Y33.975
G3 X45.971 Y33.656 I0.319
X46.486 Y33.672 J8.238
G2 X47 Y33.688 I0.514 J-8.222
X49.387 Y33.249 J-6.697
G1 X49.397 Y33.244
X49.46 Y33.221 Z-13.492
X49.519 Y33.198 Z-13.47
X49.572 Y33.178 Z-13.435
X49.617 Y33.161 Z-13.387
X49.65 Y33.148 Z-13.33
X49.671 Y33.14 Z-13.267
X49.678 Y33.138 Z-13.2
G0 Z5
X-2.904 Y29.564
G1 Z-13.2 F600
X-2.898 Y29.568 Z-13.267
X-2.879 Y29.58 Z-13.33
X-2.85 Y29.6 Z-13.387
X-2.81 Y29.627 Z-13.435
X-2.763 Y29.658 Z-13.47
X-2.71 Y29.693 Z-13.492
X-2.655 Y29.73 Z-13.5
X-1.387 Y30.576
G2 X1 Y31.3 I2.387 J-3.577
G1 X4
G3 X4.7 Y32 J0.7
G1 Y137.005
G2 X5.429 Y139.401 I4.3
X5.596 Y139.489 I0.166 J-0.111
G1 X42.411 Y139.481
G2 X42.577 Y139.392 J-0.2
X43.3 Y137.005 I-3.577 J-2.387
G1 Y32.005
G3 X44 Y31.305 I0.7
G1 X47
G2 X49.396 Y30.575 J-4.3
X49.735 Y27.313 I-1.189 J-1.773
G3 X48.5 Y24.274 I3.119 J-3.039
G1 Y4.006
G2 X44 Y-0.5 I-4.5 J-0.006
G1 X4
G2 X-0.5 Y4 J4.5
G1 Y27
G2 X1 Y28.5 I1.5
G1 X4
G3 X7.5 Y32 I0.001 J3.5
G1 Y106.364
Y137.005
G2 X9 Y138.505 I1.5
G1 X39
G2 X40.5 Y137.005 J-1.5
G1 Y32.005
G3 X44 Y28.504 I3.5
G1 X47
G2 X48.5 Y27.004 J-1.5
G1 Y24.274
G3 X48.557 Y24.098 I0.3
G1 X49.439 Y22.884
X49.478 Y22.83 Z-13.492
X49.515 Y22.779 Z-13.47
X49.549 Y22.733 Z-13.435
X49.577 Y22.695 Z-13.387
X49.598 Y22.666 Z-13.33
X49.611 Y22.648 Z-13.267
X49.615 Y22.642 Z-13.2
G0 Z5
X-2.903 Y35.238
G1 Z-13.7 F600
X-2.896 Y35.24 Z-13.767
X-2.875 Y35.246 Z-13.83
X-2.84 Y35.256 Z-13.887
X-2.794 Y35.268 Z-13.935
X-2.74 Y35.283 Z-13.97
X-2.678 Y35.3 Z-13.992
X-2.614 Y35.318 Z-14
X-1.387 Y35.655
G2 X-0.301 Y35.882 I2.401 J-8.747
G3 X0.023 Y36.257 I-0.055 J0.374
G1 X-0.022 Y137.005
G2 X0.301 Y139.399 I9.022
X0.494 Y139.546 I0.193 J-0.053
G1 X47.506 Y139.549
G2 X47.698 Y139.402 J-0.2
X48.022 Y137.005 I-8.698 J-2.397
G1 X47.977 Y36.261
G3 X48.301 Y35.887 I0.378
G2 X49.387 Y35.659 I-1.314 J-8.975
G1 X49.399 Y35.656
X49.463 Y35.638 Z-13.992
X49.524 Y35.622 Z-13.97
X49.579 Y35.607 Z-13.935
X49.625 Y35.594 Z-13.887
X49.659 Y35.585 Z-13.83
X49.681 Y35.579 Z-13.767
X49.688 Y35.577 Z-13.7
G0 Z5
X-2.904 Y32.668
G1 Z-13.7 F600
X-2.897 Y32.671 Z-13.767
X-2.876 Y32.679 Z-13.83
X-2.843 Y32.692 Z-13.887
X-2.799 Y32.709 Z-13.935
X-2.746 Y32.729 Z-13.97
X-2.686 Y32.752 Z-13.992
X-2.624 Y32.775 Z-14
X-1.397 Y33.244
G2 X1 Y33.684 I2.384 J-6.244
X1.515 Y33.668 J-8.242
G3 X2.029 Y33.651 I0.515 J8.225
X2.349 Y33.971 J0.319
G1 X2.304 Y137.005
G2 X2.743 Y139.392 I6.697
X2.93 Y139.52 I0.187 J-0.071
G1 X45.07 Y139.521
G2 X45.257 Y139.393 J-0.2
X45.697 Y137.005 I-6.257 J-2.388
G1 X45.652 Y33.975
G3 X45.971 Y33.656 I0.319
X46.486 Y33.672 J8.238
G2 X47 Y33.688 I0.514 J-8.222
X49.387 Y33.249 J-6.697
G1 X49.397 Y33.244
X49.46 Y33.221 Z-13.992
X49.519 Y33.198 Z-13.97
X49.572 Y33.178 Z-13.935
X49.617 Y33.161 Z-13.887
X49.65 Y33.148 Z-13.83
X49.671 Y33.14 Z-13.767
X49.678 Y33.138 Z-13.7
G0 Z5
X-2.904 Y29.564
G1 Z-13.7 F600
X-2.898 Y29.568 Z-13.767
X-2.879 Y29.58 Z-13.83
X-2.85 Y29.6 Z-13.887
X-2.81 Y29.627 Z-13.935
X-2.763 Y29.658 Z-13.97
X-2.71 Y29.693 Z-13.992
X-2.655 Y29.73 Z-14
X-1.387 Y30.576
G2 X1 Y31.3 I2.387 J-3.577
G1 X4
G3 X4.7 Y32 J0.7
G1 Y137.005
G2 X5.429 Y139.401 I4.3
X5.596 Y139.489 I0.166 J-0.111
G1 X42.411 Y139.481
G2 X42.577 Y139.392 J-0.2
X43.3 Y137.005 I-3.577 J-2.387
G1 Y32.005
G3 X44 Y31.305 I0.7
G1 X47
G2 X49.396 Y30.575 J-4.3
X49.735 Y27.313 I-1.189 J-1.773
G3 X48.5 Y24.274 I3.119 J-3.039
G1 Y4.006
G2 X44 Y-0.5 I-4.5 J-0.006
G1 X4
G2 X-0.5 Y4 J4.5
G1 Y27
G2 X1 Y28.5 I1.5
G1 X4
G3 X7.5 Y32 I0.001 J3.5
G1 Y106.364
Y137.005
G2 X9 Y138.505 I1.5
G1 X39
G2 X40.5 Y137.005 J-1.5
G1 Y32.005
G3 X44 Y28.504 I3.5
G1 X47
G2 X48.5 Y27.004 J-1.5
G1 Y24.274
G3 X48.557 Y24.098 I0.3
G1 X49.439 Y22.884
X49.478 Y22.83 Z-13.992
X49.515 Y22.779 Z-13.97
X49.549 Y22.733 Z-13.935
X49.577 Y22.695 Z-13.887
X49.598 Y22.666 Z-13.83
X49.611 Y22.648 Z-13.767
X49.615 Y22.642 Z-13.7
G0 Z5
X-2.903 Y35.238
G1 Z-14.2 F600
X-2.896 Y35.24 Z-14.267
X-2.875 Y35.246 Z-14.33
X-2.84 Y35.256 Z-14.387
X-2.794 Y35.268 Z-14.435
X-2.74 Y35.283 Z-14.47
X-2.678 Y35.3 Z-14.492
X-2.614 Y35.318 Z-14.5
X-1.387 Y35.655
G2 X-0.301 Y35.882 I2.401 J-8.747
G3 X0.023 Y36.257 I-0.055 J0.374
G1 X-0.022 Y137.005
G2 X0.301 Y139.399 I9.022
X0.494 Y139.546 I0.193 J-0.053
G1 X47.506 Y139.549
G2 X47.698 Y139.402 J-0.2
X48.022 Y137.005 I-8.698 J-2.397
G1 X47.977 Y36.261
G3 X48.301 Y35.887 I0.378
G2 X49.387 Y35.659 I-1.314 J-8.975
G1 X49.399 Y35.656
X49.463 Y35.638 Z-14.492
X49.524 Y35.622 Z-14.47
X49.579 Y35.607 Z-14.435
X49.625 Y35.594 Z-14.387
X49.659 Y35.585 Z-14.33
X49.681 Y35.579 Z-14.267
X49.688 Y35.577 Z-14.2
G0 Z5
X-2.904 Y32.668
G1 Z-14.2 F600
X-2.897 Y32.671 Z-14.267
X-2.876 Y32.679 Z-14.33
X-2.843 Y32.692 Z-14.387
X-2.799 Y32.709 Z-14.435
X-2.746 Y32.729 Z-14.47
X-2.686 Y32.752 Z-14.492
X-2.624 Y32.775 Z-14.5
X-1.397 Y33.244
G2 X1 Y33.684 I2.384 J-6.244
X1.515 Y33.668 J-8.242
G3 X2.029 Y33.651 I0.515 J8.225
X2.349 Y33.971 J0.319
G1 X2.304 Y137.005
G2 X2.743 Y139.392 I6.697
X2.93 Y139.52 I0.187 J-0.071
G1 X45.07 Y139.521
G2 X45.257 Y139.393 J-0.2
X45.697 Y137.005 I-6.257 J-2.388
G1 X45.652 Y33.975
G3 X45.971 Y33.656 I0.319
X46.486 Y33.672 J8.238
G2 X47 Y33.688 I0.514 J-8.222
X49.387 Y33.249 J-6.697
G1 X49.397 Y33.244
X49.46 Y33.221 Z-14.492
X49.519 Y33.198 Z-14.47
X49.572 Y33.178 Z-14.435
X49.617 Y33.161 Z-14.387
X49.65 Y33.148 Z-14.33
X49.671 Y33.14 Z-14.267
X49.678 Y33.138 Z-14.2
G0 Z5
X-2.904 Y29.564
G1 Z-14.2 F600
X-2.898 Y29.568 Z-14.267
X-2.879 Y29.58 Z-14.33
X-2.85 Y29.6 Z-14.387
X-2.81 Y29.627 Z-14.435
X-2.763 Y29.658 Z-14.47
X-2.71 Y29.693 Z-14.492
X-2.655 Y29.73 Z-14.5
X-1.387 Y30.576
G2 X1 Y31.3 I2.387 J-3.577
G1 X4
G3 X4.7 Y32 J0.7
G1 Y137.005
G2 X5.429 Y139.401 I4.3
X5.596 Y139.489 I0.166 J-0.111
G1 X42.411 Y139.481
G2 X42.577 Y139.392 J-0.2
X43.3 Y137.005 I-3.577 J-2.387
G1 Y32.005
G3 X44 Y31.305 I0.7
G1 X47
G2 X49.396 Y30.575 J-4.3
X49.735 Y27.313 I-1.189 J-1.773
G3 X48.5 Y24.274 I3.119 J-3.039
G1 Y4.006
G2 X44 Y-0.5 I-4.5 J-0.006
G1 X4
G2 X-0.5 Y4 J4.5
G1 Y27
G2 X1 Y28.5 I1.5
G1 X4
G3 X7.5 Y32 I0.001 J3.5
G1 Y106.364
Y137.005
G2 X9 Y138.505 I1.5
G1 X39
G2 X40.5 Y137.005 J-1.5
G1 Y32.005
G3 X44 Y28.504 I3.5
G1 X47
G2 X48.5 Y27.004 J-1.5
G1 Y24.274
G3 X48.557 Y24.098 I0.3
G1 X49.439 Y22.884
X49.478 Y22.83 Z-14.492
X49.515 Y22.779 Z-14.47
X49.549 Y22.733 Z-14.435
X49.577 Y22.695 Z-14.387
X49.598 Y22.666 Z-14.33
X49.611 Y22.648 Z-14.267
X49.615 Y22.642 Z-14.2
G0 Z5
X-2.903 Y35.238
G1 Z-14.7 F600
X-2.896 Y35.24 Z-14.767
X-2.875 Y35.246 Z-14.83
X-2.84 Y35.256 Z-14.887
X-2.794 Y35.268 Z-14.935
X-2.74 Y35.283 Z-14.97
X-2.678 Y35.3 Z-14.992
X-2.614 Y35.318 Z-15
X-1.387 Y35.655
G2 X-0.301 Y35.882 I2.401 J-8.747
G3 X0.023 Y36.257 I-0.055 J0.374
G1 X-0.022 Y137.005
G2 X0.301 Y139.399 I9.022
X0.494 Y139.546 I0.193 J-0.053
G1 X47.506 Y139.549
G2 X47.698 Y139.402 J-0.2
X48.022 Y137.005 I-8.698 J-2.397
G1 X47.977 Y36.261
G3 X48.301 Y35.887 I0.378
G2 X49.387 Y35.659 I-1.314 J-8.975
G1 X49.399 Y35.656
X49.463 Y35.638 Z-14.992
X49.524 Y35.622 Z-14.97
X49.579 Y35.607 Z-14.935
X49.625 Y35.594 Z-14.887
X49.659 Y35.585 Z-14.83
X49.681 Y35.579 Z-14.767
X49.688 Y35.577 Z-14.7
G0 Z5
X-2.904 Y32.668
G1 Z-14.7 F600
X-2.897 Y32.671 Z-14.767
X-2.876 Y32.679 Z-14.83
X-2.843 Y32.692 Z-14.887
X-2.799 Y32.709 Z-14.935
X-2.746 Y32.729 Z-14.97
X-2.686 Y32.752 Z-14.992
X-2.624 Y32.775 Z-15
X-1.397 Y33.244
G2 X1 Y33.684 I2.384 J-6.244
X1.515 Y33.668 J-8.242
G3 X2.029 Y33.651 I0.515 J8.225
X2.349 Y33.971 J0.319
G1 X2.304 Y137.005
G2 X2.743 Y139.392 I6.697
X2.93 Y139.52 I0.187 J-0.071
G1 X45.07 Y139.521
G2 X45.257 Y139.393 J-0.2
X45.697 Y137.005 I-6.257 J-2.388
G1 X45.652 Y33.975
G3 X45.971 Y33.656 I0.319
X46.486 Y33.672 J8.238
G2 X47 Y33.688 I0.514 J-8.222
X49.387 Y33.249 J-6.697
G1 X49.397 Y33.244
X49.46 Y33.221 Z-14.992
X49.519 Y33.198 Z-14.97
X49.572 Y33.178 Z-14.935
X49.617 Y33.161 Z-14.887
X49.65 Y33.148 Z-14.83
X49.671 Y33.14 Z-14.767
X49.678 Y33.138 Z-14.7
G0 Z5
X-2.904 Y29.564
G1 Z-14.7 F600
X-2.898 Y29.568 Z-14.767
X-2.879 Y29.58 Z-14.83
X-2.85 Y29.6 Z-14.887
X-2.81 Y29.627 Z-14.935
X-2.763 Y29.658 Z-14.97
X-2.71 Y29.693 Z-14.992
X-2.655 Y29.73 Z-15
X-1.387 Y30.576
G2 X1 Y31.3 I2.387 J-3.577
G1 X4
G3 X4.7 Y32 J0.7
G1 Y137.005
G2 X5.429 Y139.401 I4.3
X5.596 Y139.489 I0.166 J-0.111
G1 X42.411 Y139.481
G2 X42.577 Y139.392 J-0.2
X43.3 Y137.005 I-3.577 J-2.387
G1 Y32.005
G3 X44 Y31.305 I0.7
G1 X47
G2 X49.396 Y30.575 J-4.3
X49.735 Y27.313 I-1.189 J-1.773
G3 X48.5 Y24.274 I3.119 J-3.039
G1 Y4.006
G2 X44 Y-0.5 I-4.5 J-0.006
G1 X4
G2 X-0.5 Y4 J4.5
G1 Y27
G2 X1 Y28.5 I1.5
G1 X4
G3 X7.5 Y32 I0.001 J3.5
G1 Y106.364
Y137.005
G2 X9 Y138.505 I1.5
G1 X39
G2 X40.5 Y137.005 J-1.5
G1 Y32.005
G3 X44 Y28.504 I3.5
G1 X47
G2 X48.5 Y27.004 J-1.5
G1 Y24.274
G3 X48.557 Y24.098 I0.3
G1 X49.439 Y22.884
X49.478 Y22.83 Z-14.992
X49.515 Y22.779 Z-14.97
X49.549 Y22.733 Z-14.935
X49.577 Y22.695 Z-14.887
X49.598 Y22.666 Z-14.83
X49.611 Y22.648 Z-14.767
X49.615 Y22.642 Z-14.7
G0 Z5
X-2.903 Y35.238
G1 Z-15.2 F600
X-2.896 Y35.24 Z-15.267
X-2.875 Y35.246 Z-15.33
X-2.84 Y35.256 Z-15.387
X-2.794 Y35.268 Z-15.435
X-2.74 Y35.283 Z-15.47
X-2.678 Y35.3 Z-15.492
X-2.614 Y35.318 Z-15.5
X-1.387 Y35.655
G2 X-0.301 Y35.882 I2.401 J-8.747
G3 X0.023 Y36.257 I-0.055 J0.374
G1 X-0.022 Y137.005
G2 X0.301 Y139.399 I9.022
X0.494 Y139.546 I0.193 J-0.053
G1 X47.506 Y139.549
G2 X47.698 Y139.402 J-0.2
X48.022 Y137.005 I-8.698 J-2.397
G1 X47.977 Y36.261
G3 X48.301 Y35.887 I0.378
G2 X49.387 Y35.659 I-1.314 J-8.975
G1 X49.399 Y35.656
X49.463 Y35.638 Z-15.492
X49.524 Y35.622 Z-15.47
X49.579 Y35.607 Z-15.435
X49.625 Y35.594 Z-15.387
X49.659 Y35.585 Z-15.33
X49.681 Y35.579 Z-15.267
X49.688 Y35.577 Z-15.2
G0 Z5
X-2.904 Y32.668
G1 Z-15.2 F600
X-2.897 Y32.671 Z-15.267
X-2.876 Y32.679 Z-15.33
X-2.843 Y32.692 Z-15.387
X-2.799 Y32.709 Z-15.435
X-2.746 Y32.729 Z-15.47
X-2.686 Y32.752 Z-15.492
X-2.624 Y32.775 Z-15.5
X-1.397 Y33.244
G2 X1 Y33.684 I2.384 J-6.244
X1.515 Y33.668 J-8.242
G3 X2.029 Y33.651 I0.515 J8.225
X2.349 Y33.971 J0.319
G1 X2.304 Y137.005
G2 X2.743 Y139.392 I6.697
X2.93 Y139.52 I0.187 J-0.071
G1 X45.07 Y139.521
G2 X45.257 Y139.393 J-0.2
X45.697 Y137.005 I-6.257 J-2.388
G1 X45.652 Y33.975
G3 X45.971 Y33.656 I0.319
X46.486 Y33.672 J8.238
G2 X47 Y33.688 I0.514 J-8.222
X49.387 Y33.249 J-6.697
G1 X49.397 Y33.244
X49.46 Y33.221 Z-15.492
X49.519 Y33.198 Z-15.47
X49.572 Y33.178 Z-15.435
X49.617 Y33.161 Z-15.387
X49.65 Y33.148 Z-15.33
X49.671 Y33.14 Z-15.267
X49.678 Y33.138 Z-15.2
G0 Z5
X-2.904 Y29.564
G1 Z-15.2 F600
X-2.898 Y29.568 Z-15.267
X-2.879 Y29.58 Z-15.33
X-2.85 Y29.6 Z-15.387
X-2.81 Y29.627 Z-15.435
X-2.763 Y29.658 Z-15.47
X-2.71 Y29.693 Z-15.492
X-2.655 Y29.73 Z-15.5
X-1.387 Y30.576
G2 X1 Y31.3 I2.387 J-3.577
G1 X4
G3 X4.7 Y32 J0.7
G1 Y137.005
G2 X5.429 Y139.401 I4.3
X5.596 Y139.489 I0.166 J-0.111
G1 X42.411 Y139.481
G2 X42.577 Y139.392 J-0.2
X43.3 Y137.005 I-3.577 J-2.387
G1 Y32.005
G3 X44 Y31.305 I0.7
G1 X47
G2 X49.396 Y30.575 J-4.3
X49.735 Y27.313 I-1.189 J-1.773
G3 X48.5 Y24.274 I3.119 J-3.039
G1 Y4.006
G2 X44 Y-0.5 I-4.5 J-0.006
G1 X4
G2 X-0.5 Y4 J4.5
G1 Y27
G2 X1 Y28.5 I1.5
G1 X4
G3 X7.5 Y32 I0.001 J3.5
G1 Y106.364
Y137.005
G2 X9 Y138.505 I1.5
G1 X39
G2 X40.5 Y137.005 J-1.5
G1 Y32.005
G3 X44 Y28.504 I3.5
G1 X47
G2 X48.5 Y27.004 J-1.5
G1 Y24.274
G3 X48.557 Y24.098 I0.3
G1 X49.439 Y22.884
X49.478 Y22.83 Z-15.492
X49.515 Y22.779 Z-15.47
X49.549 Y22.733 Z-15.435
X49.577 Y22.695 Z-15.387
X49.598 Y22.666 Z-15.33
X49.611 Y22.648 Z-15.267
X49.615 Y22.642 Z-15.2
G0 Z5
X-2.903 Y35.238
G1 Z-15.7 F600
X-2.896 Y35.24 Z-15.767
X-2.875 Y35.246 Z-15.83
X-2.84 Y35.256 Z-15.887
X-2.794 Y35.268 Z-15.935
X-2.74 Y35.283 Z-15.97
X-2.678 Y35.3 Z-15.992
X-2.614 Y35.318 Z-16
X-1.387 Y35.655
G2 X-0.301 Y35.882 I2.401 J-8.747
G3 X0.023 Y36.257 I-0.055 J0.374
G1 X-0.022 Y137.005
G2 X0.301 Y139.399 I9.022
X0.494 Y139.546 I0.193 J-0.053
G1 X47.506 Y139.549
G2 X47.698 Y139.402 J-0.2
X48.022 Y137.005 I-8.698 J-2.397
G1 X47.977 Y36.261
G3 X48.301 Y35.887 I0.378
G2 X49.387 Y35.659 I-1.314 J-8.975
G1 X49.399 Y35.656
X49.463 Y35.638 Z-15.992
X49.524 Y35.622 Z-15.97
X49.579 Y35.607 Z-15.935
X49.625 Y35.594 Z-15.887
X49.659 Y35.585 Z-15.83
X49.681 Y35.579 Z-15.767
X49.688 Y35.577 Z-15.7
G0 Z5
X-2.904 Y32.668
G1 Z-15.7 F600
X-2.897 Y32.671 Z-15.767
X-2.876 Y32.679 Z-15.83
X-2.843 Y32.692 Z-15.887
X-2.799 Y32.709 Z-15.935
X-2.746 Y32.729 Z-15.97
X-2.686 Y32.752 Z-15.992
X-2.624 Y32.775 Z-16
X-1.397 Y33.244
G2 X1 Y33.684 I2.384 J-6.244
X1.515 Y33.668 J-8.242
G3 X2.029 Y33.651 I0.515 J8.225
X2.349 Y33.971 J0.319
G1 X2.304 Y137.005
G2 X2.743 Y139.392 I6.697
X2.93 Y139.52 I0.187 J-0.071
G1 X45.07 Y139.521
G2 X45.257 Y139.393 J-0.2
X45.697 Y137.005 I-6.257 J-2.388
G1 X45.652 Y33.975
G3 X45.971 Y33.656 I0.319
X46.486 Y33.672 J8.238
G2 X47 Y33.688 I0.514 J-8.222
X49.387 Y33.249 J-6.697
G1 X49.397 Y33.244
X49.46 Y33.221 Z-15.992
X49.519 Y33.198 Z-15.97
X49.572 Y33.178 Z-15.935
X49.617 Y33.161 Z-15.887
X49.65 Y33.148 Z-15.83
X49.671 Y33.14 Z-15.767
X49.678 Y33.138 Z-15.7
G0 Z5
X-2.904 Y29.564
G1 Z-15.7 F600
X-2.898 Y29.568 Z-15.767
X-2.879 Y29.58 Z-15.83
X-2.85 Y29.6 Z-15.887
X-2.81 Y29.627 Z-15.935
X-2.763 Y29.658 Z-15.97
X-2.71 Y29.693 Z-15.992
X-2.655 Y29.73 Z-16
X-1.387 Y30.576
G2 X1 Y31.3 I2.387 J-3.577
G1 X4
G3 X4.7 Y32 J0.7
G1 Y137.005
G2 X5.429 Y139.401 I4.3
X5.596 Y139.489 I0.166 J-0.111
G1 X42.411 Y139.481
G2 X42.577 Y139.392 J-0.2
X43.3 Y137.005 I-3.577 J-2.387
G1 Y32.005
G3 X44 Y31.305 I0.7
G1 X47
G2 X49.396 Y30.575 J-4.3
X49.735 Y27.313 I-1.189 J-1.773
G3 X48.5 Y24.274 I3.119 J-3.039
G1 Y4.006
G2 X44 Y-0.5 I-4.5 J-0.006
G1 X4
G2 X-0.5 Y4 J4.5
G1 Y27
G2 X1 Y28.5 I1.5
G1 X4
G3 X7.5 Y32 I0.001 J3.5
G1 Y106.364
Y137.005
G2 X9 Y138.505 I1.5
G1 X39
G2 X40.5 Y137.005 J-1.5
G1 Y32.005
G3 X44 Y28.504 I3.5
G1 X47
G2 X48.5 Y27.004 J-1.5
G1 Y24.274
G3 X48.557 Y24.098 I0.3
G1 X49.439 Y22.884
X49.478 Y22.83 Z-15.992
X49.515 Y22.779 Z-15.97
X49.549 Y22.733 Z-15.935
X49.577 Y22.695 Z-15.887
X49.598 Y22.666 Z-15.83
X49.611 Y22.648 Z-15.767
X49.615 Y22.642 Z-15.7
G0 Z5
X-2.903 Y35.238
G1 Z-16.2 F600
X-2.896 Y35.24 Z-16.267
X-2.875 Y35.246 Z-16.33
X-2.84 Y35.256 Z-16.387
X-2.794 Y35.268 Z-16.435
X-2.74 Y35.283 Z-16.47
X-2.678 Y35.3 Z-16.492
X-2.614 Y35.318 Z-16.5
X-1.387 Y35.655
G2 X-0.301 Y35.882 I2.401 J-8.747
G3 X0.023 Y36.257 I-0.055 J0.374
G1 X-0.022 Y137.005
G2 X0.301 Y139.399 I9.022
X0.494 Y139.546 I0.193 J-0.053
G1 X47.506 Y139.549
G2 X47.698 Y139.402 J-0.2
X48.022 Y137.005 I-8.698 J-2.397
G1 X47.977 Y36.261
G3 X48.301 Y35.887 I0.378
G2 X49.387 Y35.659 I-1.314 J-8.975
G1 X49.399 Y35.656
X49.463 Y35.638 Z-16.492
X49.524 Y35.622 Z-16.47
X49.579 Y35.607 Z-16.435
X49.625 Y35.594 Z-16.387
X49.659 Y35.585 Z-16.33
X49.681 Y35.579 Z-16.267
X49.688 Y35.577 Z-16.2
G0 Z5
X-2.904 Y32.668
G1 Z-16.2 F600
X-2.897 Y32.671 Z-16.267
X-2.876 Y32.679 Z-16.33
X-2.843 Y32.692 Z-16.387
X-2.799 Y32.709 Z-16.435
X-2.746 Y32.729 Z-16.47
X-2.686 Y32.752 Z-16.492
X-2.624 Y32.775 Z-16.5
X-1.397 Y33.244
G2 X1 Y33.684 I2.384 J-6.244
X1.515 Y33.668 J-8.242
G3 X2.029 Y33.651 I0.515 J8.225
X2.349 Y33.971 J0.319
G1 X2.304 Y137.005
G2 X2.743 Y139.392 I6.697
X2.93 Y139.52 I0.187 J-0.071
G1 X45.07 Y139.521
G2 X45.257 Y139.393 J-0.2
X45.697 Y137.005 I-6.257 J-2.388
G1 X45.652 Y33.975
G3 X45.971 Y33.656 I0.319
X46.486 Y33.672 J8.238
G2 X47 Y33.688 I0.514 J-8.222
X49.387 Y33.249 J-6.697
G1 X49.397 Y33.244
X49.46 Y33.221 Z-16.492
X49.519 Y33.198 Z-16.47
X49.572 Y33.178 Z-16.435
X49.617 Y33.161 Z-16.387
X49.65 Y33.148 Z-16.33
X49.671 Y33.14 Z-16.267
X49.678 Y33.138 Z-16.2
G0 Z5
X-2.904 Y29.564
G1 Z-16.2 F600
X-2.898 Y29.568 Z-16.267
X-2.879 Y29.58 Z-16.33
X-2.85 Y29.6 Z-16.387
X-2.81 Y29.627 Z-16.435
X-2.763 Y29.658 Z-16.47
X-2.71 Y29.693 Z-16.492
X-2.655 Y29.73 Z-16.5
X-1.387 Y30.576
G2 X1 Y31.3 I2.387 J-3.577
G1 X4
G3 X4.7 Y32 J0.7
G1 Y137.005
G2 X5.429 Y139.401 I4.3
X5.596 Y139.489 I0.166 J-0.111
G1 X42.411 Y139.481
G2 X42.577 Y139.392 J-0.2
X43.3 Y137.005 I-3.577 J-2.387
G1 Y32.005
G3 X44 Y31.305 I0.7
G1 X47
G2 X49.396 Y30.575 J-4.3
X49.735 Y27.313 I-1.189 J-1.773
G3 X48.5 Y24.274 I3.119 J-3.039
G1 Y4.006
G2 X44 Y-0.5 I-4.5 J-0.006
G1 X4
G2 X-0.5 Y4 J4.5
G1 Y27
G2 X1 Y28.5 I1.5
G1 X4
G3 X7.5 Y32 I0.001 J3.5
G1 Y106.364
Y137.005
G2 X9 Y138.505 I1.5
G1 X39
G2 X40.5 Y137.005 J-1.5
G1 Y32.005
G3 X44 Y28.504 I3.5
G1 X47
G2 X48.5 Y27.004 J-1.5
G1 Y24.274
G3 X48.557 Y24.098 I0.3
G1 X49.439 Y22.884
X49.478 Y22.83 Z-16.492
X49.515 Y22.779 Z-16.47
X49.549 Y22.733 Z-16.435
X49.577 Y22.695 Z-16.387
X49.598 Y22.666 Z-16.33
X49.611 Y22.648 Z-16.267
X49.615 Y22.642 Z-16.2
G0 Z5
X-2.903 Y35.238
G1 Z-16.7 F600
X-2.896 Y35.24 Z-16.767
X-2.875 Y35.246 Z-16.83
X-2.84 Y35.256 Z-16.887
X-2.794 Y35.268 Z-16.935
X-2.74 Y35.283 Z-16.97
X-2.678 Y35.3 Z-16.992
X-2.614 Y35.318 Z-17
X-1.387 Y35.655
G2 X-0.301 Y35.882 I2.401 J-8.747
G3 X0.023 Y36.257 I-0.055 J0.374
G1 X-0.022 Y137.005
G2 X0.301 Y139.399 I9.022
X0.494 Y139.546 I0.193 J-0.053
G1 X47.506 Y139.549
G2 X47.698 Y139.402 J-0.2
X48.022 Y137.005 I-8.698 J-2.397
G1 X47.977 Y36.261
G3 X48.301 Y35.887 I0.378
G2 X49.387 Y35.659 I-1.314 J-8.975
G1 X49.399 Y35.656
X49.463 Y35.638 Z-16.992
X49.524 Y35.622 Z-16.97
X49.579 Y35.607 Z-16.935
X49.625 Y35.594 Z-16.887
X49.659 Y35.585 Z-16.83
X49.681 Y35.579 Z-16.767
X49.688 Y35.577 Z-16.7
G0 Z5
X-2.904 Y32.668
G1 Z-16.7 F600
X-2.897 Y32.671 Z-16.767
X-2.876 Y32.679 Z-16.83
X-2.843 Y32.692 Z-16.887
X-2.799 Y32.709 Z-16.935
X-2.746 Y32.729 Z-16.97
X-2.686 Y32.752 Z-16.992
X-2.624 Y32.775 Z-17
X-1.397 Y33.244
G2 X1 Y33.684 I2.384 J-6.244
X1.515 Y33.668 J-8.242
G3 X2.029 Y33.651 I0.515 J8.225
X2.349 Y33.971 J0.319
G1 X2.304 Y137.005
G2 X2.743 Y139.392 I6.697
X2.93 Y139.52 I0.187 J-0.071
G1 X45.07 Y139.521
G2 X45.257 Y139.393 J-0.2
X45.697 Y137.005 I-6.257 J-2.388
G1 X45.652 Y33.975
G3 X45.971 Y33.656 I0.319
X46.486 Y33.672 J8.238
G2 X47 Y33.688 I0.514 J-8.222
X49.387 Y33.249 J-6.697
G1 X49.397 Y33.244
X49.46 Y33.221 Z-16.992
X49.519 Y33.198 Z-16.97
X49.572 Y33.178 Z-16.935
X49.617 Y33.161 Z-16.887
X49.65 Y33.148 Z-16.83
X49.671 Y33.14 Z-16.767
X49.678 Y33.138 Z-16.7
G0 Z5
X-2.904 Y29.564
G1 Z-16.7 F600
X-2.898 Y29.568 Z-16.767
X-2.879 Y29.58 Z-16.83
X-2.85 Y29.6 Z-16.887
X-2.81 Y29.627 Z-16.935
X-2.763 Y29.658 Z-16.97
X-2.71 Y29.693 Z-16.992
X-2.655 Y29.73 Z-17
X-1.387 Y30.576
G2 X1 Y31.3 I2.387 J-3.577
G1 X4
G3 X4.7 Y32 J0.7
G1 Y137.005
G2 X5.429 Y139.401 I4.3
X5.596 Y139.489 I0.166 J-0.111
G1 X42.411 Y139.481
G2 X42.577 Y139.392 J-0.2
X43.3 Y137.005 I-3.577 J-2.387
G1 Y32.005
G3 X44 Y31.305 I0.7
G1 X47
G2 X49.396 Y30.575 J-4.3
X49.735 Y27.313 I-1.189 J-1.773
G3 X48.5 Y24.274 I3.119 J-3.039
G1 Y4.006
G2 X44 Y-0.5 I-4.5 J-0.006
G1 X4
G2 X-0.5 Y4 J4.5
G1 Y27
G2 X1 Y28.5 I1.5
G1 X4
G3 X7.5 Y32 I0.001 J3.5
G1 Y106.364
Y137.005
G2 X9 Y138.505 I1.5
G1 X39
G2 X40.5 Y137.005 J-1.5
G1 Y32.005
G3 X44 Y28.504 I3.5
G1 X47
G2 X48.5 Y27.004 J-1.5
G1 Y24.274
G3 X48.557 Y24.098 I0.3
G1 X49.439 Y22.884
X49.478 Y22.83 Z-16.992
X49.515 Y22.779 Z-16.97
X49.549 Y22.733 Z-16.935
X49.577 Y22.695 Z-16.887
X49.598 Y22.666 Z-16.83
X49.611 Y22.648 Z-16.767
X49.615 Y22.642 Z-16.7
G0 Z5
X-2.903 Y35.238
G1 Z-17.2 F600
X-2.896 Y35.24 Z-17.267
X-2.875 Y35.246 Z-17.33
X-2.84 Y35.256 Z-17.387
X-2.794 Y35.268 Z-17.435
X-2.74 Y35.283 Z-17.47
X-2.678 Y35.3 Z-17.492
X-2.614 Y35.318 Z-17.5
X-1.387 Y35.655
G2 X-0.301 Y35.882 I2.401 J-8.747
G3 X0.023 Y36.257 I-0.055 J0.374
G1 X-0.022 Y137.005
G2 X0.301 Y139.399 I9.022
X0.494 Y139.546 I0.193 J-0.053
G1 X47.506 Y139.549
G2 X47.698 Y139.402 J-0.2
X48.022 Y137.005 I-8.698 J-2.397
G1 X47.977 Y36.261
G3 X48.301 Y35.887 I0.378
G2 X49.387 Y35.659 I-1.314 J-8.975
G1 X49.399 Y35.656
X49.463 Y35.638 Z-17.492
X49.524 Y35.622 Z-17.47
X49.579 Y35.607 Z-17.435
X49.625 Y35.594 Z-17.387
X49.659 Y35.585 Z-17.33
X49.681 Y35.579 Z-17.267
X49.688 Y35.577 Z-17.2
G0 Z5
X-2.904 Y32.668
G1 Z-17.2 F600
X-2.897 Y32.671 Z-17.267
X-2.876 Y32.679 Z-17.33
X-2.843 Y32.692 Z-17.387
X-2.799 Y32.709 Z-17.435
X-2.746 Y32.729 Z-17.47
X-2.686 Y32.752 Z-17.492
X-2.624 Y32.775 Z-17.5
X-1.397 Y33.244
G2 X1 Y33.684 I2.384 J-6.244
X1.515 Y33.668 J-8.242
G3 X2.029 Y33.651 I0.515 J8.225
X2.349 Y33.971 J0.319
G1 X2.304 Y137.005
G2 X2.743 Y139.392 I6.697
X2.93 Y139.52 I0.187 J-0.071
G1 X45.07 Y139.521
G2 X45.257 Y139.393 J-0.2
X45.697 Y137.005 I-6.257 J-2.388
G1 X45.652 Y33.975
G3 X45.971 Y33.656 I0.319
X46.486 Y33.672 J8.238
G2 X47 Y33.688 I0.514 J-8.222
X49.387 Y33.249 J-6.697
G1 X49.397 Y33.244
X49.46 Y33.221 Z-17.492
X49.519 Y33.198 Z-17.47
X49.572 Y33.178 Z-17.435
X49.617 Y33.161 Z-17.387
X49.65 Y33.148 Z-17.33
X49.671 Y33.14 Z-17.267
X49.678 Y33.138 Z-17.2
G0 Z5
X-2.904 Y29.564
G1 Z-17.2 F600
X-2.898 Y29.568 Z-17.267
X-2.879 Y29.58 Z-17.33
X-2.85 Y29.6 Z-17.387
X-2.81 Y29.627 Z-17.435
X-2.763 Y29.658 Z-17.47
X-2.71 Y29.693 Z-17.492
X-2.655 Y29.73 Z-17.5
X-1.387 Y30.576
G2 X1 Y31.3 I2.387 J-3.577
G1 X4
G3 X4.7 Y32 J0.7
G1 Y137.005
G2 X5.429 Y139.401 I4.3
X5.596 Y139.489 I0.166 J-0.111
G1 X42.411 Y139.481
G2 X42.577 Y139.392 J-0.2
X43.3 Y137.005 I-3.577 J-2.387
G1 Y32.005
G3 X44 Y31.305 I0.7
G1 X47
G2 X49.396 Y30.575 J-4.3
X49.735 Y27.313 I-1.189 J-1.773
G3 X48.5 Y24.274 I3.119 J-3.039
G1 Y4.006
G2 X44 Y-0.5 I-4.5 J-0.006
G1 X4
G2 X-0.5 Y4 J4.5
G1 Y27
G2 X1 Y28.5 I1.5
G1 X4
G3 X7.5 Y32 I0.001 J3.5
G1 Y106.364
Y137.005
G2 X9 Y138.505 I1.5
G1 X39
G2 X40.5 Y137.005 J-1.5
G1 Y32.005
G3 X44 Y28.504 I3.5
G1 X47
G2 X48.5 Y27.004 J-1.5
G1 Y24.274
G3 X48.557 Y24.098 I0.3
G1 X49.439 Y22.884
X49.478 Y22.83 Z-17.492
X49.515 Y22.779 Z-17.47
X49.549 Y22.733 Z-17.435
X49.577 Y22.695 Z-17.387
X49.598 Y22.666 Z-17.33
X49.611 Y22.648 Z-17.267
X49.615 Y22.642 Z-17.2
G0 Z5
X-2.903 Y35.238
G1 Z-17.7 F600
X-2.896 Y35.24 Z-17.767
X-2.875 Y35.246 Z-17.83
X-2.84 Y35.256 Z-17.887
X-2.794 Y35.268 Z-17.935
X-2.74 Y35.283 Z-17.97
X-2.678 Y35.3 Z-17.992
X-2.614 Y35.318 Z-18
X-1.387 Y35.655
G2 X-0.301 Y35.882 I2.401 J-8.747
G3 X0.023 Y36.257 I-0.055 J0.374
G1 X-0.022 Y137.005
G2 X0.301 Y139.399 I9.022
X0.494 Y139.546 I0.193 J-0.053
G1 X47.506 Y139.549
G2 X47.698 Y139.402 J-0.2
X48.022 Y137.005 I-8.698 J-2.397
G1 X47.977 Y36.261
G3 X48.301 Y35.887 I0.378
G2 X49.387 Y35.659 I-1.314 J-8.975
G1 X49.399 Y35.656
X49.463 Y35.638 Z-17.992
X49.524 Y35.622 Z-17.97
X49.579 Y35.607 Z-17.935
X49.625 Y35.594 Z-17.887
X49.659 Y35.585 Z-17.83
X49.681 Y35.579 Z-17.767
X49.688 Y35.577 Z-17.7
G0 Z5
X-2.904 Y32.668
G1 Z-17.7 F600
X-2.897 Y32.671 Z-17.767
X-2.876 Y32.679 Z-17.83
X-2.843 Y32.692 Z-17.887
X-2.799 Y32.709 Z-17.935
X-2.746 Y32.729 Z-17.97
X-2.686 Y32.752 Z-17.992
X-2.624 Y32.775 Z-18
X-1.397 Y33.244
G2 X1 Y33.684 I2.384 J-6.244
X1.515 Y33.668 J-8.242
G3 X2.029 Y33.651 I0.515 J8.225
X2.349 Y33.971 J0.319
G1 X2.304 Y137.005
G2 X2.743 Y139.392 I6.697
X2.93 Y139.52 I0.187 J-0.071
G1 X45.07 Y139.521
G2 X45.257 Y139.393 J-0.2
X45.697 Y137.005 I-6.257 J-2.388
G1 X45.652 Y33.975
G3 X45.971 Y33.656 I0.319
X46.486 Y33.672 J8.238
G2 X47 Y33.688 I0.514 J-8.222
X49.387 Y33.249 J-6.697
G1 X49.397 Y33.244
X49.46 Y33.221 Z-17.992
X49.519 Y33.198 Z-17.97
X49.572 Y33.178 Z-17.935
X49.617 Y33.161 Z-17.887
X49.65 Y33.148 Z-17.83
X49.671 Y33.14 Z-17.767
X49.678 Y33.138 Z-17.7
G0 Z5
X-2.904 Y29.564
G1 Z-17.7 F600
X-2.898 Y29.568 Z-17.767
X-2.879 Y29.58 Z-17.83
X-2.85 Y29.6 Z-17.887
X-2.81 Y29.627 Z-17.935
X-2.763 Y29.658 Z-17.97
X-2.71 Y29.693 Z-17.992
X-2.655 Y29.73 Z-18
X-1.387 Y30.576
G2 X1 Y31.3 I2.387 J-3.577
G1 X4
G3 X4.7 Y32 J0.7
G1 Y137.005
G2 X5.429 Y139.401 I4.3
X5.596 Y139.489 I0.166 J-0.111
G1 X42.411 Y139.481
G2 X42.577 Y139.392 J-0.2
X43.3 Y137.005 I-3.577 J-2.387
G1 Y32.005
G3 X44 Y31.305 I0.7
G1 X47
G2 X49.396 Y30.575 J-4.3
X49.735 Y27.313 I-1.189 J-1.773
G3 X48.5 Y24.274 I3.119 J-3.039
G1 Y4.006
G2 X44 Y-0.5 I-4.5 J-0.006
G1 X4
G2 X-0.5 Y4 J4.5
G1 Y27
G2 X1 Y28.5 I1.5
G1 X4
G3 X7.5 Y32 I0.001 J3.5
G1 Y106.364
Y137.005
G2 X9 Y138.505 I1.5
G1 X39
G2 X40.5 Y137.005 J-1.5
G1 Y32.005
G3 X44 Y28.504 I3.5
G1 X47
G2 X48.5 Y27.004 J-1.5
G1 Y24.274
G3 X48.557 Y24.098 I0.3
G1 X49.439 Y22.884
X49.478 Y22.83 Z-17.992
X49.515 Y22.779 Z-17.97
X49.549 Y22.733 Z-17.935
X49.577 Y22.695 Z-17.887
X49.598 Y22.666 Z-17.83
X49.611 Y22.648 Z-17.767
X49.615 Y22.642 Z-17.7
G0 Z5
X-2.903 Y35.238
G1 Z-18.2 F600
X-2.896 Y35.24 Z-18.267
X-2.875 Y35.246 Z-18.33
X-2.84 Y35.256 Z-18.387
X-2.794 Y35.268 Z-18.435
X-2.74 Y35.283 Z-18.47
X-2.678 Y35.3 Z-18.492
X-2.614 Y35.318 Z-18.5
X-1.387 Y35.655
G2 X-0.301 Y35.882 I2.401 J-8.747
G3 X0.023 Y36.257 I-0.055 J0.374
G1 X-0.022 Y137.005
G2 X0.301 Y139.399 I9.022
X0.494 Y139.546 I0.193 J-0.053
G1 X47.506 Y139.549
G2 X47.698 Y139.402 J-0.2
X48.022 Y137.005 I-8.698 J-2.397
G1 X47.977 Y36.261
G3 X48.301 Y35.887 I0.378
G2 X49.387 Y35.659 I-1.314 J-8.975
G1 X49.399 Y35.656
X49.463 Y35.638 Z-18.492
X49.524 Y35.622 Z-18.47
X49.579 Y35.607 Z-18.435
X49.625 Y35.594 Z-18.387
X49.659 Y35.585 Z-18.33
X49.681 Y35.579 Z-18.267
X49.688 Y35.577 Z-18.2
G0 Z5
X-2.904 Y32.668
G1 Z-18.2 F600
X-2.897 Y32.671 Z-18.267
X-2.876 Y32.679 Z-18.33
X-2.843 Y32.692 Z-18.387
X-2.799 Y32.709 Z-18.435
X-2.746 Y32.729 Z-18.47
X-2.686 Y32.752 Z-18.492
X-2.624 Y32.775 Z-18.5
X-1.397 Y33.244
G2 X1 Y33.684 I2.384 J-6.244
X1.515 Y33.668 J-8.242
G3 X2.029 Y33.651 I0.515 J8.225
X2.349 Y33.971 J0.319
G1 X2.304 Y137.005
G2 X2.743 Y139.392 I6.697
X2.93 Y139.52 I0.187 J-0.071
G1 X45.07 Y139.521
G2 X45.257 Y139.393 J-0.2
X45.697 Y137.005 I-6.257 J-2.388
G1 X45.652 Y33.975
G3 X45.971 Y33.656 I0.319
X46.486 Y33.672 J8.238
G2 X47 Y33.688 I0.514 J-8.222
X49.387 Y33.249 J-6.697
G1 X49.397 Y33.244
X49.46 Y33.221 Z-18.492
X49.519 Y33.198 Z-18.47
X49.572 Y33.178 Z-18.435
X49.617 Y33.161 Z-18.387
X49.65 Y33.148 Z-18.33
X49.671 Y33.14 Z-18.267
X49.678 Y33.138 Z-18.2
G0 Z5
X-2.904 Y29.564
G1 Z-18.2 F600
X-2.898 Y29.568 Z-18.267
X-2.879 Y29.58 Z-18.33
X-2.85 Y29.6 Z-18.387
X-2.81 Y29.627 Z-18.435
X-2.763 Y29.658 Z-18.47
X-2.71 Y29.693 Z-18.492
X-2.655 Y29.73 Z-18.5
X-1.387 Y30.576
G2 X1 Y31.3 I2.387 J-3.577
G1 X4
G3 X4.7 Y32 J0.7
G1 Y137.005
G2 X5.429 Y139.401 I4.3
X5.596 Y139.489 I0.166 J-0.111
G1 X42.411 Y139.481
G2 X42.577 Y139.392 J-0.2
X43.3 Y137.005 I-3.577 J-2.387
G1 Y32.005
G3 X44 Y31.305 I0.7
G1 X47
G2 X49.396 Y30.575 J-4.3
X49.735 Y27.313 I-1.189 J-1.773
G3 X48.5 Y24.274 I3.119 J-3.039
G1 Y4.006
G2 X44 Y-0.5 I-4.5 J-0.006
G1 X4
G2 X-0.5 Y4 J4.5
G1 Y27
G2 X1 Y28.5 I1.5
G1 X4
G3 X7.5 Y32 I0.001 J3.5
G1 Y106.364
Y137.005
G2 X9 Y138.505 I1.5
G1 X39
G2 X40.5 Y137.005 J-1.5
G1 Y32.005
G3 X44 Y28.504 I3.5
G1 X47
G2 X48.5 Y27.004 J-1.5
G1 Y24.274
G3 X48.557 Y24.098 I0.3
G1 X49.439 Y22.884
X49.478 Y22.83 Z-18.492
X49.515 Y22.779 Z-18.47
X49.549 Y22.733 Z-18.435
X49.577 Y22.695 Z-18.387
X49.598 Y22.666 Z-18.33
X49.611 Y22.648 Z-18.267
X49.615 Y22.642 Z-18.2
G0 Z5
X-2.903 Y35.238
G1 Z-18.7 F600
X-2.896 Y35.24 Z-18.767
X-2.875 Y35.246 Z-18.83
X-2.84 Y35.256 Z-18.887
X-2.794 Y35.268 Z-18.935
X-2.74 Y35.283 Z-18.97
X-2.678 Y35.3 Z-18.992
X-2.614 Y35.318 Z-19
X-1.387 Y35.655
G2 X-0.301 Y35.882 I2.401 J-8.747
G3 X0.023 Y36.257 I-0.055 J0.374
G1 X-0.022 Y137.005
G2 X0.301 Y139.399 I9.022
X0.494 Y139.546 I0.193 J-0.053
G1 X47.506 Y139.549
G2 X47.698 Y139.402 J-0.2
X48.022 Y137.005 I-8.698 J-2.397
G1 X47.977 Y36.261
G3 X48.301 Y35.887 I0.378
G2 X49.387 Y35.659 I-1.314 J-8.975
G1 X49.399 Y35.656
X49.463 Y35.638 Z-18.992
X49.524 Y35.622 Z-18.97
X49.579 Y35.607 Z-18.935
X49.625 Y35.594 Z-18.887
X49.659 Y35.585 Z-18.83
X49.681 Y35.579 Z-18.767
X49.688 Y35.577 Z-18.7
G0 Z5
X-2.904 Y32.668
G1 Z-18.7 F600
X-2.897 Y32.671 Z-18.767
X-2.876 Y32.679 Z-18.83
X-2.843 Y32.692 Z-18.887
X-2.799 Y32.709 Z-18.935
X-2.746 Y32.729 Z-18.97
X-2.686 Y32.752 Z-18.992
X-2.624 Y32.775 Z-19
X-1.397 Y33.244
G2 X1 Y33.684 I2.384 J-6.244
X1.515 Y33.668 J-8.242
G3 X2.029 Y33.651 I0.515 J8.225
X2.349 Y33.971 J0.319
G1 X2.304 Y137.005
G2 X2.743 Y139.392 I6.697
X2.93 Y139.52 I0.187 J-0.071
G1 X45.07 Y139.521
G2 X45.257 Y139.393 J-0.2
X45.697 Y137.005 I-6.257 J-2.388
G1 X45.652 Y33.975
G3 X45.971 Y33.656 I0.319
X46.486 Y33.672 J8.238
G2 X47 Y33.688 I0.514 J-8.222
X49.387 Y33.249 J-6.697
G1 X49.397 Y33.244
X49.46 Y33.221 Z-18.992
X49.519 Y33.198 Z-18.97
X49.572 Y33.178 Z-18.935
X49.617 Y33.161 Z-18.887
X49.65 Y33.148 Z-18.83
X49.671 Y33.14 Z-18.767
X49.678 Y33.138 Z-18.7
G0 Z5
X-2.904 Y29.564
G1 Z-18.7 F600
X-2.898 Y29.568 Z-18.767
X-2.879 Y29.58 Z-18.83
X-2.85 Y29.6 Z-18.887
X-2.81 Y29.627 Z-18.935
X-2.763 Y29.658 Z-18.97
X-2.71 Y29.693 Z-18.992
X-2.655 Y29.73 Z-19
X-1.387 Y30.576
G2 X1 Y31.3 I2.387 J-3.577
G1 X4
G3 X4.7 Y32 J0.7
G1 Y137.005
G2 X5.429 Y139.401 I4.3
X5.596 Y139.489 I0.166 J-0.111
G1 X42.411 Y139.481
G2 X42.577 Y139.392 J-0.2
X43.3 Y137.005 I-3.577 J-2.387
G1 Y32.005
G3 X44 Y31.305 I0.7
G1 X47
G2 X49.396 Y30.575 J-4.3
X49.735 Y27.313 I-1.189 J-1.773
G3 X48.5 Y24.274 I3.119 J-3.039
G1 Y4.006
G2 X44 Y-0.5 I-4.5 J-0.006
G1 X4
G2 X-0.5 Y4 J4.5
G1 Y27
G2 X1 Y28.5 I1.5
G1 X4
G3 X7.5 Y32 I0.001 J3.5
G1 Y106.364
Y137.005
G2 X9 Y138.505 I1.5
G1 X39
G2 X40.5 Y137.005 J-1.5
G1 Y32.005
G3 X44 Y28.504 I3.5
G1 X47
G2 X48.5 Y27.004 J-1.5
G1 Y24.274
G3 X48.557 Y24.098 I0.3
G1 X49.439 Y22.884
X49.478 Y22.83 Z-18.992
X49.515 Y22.779 Z-18.97
X49.549 Y22.733 Z-18.935
X49.577 Y22.695 Z-18.887
X49.598 Y22.666 Z-18.83
X49.611 Y22.648 Z-18.767
X49.615 Y22.642 Z-18.7
G0 Z5
X-2.903 Y35.238
G1 Z-19.2 F600
X-2.896 Y35.24 Z-19.267
X-2.875 Y35.246 Z-19.33
X-2.84 Y35.256 Z-19.387
X-2.794 Y35.268 Z-19.435
X-2.74 Y35.283 Z-19.47
X-2.678 Y35.3 Z-19.492
X-2.614 Y35.318 Z-19.5
X-1.387 Y35.655
G2 X-0.301 Y35.882 I2.401 J-8.747
G3 X0.023 Y36.257 I-0.055 J0.374
G1 X-0.022 Y137.005
G2 X0.301 Y139.399 I9.022
X0.494 Y139.546 I0.193 J-0.053
G1 X47.506 Y139.549
G2 X47.698 Y139.402 J-0.2
X48.022 Y137.005 I-8.698 J-2.397
G1 X47.977 Y36.261
G3 X48.301 Y35.887 I0.378
G2 X49.387 Y35.659 I-1.314 J-8.975
G1 X49.399 Y35.656
X49.463 Y35.638 Z-19.492
X49.524 Y35.622 Z-19.47
X49.579 Y35.607 Z-19.435
X49.625 Y35.594 Z-19.387
X49.659 Y35.585 Z-19.33
X49.681 Y35.579 Z-19.267
X49.688 Y35.577 Z-19.2
G0 Z5
X-2.904 Y32.668
G1 Z-19.2 F600
X-2.897 Y32.671 Z-19.267
X-2.876 Y32.679 Z-19.33
X-2.843 Y32.692 Z-19.387
X-2.799 Y32.709 Z-19.435
X-2.746 Y32.729 Z-19.47
X-2.686 Y32.752 Z-19.492
X-2.624 Y32.775 Z-19.5
X-1.397 Y33.244
G2 X1 Y33.684 I2.384 J-6.244
X1.515 Y33.668 J-8.242
G3 X2.029 Y33.651 I0.515 J8.225
X2.349 Y33.971 J0.319
G1 X2.304 Y137.005
G2 X2.743 Y139.392 I6.697
X2.93 Y139.52 I0.187 J-0.071
G1 X45.07 Y139.521
G2 X45.257 Y139.393 J-0.2
X45.697 Y137.005 I-6.257 J-2.388
G1 X45.652 Y33.975
G3 X45.971 Y33.656 I0.319
X46.486 Y33.672 J8.238
G2 X47 Y33.688 I0.514 J-8.222
X49.387 Y33.249 J-6.697
G1 X49.397 Y33.244
X49.46 Y33.221 Z-19.492
X49.519 Y33.198 Z-19.47
X49.572 Y33.178 Z-19.435
X49.617 Y33.161 Z-19.387
X49.65 Y33.148 Z-19.33
X49.671 Y33.14 Z-19.267
X49.678 Y33.138 Z-19.2
G0 Z5
X-2.904 Y29.564
G1 Z-19.2 F600
X-2.898 Y29.568 Z-19.267
X-2.879 Y29.58 Z-19.33
X-2.85 Y29.6 Z-19.387
X-2.81 Y29.627 Z-19.435
X-2.763 Y29.658 Z-19.47
X-2.71 Y29.693 Z-19.492
X-2.655 Y29.73 Z-19.5
X-1.387 Y30.576
G2 X1 Y31.3 I2.387 J-3.577
G1 X4
G3 X4.7 Y32 J0.7
G1 Y137.005
G2 X5.429 Y139.401 I4.3
X5.596 Y139.489 I0.166 J-0.111
G1 X42.411 Y139.481
G2 X42.577 Y139.392 J-0.2
X43.3 Y137.005 I-3.577 J-2.387
G1 Y32.005
G3 X44 Y31.305 I0.7
G1 X47
G2 X49.396 Y30.575 J-4.3
X49.735 Y27.313 I-1.189 J-1.773
G3 X48.5 Y24.274 I3.119 J-3.039
G1 Y4.006
G2 X44 Y-0.5 I-4.5 J-0.006
G1 X4
G2 X-0.5 Y4 J4.5
G1 Y27
G2 X1 Y28.5 I1.5
G1 X4
G3 X7.5 Y32 I0.001 J3.5
G1 Y106.364
Y137.005
G2 X9 Y138.505 I1.5
G1 X39
G2 X40.5 Y137.005 J-1.5
G1 Y32.005
G3 X44 Y28.504 I3.5
G1 X47
G2 X48.5 Y27.004 J-1.5
G1 Y24.274
G3 X48.557 Y24.098 I0.3
G1 X49.439 Y22.884
X49.478 Y22.83 Z-19.492
X49.515 Y22.779 Z-19.47
X49.549 Y22.733 Z-19.435
X49.577 Y22.695 Z-19.387
X49.598 Y22.666 Z-19.33
X49.611 Y22.648 Z-19.267
X49.615 Y22.642 Z-19.2
G0 Z5
X-2.903 Y35.238
G1 Z-19.7 F600
X-2.896 Y35.24 Z-19.767
X-2.875 Y35.246 Z-19.83
X-2.84 Y35.256 Z-19.887
X-2.794 Y35.268 Z-19.935
X-2.74 Y35.283 Z-19.97
X-2.678 Y35.3 Z-19.992
X-2.614 Y35.318 Z-20
X-1.387 Y35.655
G2 X-0.301 Y35.882 I2.401 J-8.747
G3 X0.023 Y36.257 I-0.055 J0.374
G1 X-0.022 Y137.005
G2 X0.301 Y139.399 I9.022
X0.494 Y139.546 I0.193 J-0.053
G1 X47.506 Y139.549
G2 X47.698 Y139.402 J-0.2
X48.022 Y137.005 I-8.698 J-2.397
G1 X47.977 Y36.261
G3 X48.301 Y35.887 I0.378
G2 X49.387 Y35.659 I-1.314 J-8.975
G1 X49.399 Y35.656
X49.463 Y35.638 Z-19.992
X49.524 Y35.622 Z-19.97
X49.579 Y35.607 Z-19.935
X49.625 Y35.594 Z-19.887
X49.659 Y35.585 Z-19.83
X49.681 Y35.579 Z-19.767
X49.688 Y35.577 Z-19.7
G0 Z5
X-2.904 Y32.668
G1 Z-19.7 F600
X-2.897 Y32.671 Z-19.767
X-2.876 Y32.679 Z-19.83
X-2.843 Y32.692 Z-19.887
X-2.799 Y32.709 Z-19.935
X-2.746 Y32.729 Z-19.97
X-2.686 Y32.752 Z-19.992
X-2.624 Y32.775 Z-20
X-1.397 Y33.244
G2 X1 Y33.684 I2.384 J-6.244
X1.515 Y33.668 J-8.242
G3 X2.029 Y33.651 I0.515 J8.225
X2.349 Y33.971 J0.319
G1 X2.304 Y137.005
G2 X2.743 Y139.392 I6.697
X2.93 Y139.52 I0.187 J-0.071
G1 X45.07 Y139.521
G2 X45.257 Y139.393 J-0.2
X45.697 Y137.005 I-6.257 J-2.388
G1 X45.652 Y33.975
G3 X45.971 Y33.656 I0.319
X46.486 Y33.672 J8.238
G2 X47 Y33.688 I0.514 J-8.222
X49.387 Y33.249 J-6.697
G1 X49.397 Y33.244
X49.46 Y33.221 Z-19.992
X49.519 Y33.198 Z-19.97
X49.572 Y33.178 Z-19.935
X49.617 Y33.161 Z-19.887
X49.65 Y33.148 Z-19.83
X49.671 Y33.14 Z-19.767
X49.678 Y33.138 Z-19.7
G0 Z5
X-2.904 Y29.564
G1 Z-19.7 F600
X-2.898 Y29.568 Z-19.767
X-2.879 Y29.58 Z-19.83
X-2.85 Y29.6 Z-19.887
X-2.81 Y29.627 Z-19.935
X-2.763 Y29.658 Z-19.97
X-2.71 Y29.693 Z-19.992
X-2.655 Y29.73 Z-20
X-1.387 Y30.576
G2 X1 Y31.3 I2.387 J-3.577
G1 X4
G3 X4.7 Y32 J0.7
G1 Y137.005
G2 X5.429 Y139.401 I4.3
X5.596 Y139.489 I0.166 J-0.111
G1 X42.411 Y139.481
G2 X42.577 Y139.392 J-0.2
X43.3 Y137.005 I-3.577 J-2.387
G1 Y32.005
G3 X44 Y31.305 I0.7
G1 X47
G2 X49.396 Y30.575 J-4.3
X49.735 Y27.313 I-1.189 J-1.773
G3 X48.5 Y24.274 I3.119 J-3.039
G1 Y4.006
G2 X44 Y-0.5 I-4.5 J-0.006
G1 X4
G2 X-0.5 Y4 J4.5
G1 Y27
G2 X1 Y28.5 I1.5
G1 X4
G3 X7.5 Y32 I0.001 J3.5
G1 Y106.364
Y137.005
G2 X9 Y138.505 I1.5
G1 X39
G2 X40.5 Y137.005 J-1.5
G1 Y32.005
G3 X44 Y28.504 I3.5
G1 X47
G2 X48.5 Y27.004 J-1.5
G1 Y24.274
G3 X48.557 Y24.098 I0.3
G1 X49.439 Y22.884
X49.478 Y22.83 Z-19.992
X49.515 Y22.779 Z-19.97
X49.549 Y22.733 Z-19.935
X49.577 Y22.695 Z-19.887
X49.598 Y22.666 Z-19.83
X49.611 Y22.648 Z-19.767
X49.615 Y22.642 Z-19.7
G0 Z15
M9
G28 G91 Z0
G28 X0 Y0
M30
%
