%
(1)
(T2  D=3 CR=0 - ZMIN=-19.5 - flat end mill)
G90 G94
G17
G21
G28 G91 Z0
G90

(2D Pocket2)
M9
T2 M6
S5836 M3
G54
M8
G0 X-3.406 Y36.126
Z15
Z5
G1 Z-0.7 F400
X-3.399 Y36.129 Z-0.767
X-3.378 Y36.137 Z-0.83
X-3.344 Y36.149 Z-0.887
X-3.3 Y36.166 Z-0.935
X-3.247 Y36.186 Z-0.97
X-3.188 Y36.209 Z-0.992
X-3.125 Y36.233 Z-1
X-1.388 Y36.891
G2 X0.16 Y37.334 I3.407 J-8.989
G3 X0.487 Y37.731 I-0.078 J0.397
G1 X0.442 Y138.005
G2 X1.064 Y141.396 I9.558
X1.251 Y141.525 I0.187 J-0.071
G1 X48.749 Y141.528
G2 X48.936 Y141.399 J-0.2
X49.559 Y138.005 I-8.935 J-3.394
G1 X49.514 Y37.735
G3 X49.84 Y37.338 I0.405
G2 X51.392 Y36.894 I-1.859 J-9.431
X51.521 Y36.707 I-0.071 J-0.187
G1 X51.432 Y0.626
G2 X51.396 Y0.511 I-0.2
X50.505 Y-0.541 I-6.31 J4.438
X49.471 Y-1.4 I-5.505 J5.577
X49.356 Y-1.435 I-0.114 J0.164
G1 X0.623 Y-1.431
G2 X0.508 Y-1.394 J0.2
X-0.543 Y-0.504 I4.438 J6.301
X-1.392 Y0.517 I5.582 J5.504
X-1.428 Y0.631 I0.164 J0.114
G1 X-1.499 Y34.153
G2 X-1.393 Y34.33 I0.2
X2 Y35.168 I3.364 J-6.33
X2.265 Y35.16 J-4.238
G3 X2.529 Y35.151 I0.265 J4.229
X2.849 Y35.471 J0.319
G1 X2.804 Y138.005
G2 X3.654 Y141.399 I7.197
X3.83 Y141.504 I0.176 J-0.094
G1 X46.172 Y141.501
G2 X46.348 Y141.395 J-0.2
X47.197 Y138.005 I-6.348 J-3.39
G1 X47.152 Y35.475
G3 X47.471 Y35.156 I0.319
X47.736 Y35.164 J4.234
G2 X48 Y35.173 I0.264 J-4.226
X51.394 Y34.322 J-7.197
G1 X51.404 Y34.317
X51.463 Y34.285 Z-0.992
X51.519 Y34.255 Z-0.97
X51.569 Y34.229 Z-0.935
X51.611 Y34.206 Z-0.887
X51.642 Y34.189 Z-0.83
X51.662 Y34.179 Z-0.767
X51.669 Y34.175 Z-0.7
G0 Z5
X-3.401 Y29.387
G1 Z-0.7 F400
X-3.396 Y29.392 Z-0.767
X-3.38 Y29.408 Z-0.83
X-3.355 Y29.433 Z-0.887
X-3.321 Y29.467 Z-0.935
X-3.281 Y29.507 Z-0.97
X-3.236 Y29.552 Z-0.992
X-3.189 Y29.599 Z-1
X-1.394 Y31.394
G2 X2 Y32.8 I3.394 J-3.394
X3.412 Y32.777 J-44.287
G3 X4.823 Y32.755 I1.412 J44.264
X5.245 Y33.177 J0.422
G1 X5.2 Y138.005
G2 X6.606 Y141.399 I4.8
X6.747 Y141.457 I0.141 J-0.141
G1 X43.253 Y141.458
G2 X43.394 Y141.399 J-0.2
X44.8 Y138.005 I-3.394 J-3.394
G1 X44.755 Y33.182
G3 X45.177 Y32.759 I0.422
X46.589 Y32.782 J44.274
G2 X48 Y32.805 I1.411 J-44.252
X51.394 Y31.399 J-4.8
X51.296 Y28.248 I-1.529 J-1.529
G3 X50 Y25.375 I2.536 J-2.873
G1 Y5.006
G2 X45 Y0 I-5 J-0.006
G1 X5
G2 X0 Y5 J5
G1 Y28
G2 X2 Y30 I2
G1 X5
G3 X8 Y33 I0.001 J3
G1 Y107.005
Y138.005
G2 X10 Y140.005 I2
G1 X40
G2 X42 Y138.005 J-2
G1 Y33.005
G3 X45 Y30.004 I3
G1 X48
G2 X50 Y28.004 J-2
G1 Y25.375
X51.783 Y1.141
G2 X51.747 Y1.012 I-0.199 J-0.015
G1 X51.709 Y0.957 Z-1.008
X51.673 Y0.905 Z-1.03
X51.64 Y0.859 Z-1.065
X51.613 Y0.82 Z-1.113
X51.592 Y0.791 Z-1.17
X51.579 Y0.773 Z-1.233
X51.575 Y0.766 Z-1.3
Z-1.7
X51.571 Y0.76 Z-1.767
X51.558 Y0.742 Z-1.83
X51.537 Y0.713 Z-1.887
X51.51 Y0.674 Z-1.935
X51.477 Y0.627 Z-1.97
X51.441 Y0.576 Z-1.992
X51.402 Y0.521 Z-2
X51.396 Y0.511
G2 X50.505 Y-0.541 I-6.31 J4.438
X49.471 Y-1.4 I-5.505 J5.577
X49.356 Y-1.435 I-0.114 J0.164
G1 X0.623 Y-1.431
G2 X0.508 Y-1.394 J0.2
X-0.543 Y-0.504 I4.438 J6.301
X-1.392 Y0.517 I5.582 J5.504
X-1.428 Y0.631 I0.164 J0.114
G1 X-1.517 Y36.704
G2 X-1.388 Y36.891 I0.2
X0.16 Y37.334 I3.407 J-8.989
G3 X0.487 Y37.731 I-0.078 J0.397
G1 X0.442 Y138.005
G2 X1.064 Y141.396 I9.558
X1.251 Y141.525 I0.187 J-0.071
G1 X48.749 Y141.528
G2 X48.936 Y141.399 J-0.2
X49.559 Y138.005 I-8.935 J-3.394
G1 X49.514 Y37.735
G3 X49.84 Y37.338 I0.405
G2 X51.392 Y36.894 I-1.859 J-9.431
G1 X51.402 Y36.89
X51.465 Y36.866 Z-1.992
X51.524 Y36.844 Z-1.97
X51.577 Y36.824 Z-1.935
X51.622 Y36.807 Z-1.887
X51.655 Y36.794 Z-1.83
X51.676 Y36.786 Z-1.767
X51.683 Y36.784 Z-1.7
G0 Z5
X-3.402 Y33.262
G1 Z-1.7 F400
X-3.395 Y33.265 Z-1.767
X-3.376 Y33.276 Z-1.83
X-3.344 Y33.292 Z-1.887
X-3.302 Y33.315 Z-1.935
X-3.252 Y33.341 Z-1.97
X-3.196 Y33.371 Z-1.992
X-3.137 Y33.402 Z-2
X-1.393 Y34.33
G2 X2 Y35.168 I3.364 J-6.33
X2.265 Y35.16 J-4.238
G3 X2.529 Y35.151 I0.265 J4.229
X2.849 Y35.471 J0.319
G1 X2.804 Y138.005
G2 X3.654 Y141.399 I7.197
X3.83 Y141.504 I0.176 J-0.094
G1 X46.172 Y141.501
G2 X46.348 Y141.395 J-0.2
X47.197 Y138.005 I-6.348 J-3.39
G1 X47.152 Y35.475
G3 X47.471 Y35.156 I0.319
X47.736 Y35.164 J4.234
G2 X48 Y35.173 I0.264 J-4.226
X51.394 Y34.322 J-7.197
G1 X51.404 Y34.317
X51.463 Y34.285 Z-1.992
X51.519 Y34.255 Z-1.97
X51.569 Y34.229 Z-1.935
X51.611 Y34.206 Z-1.887
X51.642 Y34.189 Z-1.83
X51.662 Y34.179 Z-1.767
X51.669 Y34.175 Z-1.7
G0 Z5
X-3.401 Y29.387
G1 Z-1.7 F400
X-3.396 Y29.392 Z-1.767
X-3.38 Y29.408 Z-1.83
X-3.355 Y29.433 Z-1.887
X-3.321 Y29.467 Z-1.935
X-3.281 Y29.507 Z-1.97
X-3.236 Y29.552 Z-1.992
X-3.189 Y29.599 Z-2
X-1.394 Y31.394
G2 X2 Y32.8 I3.394 J-3.394
X3.412 Y32.777 J-44.287
G3 X4.823 Y32.755 I1.412 J44.264
X5.245 Y33.177 J0.422
G1 X5.2 Y138.005
G2 X6.606 Y141.399 I4.8
X6.747 Y141.457 I0.141 J-0.141
G1 X43.253 Y141.458
G2 X43.394 Y141.399 J-0.2
X44.8 Y138.005 I-3.394 J-3.394
G1 X44.755 Y33.182
G3 X45.177 Y32.759 I0.422
X46.589 Y32.782 J44.274
G2 X48 Y32.805 I1.411 J-44.252
X51.394 Y31.399 J-4.8
X51.296 Y28.248 I-1.529 J-1.529
G3 X50 Y25.375 I2.536 J-2.873
G1 Y5.006
G2 X45 Y0 I-5 J-0.006
G1 X5
G2 X0 Y5 J5
G1 Y28
G2 X2 Y30 I2
G1 X5
G3 X8 Y33 I0.001 J3
G1 Y107.005
Y138.005
G2 X10 Y140.005 I2
G1 X40
G2 X42 Y138.005 J-2
G1 Y33.005
G3 X45 Y30.004 I3
G1 X48
G2 X50 Y28.004 J-2
G1 Y25.375
X51.783 Y1.141
G2 X51.747 Y1.012 I-0.199 J-0.015
G1 X51.709 Y0.957 Z-2.008
X51.673 Y0.905 Z-2.03
X51.64 Y0.859 Z-2.065
X51.613 Y0.82 Z-2.113
X51.592 Y0.791 Z-2.17
X51.579 Y0.773 Z-2.233
X51.575 Y0.766 Z-2.3
Z-2.7
X51.571 Y0.76 Z-2.767
X51.558 Y0.742 Z-2.83
X51.537 Y0.713 Z-2.887
X51.51 Y0.674 Z-2.935
X51.477 Y0.627 Z-2.97
X51.441 Y0.576 Z-2.992
X51.402 Y0.521 Z-3
X51.396 Y0.511
G2 X50.505 Y-0.541 I-6.31 J4.438
X49.471 Y-1.4 I-5.505 J5.577
X49.356 Y-1.435 I-0.114 J0.164
G1 X0.623 Y-1.431
G2 X0.508 Y-1.394 J0.2
X-0.543 Y-0.504 I4.438 J6.301
X-1.392 Y0.517 I5.582 J5.504
X-1.428 Y0.631 I0.164 J0.114
G1 X-1.517 Y36.704
G2 X-1.388 Y36.891 I0.2
X0.16 Y37.334 I3.407 J-8.989
G3 X0.487 Y37.731 I-0.078 J0.397
G1 X0.442 Y138.005
G2 X1.064 Y141.396 I9.558
X1.251 Y141.525 I0.187 J-0.071
G1 X48.749 Y141.528
G2 X48.936 Y141.399 J-0.2
X49.559 Y138.005 I-8.935 J-3.394
G1 X49.514 Y37.735
G3 X49.84 Y37.338 I0.405
G2 X51.392 Y36.894 I-1.859 J-9.431
G1 X51.402 Y36.89
X51.465 Y36.866 Z-2.992
X51.524 Y36.844 Z-2.97
X51.577 Y36.824 Z-2.935
X51.622 Y36.807 Z-2.887
X51.655 Y36.794 Z-2.83
X51.676 Y36.786 Z-2.767
X51.683 Y36.784 Z-2.7
G0 Z5
X-3.402 Y33.262
G1 Z-2.7 F400
X-3.395 Y33.265 Z-2.767
X-3.376 Y33.276 Z-2.83
X-3.344 Y33.292 Z-2.887
X-3.302 Y33.315 Z-2.935
X-3.252 Y33.341 Z-2.97
X-3.196 Y33.371 Z-2.992
X-3.137 Y33.402 Z-3
X-1.393 Y34.33
G2 X2 Y35.168 I3.364 J-6.33
X2.265 Y35.16 J-4.238
G3 X2.529 Y35.151 I0.265 J4.229
X2.849 Y35.471 J0.319
G1 X2.804 Y138.005
G2 X3.654 Y141.399 I7.197
X3.83 Y141.504 I0.176 J-0.094
G1 X46.172 Y141.501
G2 X46.348 Y141.395 J-0.2
X47.197 Y138.005 I-6.348 J-3.39
G1 X47.152 Y35.475
G3 X47.471 Y35.156 I0.319
X47.736 Y35.164 J4.234
G2 X48 Y35.173 I0.264 J-4.226
X51.394 Y34.322 J-7.197
G1 X51.404 Y34.317
X51.463 Y34.285 Z-2.992
X51.519 Y34.255 Z-2.97
X51.569 Y34.229 Z-2.935
X51.611 Y34.206 Z-2.887
X51.642 Y34.189 Z-2.83
X51.662 Y34.179 Z-2.767
X51.669 Y34.175 Z-2.7
G0 Z5
X-3.401 Y29.387
G1 Z-2.7 F400
X-3.396 Y29.392 Z-2.767
X-3.38 Y29.408 Z-2.83
X-3.355 Y29.433 Z-2.887
X-3.321 Y29.467 Z-2.935
X-3.281 Y29.507 Z-2.97
X-3.236 Y29.552 Z-2.992
X-3.189 Y29.599 Z-3
X-1.394 Y31.394
G2 X2 Y32.8 I3.394 J-3.394
X3.412 Y32.777 J-44.287
G3 X4.823 Y32.755 I1.412 J44.264
X5.245 Y33.177 J0.422
G1 X5.2 Y138.005
G2 X6.606 Y141.399 I4.8
X6.747 Y141.457 I0.141 J-0.141
G1 X43.253 Y141.458
G2 X43.394 Y141.399 J-0.2
X44.8 Y138.005 I-3.394 J-3.394
G1 X44.755 Y33.182
G3 X45.177 Y32.759 I0.422
X46.589 Y32.782 J44.274
G2 X48 Y32.805 I1.411 J-44.252
X51.394 Y31.399 J-4.8
X51.296 Y28.248 I-1.529 J-1.529
G3 X50 Y25.375 I2.536 J-2.873
G1 Y5.006
G2 X45 Y0 I-5 J-0.006
G1 X5
G2 X0 Y5 J5
G1 Y28
G2 X2 Y30 I2
G1 X5
G3 X8 Y33 I0.001 J3
G1 Y107.005
Y138.005
G2 X10 Y140.005 I2
G1 X40
G2 X42 Y138.005 J-2
G1 Y33.005
G3 X45 Y30.004 I3
G1 X48
G2 X50 Y28.004 J-2
G1 Y25.375
X51.783 Y1.141
G2 X51.747 Y1.012 I-0.199 J-0.015
G1 X51.709 Y0.957 Z-3.008
X51.673 Y0.905 Z-3.03
X51.64 Y0.859 Z-3.065
X51.613 Y0.82 Z-3.113
X51.592 Y0.791 Z-3.17
X51.579 Y0.773 Z-3.233
X51.575 Y0.766 Z-3.3
Z-3.7
X51.571 Y0.76 Z-3.767
X51.558 Y0.742 Z-3.83
X51.537 Y0.713 Z-3.887
X51.51 Y0.674 Z-3.935
X51.477 Y0.627 Z-3.97
X51.441 Y0.576 Z-3.992
X51.402 Y0.521 Z-4
X51.396 Y0.511
G2 X50.505 Y-0.541 I-6.31 J4.438
X49.471 Y-1.4 I-5.505 J5.577
X49.356 Y-1.435 I-0.114 J0.164
G1 X0.623 Y-1.431
G2 X0.508 Y-1.394 J0.2
X-0.543 Y-0.504 I4.438 J6.301
X-1.392 Y0.517 I5.582 J5.504
X-1.428 Y0.631 I0.164 J0.114
G1 X-1.517 Y36.704
G2 X-1.388 Y36.891 I0.2
X0.16 Y37.334 I3.407 J-8.989
G3 X0.487 Y37.731 I-0.078 J0.397
G1 X0.442 Y138.005
G2 X1.064 Y141.396 I9.558
X1.251 Y141.525 I0.187 J-0.071
G1 X48.749 Y141.528
G2 X48.936 Y141.399 J-0.2
X49.559 Y138.005 I-8.935 J-3.394
G1 X49.514 Y37.735
G3 X49.84 Y37.338 I0.405
G2 X51.392 Y36.894 I-1.859 J-9.431
G1 X51.402 Y36.89
X51.465 Y36.866 Z-3.992
X51.524 Y36.844 Z-3.97
X51.577 Y36.824 Z-3.935
X51.622 Y36.807 Z-3.887
X51.655 Y36.794 Z-3.83
X51.676 Y36.786 Z-3.767
X51.683 Y36.784 Z-3.7
G0 Z5
X-3.402 Y33.262
G1 Z-3.7 F400
X-3.395 Y33.265 Z-3.767
X-3.376 Y33.276 Z-3.83
X-3.344 Y33.292 Z-3.887
X-3.302 Y33.315 Z-3.935
X-3.252 Y33.341 Z-3.97
X-3.196 Y33.371 Z-3.992
X-3.137 Y33.402 Z-4
X-1.393 Y34.33
G2 X2 Y35.168 I3.364 J-6.33
X2.265 Y35.16 J-4.238
G3 X2.529 Y35.151 I0.265 J4.229
X2.849 Y35.471 J0.319
G1 X2.804 Y138.005
G2 X3.654 Y141.399 I7.197
X3.83 Y141.504 I0.176 J-0.094
G1 X46.172 Y141.501
G2 X46.348 Y141.395 J-0.2
X47.197 Y138.005 I-6.348 J-3.39
G1 X47.152 Y35.475
G3 X47.471 Y35.156 I0.319
X47.736 Y35.164 J4.234
G2 X48 Y35.173 I0.264 J-4.226
X51.394 Y34.322 J-7.197
G1 X51.404 Y34.317
X51.463 Y34.285 Z-3.992
X51.519 Y34.255 Z-3.97
X51.569 Y34.229 Z-3.935
X51.611 Y34.206 Z-3.887
X51.642 Y34.189 Z-3.83
X51.662 Y34.179 Z-3.767
X51.669 Y34.175 Z-3.7
G0 Z5
X-3.401 Y29.387
G1 Z-3.7 F400
X-3.396 Y29.392 Z-3.767
X-3.38 Y29.408 Z-3.83
X-3.355 Y29.433 Z-3.887
X-3.321 Y29.467 Z-3.935
X-3.281 Y29.507 Z-3.97
X-3.236 Y29.552 Z-3.992
X-3.189 Y29.599 Z-4
X-1.394 Y31.394
G2 X2 Y32.8 I3.394 J-3.394
X3.412 Y32.777 J-44.287
G3 X4.823 Y32.755 I1.412 J44.264
X5.245 Y33.177 J0.422
G1 X5.2 Y138.005
G2 X6.606 Y141.399 I4.8
X6.747 Y141.457 I0.141 J-0.141
G1 X43.253 Y141.458
G2 X43.394 Y141.399 J-0.2
X44.8 Y138.005 I-3.394 J-3.394
G1 X44.755 Y33.182
G3 X45.177 Y32.759 I0.422
X46.589 Y32.782 J44.274
G2 X48 Y32.805 I1.411 J-44.252
X51.394 Y31.399 J-4.8
X51.296 Y28.248 I-1.529 J-1.529
G3 X50 Y25.375 I2.536 J-2.873
G1 Y5.006
G2 X45 Y0 I-5 J-0.006
G1 X5
G2 X0 Y5 J5
G1 Y28
G2 X2 Y30 I2
G1 X5
G3 X8 Y33 I0.001 J3
G1 Y107.005
Y138.005
G2 X10 Y140.005 I2
G1 X40
G2 X42 Y138.005 J-2
G1 Y33.005
G3 X45 Y30.004 I3
G1 X48
G2 X50 Y28.004 J-2
G1 Y25.375
X51.783 Y1.141
G2 X51.747 Y1.012 I-0.199 J-0.015
G1 X51.709 Y0.957 Z-4.008
X51.673 Y0.905 Z-4.03
X51.64 Y0.859 Z-4.065
X51.613 Y0.82 Z-4.113
X51.592 Y0.791 Z-4.17
X51.579 Y0.773 Z-4.233
X51.575 Y0.766 Z-4.3
Z-4.7
X51.571 Y0.76 Z-4.767
X51.558 Y0.742 Z-4.83
X51.537 Y0.713 Z-4.887
X51.51 Y0.674 Z-4.935
X51.477 Y0.627 Z-4.97
X51.441 Y0.576 Z-4.992
X51.402 Y0.521 Z-5
X51.396 Y0.511
G2 X50.505 Y-0.541 I-6.31 J4.438
X49.471 Y-1.4 I-5.505 J5.577
X49.356 Y-1.435 I-0.114 J0.164
G1 X0.623 Y-1.431
G2 X0.508 Y-1.394 J0.2
X-0.543 Y-0.504 I4.438 J6.301
X-1.392 Y0.517 I5.582 J5.504
X-1.428 Y0.631 I0.164 J0.114
G1 X-1.517 Y36.704
G2 X-1.388 Y36.891 I0.2
X0.16 Y37.334 I3.407 J-8.989
G3 X0.487 Y37.731 I-0.078 J0.397
G1 X0.442 Y138.005
G2 X1.064 Y141.396 I9.558
X1.251 Y141.525 I0.187 J-0.071
G1 X48.749 Y141.528
G2 X48.936 Y141.399 J-0.2
X49.559 Y138.005 I-8.935 J-3.394
G1 X49.514 Y37.735
G3 X49.84 Y37.338 I0.405
G2 X51.392 Y36.894 I-1.859 J-9.431
G1 X51.402 Y36.89
X51.465 Y36.866 Z-4.992
X51.524 Y36.844 Z-4.97
X51.577 Y36.824 Z-4.935
X51.622 Y36.807 Z-4.887
X51.655 Y36.794 Z-4.83
X51.676 Y36.786 Z-4.767
X51.683 Y36.784 Z-4.7
G0 Z5
X-3.402 Y33.262
G1 Z-4.7 F400
X-3.395 Y33.265 Z-4.767
X-3.376 Y33.276 Z-4.83
X-3.344 Y33.292 Z-4.887
X-3.302 Y33.315 Z-4.935
X-3.252 Y33.341 Z-4.97
X-3.196 Y33.371 Z-4.992
X-3.137 Y33.402 Z-5
X-1.393 Y34.33
G2 X2 Y35.168 I3.364 J-6.33
X2.265 Y35.16 J-4.238
G3 X2.529 Y35.151 I0.265 J4.229
X2.849 Y35.471 J0.319
G1 X2.804 Y138.005
G2 X3.654 Y141.399 I7.197
X3.83 Y141.504 I0.176 J-0.094
G1 X46.172 Y141.501
G2 X46.348 Y141.395 J-0.2
X47.197 Y138.005 I-6.348 J-3.39
G1 X47.152 Y35.475
G3 X47.471 Y35.156 I0.319
X47.736 Y35.164 J4.234
G2 X48 Y35.173 I0.264 J-4.226
X51.394 Y34.322 J-7.197
G1 X51.404 Y34.317
X51.463 Y34.285 Z-4.992
X51.519 Y34.255 Z-4.97
X51.569 Y34.229 Z-4.935
X51.611 Y34.206 Z-4.887
X51.642 Y34.189 Z-4.83
X51.662 Y34.179 Z-4.767
X51.669 Y34.175 Z-4.7
G0 Z5
X-3.401 Y29.387
G1 Z-4.7 F400
X-3.396 Y29.392 Z-4.767
X-3.38 Y29.408 Z-4.83
X-3.355 Y29.433 Z-4.887
X-3.321 Y29.467 Z-4.935
X-3.281 Y29.507 Z-4.97
X-3.236 Y29.552 Z-4.992
X-3.189 Y29.599 Z-5
X-1.394 Y31.394
G2 X2 Y32.8 I3.394 J-3.394
X3.412 Y32.777 J-44.287
G3 X4.823 Y32.755 I1.412 J44.264
X5.245 Y33.177 J0.422
G1 X5.2 Y138.005
G2 X6.606 Y141.399 I4.8
X6.747 Y141.457 I0.141 J-0.141
G1 X43.253 Y141.458
G2 X43.394 Y141.399 J-0.2
X44.8 Y138.005 I-3.394 J-3.394
G1 X44.755 Y33.182
G3 X45.177 Y32.759 I0.422
X46.589 Y32.782 J44.274
G2 X48 Y32.805 I1.411 J-44.252
X51.394 Y31.399 J-4.8
X51.296 Y28.248 I-1.529 J-1.529
G3 X50 Y25.375 I2.536 J-2.873
G1 Y5.006
G2 X45 Y0 I-5 J-0.006
G1 X5
G2 X0 Y5 J5
G1 Y28
G2 X2 Y30 I2
G1 X5
G3 X8 Y33 I0.001 J3
G1 Y107.005
Y138.005
G2 X10 Y140.005 I2
G1 X40
G2 X42 Y138.005 J-2
G1 Y33.005
G3 X45 Y30.004 I3
G1 X48
G2 X50 Y28.004 J-2
G1 Y25.375
X51.783 Y1.141
G2 X51.747 Y1.012 I-0.199 J-0.015
G1 X51.709 Y0.957 Z-5.008
X51.673 Y0.905 Z-5.03
X51.64 Y0.859 Z-5.065
X51.613 Y0.82 Z-5.113
X51.592 Y0.791 Z-5.17
X51.579 Y0.773 Z-5.233
X51.575 Y0.766 Z-5.3
Z-5.7
X51.571 Y0.76 Z-5.767
X51.558 Y0.742 Z-5.83
X51.537 Y0.713 Z-5.887
X51.51 Y0.674 Z-5.935
X51.477 Y0.627 Z-5.97
X51.441 Y0.576 Z-5.992
X51.402 Y0.521 Z-6
X51.396 Y0.511
G2 X50.505 Y-0.541 I-6.31 J4.438
X49.471 Y-1.4 I-5.505 J5.577
X49.356 Y-1.435 I-0.114 J0.164
G1 X0.623 Y-1.431
G2 X0.508 Y-1.394 J0.2
X-0.543 Y-0.504 I4.438 J6.301
X-1.392 Y0.517 I5.582 J5.504
X-1.428 Y0.631 I0.164 J0.114
G1 X-1.517 Y36.704
G2 X-1.388 Y36.891 I0.2
X0.16 Y37.334 I3.407 J-8.989
G3 X0.487 Y37.731 I-0.078 J0.397
G1 X0.442 Y138.005
G2 X1.064 Y141.396 I9.558
X1.251 Y141.525 I0.187 J-0.071
G1 X48.749 Y141.528
G2 X48.936 Y141.399 J-0.2
X49.559 Y138.005 I-8.935 J-3.394
G1 X49.514 Y37.735
G3 X49.84 Y37.338 I0.405
G2 X51.392 Y36.894 I-1.859 J-9.431
G1 X51.402 Y36.89
X51.465 Y36.866 Z-5.992
X51.524 Y36.844 Z-5.97
X51.577 Y36.824 Z-5.935
X51.622 Y36.807 Z-5.887
X51.655 Y36.794 Z-5.83
X51.676 Y36.786 Z-5.767
X51.683 Y36.784 Z-5.7
G0 Z5
X-3.402 Y33.262
G1 Z-5.7 F400
X-3.395 Y33.265 Z-5.767
X-3.376 Y33.276 Z-5.83
X-3.344 Y33.292 Z-5.887
X-3.302 Y33.315 Z-5.935
X-3.252 Y33.341 Z-5.97
X-3.196 Y33.371 Z-5.992
X-3.137 Y33.402 Z-6
X-1.393 Y34.33
G2 X2 Y35.168 I3.364 J-6.33
X2.265 Y35.16 J-4.238
G3 X2.529 Y35.151 I0.265 J4.229
X2.849 Y35.471 J0.319
G1 X2.804 Y138.005
G2 X3.654 Y141.399 I7.197
X3.83 Y141.504 I0.176 J-0.094
G1 X46.172 Y141.501
G2 X46.348 Y141.395 J-0.2
X47.197 Y138.005 I-6.348 J-3.39
G1 X47.152 Y35.475
G3 X47.471 Y35.156 I0.319
X47.736 Y35.164 J4.234
G2 X48 Y35.173 I0.264 J-4.226
X51.394 Y34.322 J-7.197
G1 X51.404 Y34.317
X51.463 Y34.285 Z-5.992
X51.519 Y34.255 Z-5.97
X51.569 Y34.229 Z-5.935
X51.611 Y34.206 Z-5.887
X51.642 Y34.189 Z-5.83
X51.662 Y34.179 Z-5.767
X51.669 Y34.175 Z-5.7
G0 Z5
X-3.401 Y29.387
G1 Z-5.7 F400
X-3.396 Y29.392 Z-5.767
X-3.38 Y29.408 Z-5.83
X-3.355 Y29.433 Z-5.887
X-3.321 Y29.467 Z-5.935
X-3.281 Y29.507 Z-5.97
X-3.236 Y29.552 Z-5.992
X-3.189 Y29.599 Z-6
X-1.394 Y31.394
G2 X2 Y32.8 I3.394 J-3.394
X3.412 Y32.777 J-44.287
G3 X4.823 Y32.755 I1.412 J44.264
X5.245 Y33.177 J0.422
G1 X5.2 Y138.005
G2 X6.606 Y141.399 I4.8
X6.747 Y141.457 I0.141 J-0.141
G1 X43.253 Y141.458
G2 X43.394 Y141.399 J-0.2
X44.8 Y138.005 I-3.394 J-3.394
G1 X44.755 Y33.182
G3 X45.177 Y32.759 I0.422
X46.589 Y32.782 J44.274
G2 X48 Y32.805 I1.411 J-44.252
X51.394 Y31.399 J-4.8
X51.296 Y28.248 I-1.529 J-1.529
G3 X50 Y25.375 I2.536 J-2.873
G1 Y5.006
G2 X45 Y0 I-5 J-0.006
G1 X5
G2 X0 Y5 J5
G1 Y28
G2 X2 Y30 I2
G1 X5
G3 X8 Y33 I0.001 J3
G1 Y107.005
Y138.005
G2 X10 Y140.005 I2
G1 X40
G2 X42 Y138.005 J-2
G1 Y33.005
G3 X45 Y30.004 I3
G1 X48
G2 X50 Y28.004 J-2
G1 Y25.375
X51.783 Y1.141
G2 X51.747 Y1.012 I-0.199 J-0.015
G1 X51.709 Y0.957 Z-6.008
X51.673 Y0.905 Z-6.03
X51.64 Y0.859 Z-6.065
X51.613 Y0.82 Z-6.113
X51.592 Y0.791 Z-6.17
X51.579 Y0.773 Z-6.233
X51.575 Y0.766 Z-6.3
Z-6.7
X51.571 Y0.76 Z-6.767
X51.558 Y0.742 Z-6.83
X51.537 Y0.713 Z-6.887
X51.51 Y0.674 Z-6.935
X51.477 Y0.627 Z-6.97
X51.441 Y0.576 Z-6.992
X51.402 Y0.521 Z-7
X51.396 Y0.511
G2 X50.505 Y-0.541 I-6.31 J4.438
X49.471 Y-1.4 I-5.505 J5.577
X49.356 Y-1.435 I-0.114 J0.164
G1 X0.623 Y-1.431
G2 X0.508 Y-1.394 J0.2
X-0.543 Y-0.504 I4.438 J6.301
X-1.392 Y0.517 I5.582 J5.504
X-1.428 Y0.631 I0.164 J0.114
G1 X-1.517 Y36.704
G2 X-1.388 Y36.891 I0.2
X0.16 Y37.334 I3.407 J-8.989
G3 X0.487 Y37.731 I-0.078 J0.397
G1 X0.442 Y138.005
G2 X1.064 Y141.396 I9.558
X1.251 Y141.525 I0.187 J-0.071
G1 X48.749 Y141.528
G2 X48.936 Y141.399 J-0.2
X49.559 Y138.005 I-8.935 J-3.394
G1 X49.514 Y37.735
G3 X49.84 Y37.338 I0.405
G2 X51.392 Y36.894 I-1.859 J-9.431
G1 X51.402 Y36.89
X51.465 Y36.866 Z-6.992
X51.524 Y36.844 Z-6.97
X51.577 Y36.824 Z-6.935
X51.622 Y36.807 Z-6.887
X51.655 Y36.794 Z-6.83
X51.676 Y36.786 Z-6.767
X51.683 Y36.784 Z-6.7
G0 Z5
X-3.402 Y33.262
G1 Z-6.7 F400
X-3.395 Y33.265 Z-6.767
X-3.376 Y33.276 Z-6.83
X-3.344 Y33.292 Z-6.887
X-3.302 Y33.315 Z-6.935
X-3.252 Y33.341 Z-6.97
X-3.196 Y33.371 Z-6.992
X-3.137 Y33.402 Z-7
X-1.393 Y34.33
G2 X2 Y35.168 I3.364 J-6.33
X2.265 Y35.16 J-4.238
G3 X2.529 Y35.151 I0.265 J4.229
X2.849 Y35.471 J0.319
G1 X2.804 Y138.005
G2 X3.654 Y141.399 I7.197
X3.83 Y141.504 I0.176 J-0.094
G1 X46.172 Y141.501
G2 X46.348 Y141.395 J-0.2
X47.197 Y138.005 I-6.348 J-3.39
G1 X47.152 Y35.475
G3 X47.471 Y35.156 I0.319
X47.736 Y35.164 J4.234
G2 X48 Y35.173 I0.264 J-4.226
X51.394 Y34.322 J-7.197
G1 X51.404 Y34.317
X51.463 Y34.285 Z-6.992
X51.519 Y34.255 Z-6.97
X51.569 Y34.229 Z-6.935
X51.611 Y34.206 Z-6.887
X51.642 Y34.189 Z-6.83
X51.662 Y34.179 Z-6.767
X51.669 Y34.175 Z-6.7
G0 Z5
X-3.401 Y29.387
G1 Z-6.7 F400
X-3.396 Y29.392 Z-6.767
X-3.38 Y29.408 Z-6.83
X-3.355 Y29.433 Z-6.887
X-3.321 Y29.467 Z-6.935
X-3.281 Y29.507 Z-6.97
X-3.236 Y29.552 Z-6.992
X-3.189 Y29.599 Z-7
X-1.394 Y31.394
G2 X2 Y32.8 I3.394 J-3.394
X3.412 Y32.777 J-44.287
G3 X4.823 Y32.755 I1.412 J44.264
X5.245 Y33.177 J0.422
G1 X5.2 Y138.005
G2 X6.606 Y141.399 I4.8
X6.747 Y141.457 I0.141 J-0.141
G1 X43.253 Y141.458
G2 X43.394 Y141.399 J-0.2
X44.8 Y138.005 I-3.394 J-3.394
G1 X44.755 Y33.182
G3 X45.177 Y32.759 I0.422
X46.589 Y32.782 J44.274
G2 X48 Y32.805 I1.411 J-44.252
X51.394 Y31.399 J-4.8
X51.296 Y28.248 I-1.529 J-1.529
G3 X50 Y25.375 I2.536 J-2.873
G1 Y5.006
G2 X45 Y0 I-5 J-0.006
G1 X5
G2 X0 Y5 J5
G1 Y28
G2 X2 Y30 I2
G1 X5
G3 X8 Y33 I0.001 J3
G1 Y107.005
Y138.005
G2 X10 Y140.005 I2
G1 X40
G2 X42 Y138.005 J-2
G1 Y33.005
G3 X45 Y30.004 I3
G1 X48
G2 X50 Y28.004 J-2
G1 Y25.375
X51.783 Y1.141
G2 X51.747 Y1.012 I-0.199 J-0.015
G1 X51.709 Y0.957 Z-7.008
X51.673 Y0.905 Z-7.03
X51.64 Y0.859 Z-7.065
X51.613 Y0.82 Z-7.113
X51.592 Y0.791 Z-7.17
X51.579 Y0.773 Z-7.233
X51.575 Y0.766 Z-7.3
Z-7.7
X51.571 Y0.76 Z-7.767
X51.558 Y0.742 Z-7.83
X51.537 Y0.713 Z-7.887
X51.51 Y0.674 Z-7.935
X51.477 Y0.627 Z-7.97
X51.441 Y0.576 Z-7.992
X51.402 Y0.521 Z-8
X51.396 Y0.511
G2 X50.505 Y-0.541 I-6.31 J4.438
X49.471 Y-1.4 I-5.505 J5.577
X49.356 Y-1.435 I-0.114 J0.164
G1 X0.623 Y-1.431
G2 X0.508 Y-1.394 J0.2
X-0.543 Y-0.504 I4.438 J6.301
X-1.392 Y0.517 I5.582 J5.504
X-1.428 Y0.631 I0.164 J0.114
G1 X-1.517 Y36.704
G2 X-1.388 Y36.891 I0.2
X0.16 Y37.334 I3.407 J-8.989
G3 X0.487 Y37.731 I-0.078 J0.397
G1 X0.442 Y138.005
G2 X1.064 Y141.396 I9.558
X1.251 Y141.525 I0.187 J-0.071
G1 X48.749 Y141.528
G2 X48.936 Y141.399 J-0.2
X49.559 Y138.005 I-8.935 J-3.394
G1 X49.514 Y37.735
G3 X49.84 Y37.338 I0.405
G2 X51.392 Y36.894 I-1.859 J-9.431
G1 X51.402 Y36.89
X51.465 Y36.866 Z-7.992
X51.524 Y36.844 Z-7.97
X51.577 Y36.824 Z-7.935
X51.622 Y36.807 Z-7.887
X51.655 Y36.794 Z-7.83
X51.676 Y36.786 Z-7.767
X51.683 Y36.784 Z-7.7
G0 Z5
X-3.402 Y33.262
G1 Z-7.7 F400
X-3.395 Y33.265 Z-7.767
X-3.376 Y33.276 Z-7.83
X-3.344 Y33.292 Z-7.887
X-3.302 Y33.315 Z-7.935
X-3.252 Y33.341 Z-7.97
X-3.196 Y33.371 Z-7.992
X-3.137 Y33.402 Z-8
X-1.393 Y34.33
G2 X2 Y35.168 I3.364 J-6.33
X2.265 Y35.16 J-4.238
G3 X2.529 Y35.151 I0.265 J4.229
X2.849 Y35.471 J0.319
G1 X2.804 Y138.005
G2 X3.654 Y141.399 I7.197
X3.83 Y141.504 I0.176 J-0.094
G1 X46.172 Y141.501
G2 X46.348 Y141.395 J-0.2
X47.197 Y138.005 I-6.348 J-3.39
G1 X47.152 Y35.475
G3 X47.471 Y35.156 I0.319
X47.736 Y35.164 J4.234
G2 X48 Y35.173 I0.264 J-4.226
X51.394 Y34.322 J-7.197
G1 X51.404 Y34.317
X51.463 Y34.285 Z-7.992
X51.519 Y34.255 Z-7.97
X51.569 Y34.229 Z-7.935
X51.611 Y34.206 Z-7.887
X51.642 Y34.189 Z-7.83
X51.662 Y34.179 Z-7.767
X51.669 Y34.175 Z-7.7
G0 Z5
X-3.401 Y29.387
G1 Z-7.7 F400
X-3.396 Y29.392 Z-7.767
X-3.38 Y29.408 Z-7.83
X-3.355 Y29.433 Z-7.887
X-3.321 Y29.467 Z-7.935
X-3.281 Y29.507 Z-7.97
X-3.236 Y29.552 Z-7.992
X-3.189 Y29.599 Z-8
X-1.394 Y31.394
G2 X2 Y32.8 I3.394 J-3.394
X3.412 Y32.777 J-44.287
G3 X4.823 Y32.755 I1.412 J44.264
X5.245 Y33.177 J0.422
G1 X5.2 Y138.005
G2 X6.606 Y141.399 I4.8
X6.747 Y141.457 I0.141 J-0.141
G1 X43.253 Y141.458
G2 X43.394 Y141.399 J-0.2
X44.8 Y138.005 I-3.394 J-3.394
G1 X44.755 Y33.182
G3 X45.177 Y32.759 I0.422
X46.589 Y32.782 J44.274
G2 X48 Y32.805 I1.411 J-44.252
X51.394 Y31.399 J-4.8
X51.296 Y28.248 I-1.529 J-1.529
G3 X50 Y25.375 I2.536 J-2.873
G1 Y5.006
G2 X45 Y0 I-5 J-0.006
G1 X5
G2 X0 Y5 J5
G1 Y28
G2 X2 Y30 I2
G1 X5
G3 X8 Y33 I0.001 J3
G1 Y107.005
Y138.005
G2 X10 Y140.005 I2
G1 X40
G2 X42 Y138.005 J-2
G1 Y33.005
G3 X45 Y30.004 I3
G1 X48
G2 X50 Y28.004 J-2
G1 Y25.375
X51.783 Y1.141
G2 X51.747 Y1.012 I-0.199 J-0.015
G1 X51.709 Y0.957 Z-8.008
X51.673 Y0.905 Z-8.03
X51.64 Y0.859 Z-8.065
X51.613 Y0.82 Z-8.113
X51.592 Y0.791 Z-8.17
X51.579 Y0.773 Z-8.233
X51.575 Y0.766 Z-8.3
Z-8.7
X51.571 Y0.76 Z-8.767
X51.558 Y0.742 Z-8.83
X51.537 Y0.713 Z-8.887
X51.51 Y0.674 Z-8.935
X51.477 Y0.627 Z-8.97
X51.441 Y0.576 Z-8.992
X51.402 Y0.521 Z-9
X51.396 Y0.511
G2 X50.505 Y-0.541 I-6.31 J4.438
X49.471 Y-1.4 I-5.505 J5.577
X49.356 Y-1.435 I-0.114 J0.164
G1 X0.623 Y-1.431
G2 X0.508 Y-1.394 J0.2
X-0.543 Y-0.504 I4.438 J6.301
X-1.392 Y0.517 I5.582 J5.504
X-1.428 Y0.631 I0.164 J0.114
G1 X-1.517 Y36.704
G2 X-1.388 Y36.891 I0.2
X0.16 Y37.334 I3.407 J-8.989
G3 X0.487 Y37.731 I-0.078 J0.397
G1 X0.442 Y138.005
G2 X1.064 Y141.396 I9.558
X1.251 Y141.525 I0.187 J-0.071
G1 X48.749 Y141.528
G2 X48.936 Y141.399 J-0.2
X49.559 Y138.005 I-8.935 J-3.394
G1 X49.514 Y37.735
G3 X49.84 Y37.338 I0.405
G2 X51.392 Y36.894 I-1.859 J-9.431
G1 X51.402 Y36.89
X51.465 Y36.866 Z-8.992
X51.524 Y36.844 Z-8.97
X51.577 Y36.824 Z-8.935
X51.622 Y36.807 Z-8.887
X51.655 Y36.794 Z-8.83
X51.676 Y36.786 Z-8.767
X51.683 Y36.784 Z-8.7
G0 Z5
X-3.402 Y33.262
G1 Z-8.7 F400
X-3.395 Y33.265 Z-8.767
X-3.376 Y33.276 Z-8.83
X-3.344 Y33.292 Z-8.887
X-3.302 Y33.315 Z-8.935
X-3.252 Y33.341 Z-8.97
X-3.196 Y33.371 Z-8.992
X-3.137 Y33.402 Z-9
X-1.393 Y34.33
G2 X2 Y35.168 I3.364 J-6.33
X2.265 Y35.16 J-4.238
G3 X2.529 Y35.151 I0.265 J4.229
X2.849 Y35.471 J0.319
G1 X2.804 Y138.005
G2 X3.654 Y141.399 I7.197
X3.83 Y141.504 I0.176 J-0.094
G1 X46.172 Y141.501
G2 X46.348 Y141.395 J-0.2
X47.197 Y138.005 I-6.348 J-3.39
G1 X47.152 Y35.475
G3 X47.471 Y35.156 I0.319
X47.736 Y35.164 J4.234
G2 X48 Y35.173 I0.264 J-4.226
X51.394 Y34.322 J-7.197
G1 X51.404 Y34.317
X51.463 Y34.285 Z-8.992
X51.519 Y34.255 Z-8.97
X51.569 Y34.229 Z-8.935
X51.611 Y34.206 Z-8.887
X51.642 Y34.189 Z-8.83
X51.662 Y34.179 Z-8.767
X51.669 Y34.175 Z-8.7
G0 Z5
X-3.401 Y29.387
G1 Z-8.7 F400
X-3.396 Y29.392 Z-8.767
X-3.38 Y29.408 Z-8.83
X-3.355 Y29.433 Z-8.887
X-3.321 Y29.467 Z-8.935
X-3.281 Y29.507 Z-8.97
X-3.236 Y29.552 Z-8.992
X-3.189 Y29.599 Z-9
X-1.394 Y31.394
G2 X2 Y32.8 I3.394 J-3.394
X3.412 Y32.777 J-44.287
G3 X4.823 Y32.755 I1.412 J44.264
X5.245 Y33.177 J0.422
G1 X5.2 Y138.005
G2 X6.606 Y141.399 I4.8
X6.747 Y141.457 I0.141 J-0.141
G1 X43.253 Y141.458
G2 X43.394 Y141.399 J-0.2
X44.8 Y138.005 I-3.394 J-3.394
G1 X44.755 Y33.182
G3 X45.177 Y32.759 I0.422
X46.589 Y32.782 J44.274
G2 X48 Y32.805 I1.411 J-44.252
X51.394 Y31.399 J-4.8
X51.296 Y28.248 I-1.529 J-1.529
G3 X50 Y25.375 I2.536 J-2.873
G1 Y5.006
G2 X45 Y0 I-5 J-0.006
G1 X5
G2 X0 Y5 J5
G1 Y28
G2 X2 Y30 I2
G1 X5
G3 X8 Y33 I0.001 J3
G1 Y107.005
Y138.005
G2 X10 Y140.005 I2
G1 X40
G2 X42 Y138.005 J-2
G1 Y33.005
G3 X45 Y30.004 I3
G1 X48
G2 X50 Y28.004 J-2
G1 Y25.375
X51.783 Y1.141
G2 X51.747 Y1.012 I-0.199 J-0.015
G1 X51.709 Y0.957 Z-9.008
X51.673 Y0.905 Z-9.03
X51.64 Y0.859 Z-9.065
X51.613 Y0.82 Z-9.113
X51.592 Y0.791 Z-9.17
X51.579 Y0.773 Z-9.233
X51.575 Y0.766 Z-9.3
Z-9.7
X51.571 Y0.76 Z-9.767
X51.558 Y0.742 Z-9.83
X51.537 Y0.713 Z-9.887
X51.51 Y0.674 Z-9.935
X51.477 Y0.627 Z-9.97
X51.441 Y0.576 Z-9.992
X51.402 Y0.521 Z-10
X51.396 Y0.511
G2 X50.505 Y-0.541 I-6.31 J4.438
X49.471 Y-1.4 I-5.505 J5.577
X49.356 Y-1.435 I-0.114 J0.164
G1 X0.623 Y-1.431
G2 X0.508 Y-1.394 J0.2
X-0.543 Y-0.504 I4.438 J6.301
X-1.392 Y0.517 I5.582 J5.504
X-1.428 Y0.631 I0.164 J0.114
G1 X-1.517 Y36.704
G2 X-1.388 Y36.891 I0.2
X0.16 Y37.334 I3.407 J-8.989
G3 X0.487 Y37.731 I-0.078 J0.397
G1 X0.442 Y138.005
G2 X1.064 Y141.396 I9.558
X1.251 Y141.525 I0.187 J-0.071
G1 X48.749 Y141.528
G2 X48.936 Y141.399 J-0.2
X49.559 Y138.005 I-8.935 J-3.394
G1 X49.514 Y37.735
G3 X49.84 Y37.338 I0.405
G2 X51.392 Y36.894 I-1.859 J-9.431
G1 X51.402 Y36.89
X51.465 Y36.866 Z-9.992
X51.524 Y36.844 Z-9.97
X51.577 Y36.824 Z-9.935
X51.622 Y36.807 Z-9.887
X51.655 Y36.794 Z-9.83
X51.676 Y36.786 Z-9.767
X51.683 Y36.784 Z-9.7
G0 Z5
X-3.402 Y33.262
G1 Z-9.7 F400
X-3.395 Y33.265 Z-9.767
X-3.376 Y33.276 Z-9.83
X-3.344 Y33.292 Z-9.887
X-3.302 Y33.315 Z-9.935
X-3.252 Y33.341 Z-9.97
X-3.196 Y33.371 Z-9.992
X-3.137 Y33.402 Z-10
X-1.393 Y34.33
G2 X2 Y35.168 I3.364 J-6.33
X2.265 Y35.16 J-4.238
G3 X2.529 Y35.151 I0.265 J4.229
X2.849 Y35.471 J0.319
G1 X2.804 Y138.005
G2 X3.654 Y141.399 I7.197
X3.83 Y141.504 I0.176 J-0.094
G1 X46.172 Y141.501
G2 X46.348 Y141.395 J-0.2
X47.197 Y138.005 I-6.348 J-3.39
G1 X47.152 Y35.475
G3 X47.471 Y35.156 I0.319
X47.736 Y35.164 J4.234
G2 X48 Y35.173 I0.264 J-4.226
X51.394 Y34.322 J-7.197
G1 X51.404 Y34.317
X51.463 Y34.285 Z-9.992
X51.519 Y34.255 Z-9.97
X51.569 Y34.229 Z-9.935
X51.611 Y34.206 Z-9.887
X51.642 Y34.189 Z-9.83
X51.662 Y34.179 Z-9.767
X51.669 Y34.175 Z-9.7
G0 Z5
X-3.401 Y29.387
G1 Z-9.7 F400
X-3.396 Y29.392 Z-9.767
X-3.38 Y29.408 Z-9.83
X-3.355 Y29.433 Z-9.887
X-3.321 Y29.467 Z-9.935
X-3.281 Y29.507 Z-9.97
X-3.236 Y29.552 Z-9.992
X-3.189 Y29.599 Z-10
X-1.394 Y31.394
G2 X2 Y32.8 I3.394 J-3.394
X3.412 Y32.777 J-44.287
G3 X4.823 Y32.755 I1.412 J44.264
X5.245 Y33.177 J0.422
G1 X5.2 Y138.005
G2 X6.606 Y141.399 I4.8
X6.747 Y141.457 I0.141 J-0.141
G1 X43.253 Y141.458
G2 X43.394 Y141.399 J-0.2
X44.8 Y138.005 I-3.394 J-3.394
G1 X44.755 Y33.182
G3 X45.177 Y32.759 I0.422
X46.589 Y32.782 J44.274
G2 X48 Y32.805 I1.411 J-44.252
X51.394 Y31.399 J-4.8
X51.296 Y28.248 I-1.529 J-1.529
G3 X50 Y25.375 I2.536 J-2.873
G1 Y5.006
G2 X45 Y0 I-5 J-0.006
G1 X5
G2 X0 Y5 J5
G1 Y28
G2 X2 Y30 I2
G1 X5
G3 X8 Y33 I0.001 J3
G1 Y107.005
Y138.005
G2 X10 Y140.005 I2
G1 X40
G2 X42 Y138.005 J-2
G1 Y33.005
G3 X45 Y30.004 I3
G1 X48
G2 X50 Y28.004 J-2
G1 Y25.375
X51.783 Y1.141
G2 X51.747 Y1.012 I-0.199 J-0.015
G1 X51.709 Y0.957 Z-10.008
X51.673 Y0.905 Z-10.03
X51.64 Y0.859 Z-10.065
X51.613 Y0.82 Z-10.113
X51.592 Y0.791 Z-10.17
X51.579 Y0.773 Z-10.233
X51.575 Y0.766 Z-10.3
Z-10.7
X51.571 Y0.76 Z-10.767
X51.558 Y0.742 Z-10.83
X51.537 Y0.713 Z-10.887
X51.51 Y0.674 Z-10.935
X51.477 Y0.627 Z-10.97
X51.441 Y0.576 Z-10.992
X51.402 Y0.521 Z-11
X51.396 Y0.511
G2 X50.505 Y-0.541 I-6.31 J4.438
X49.471 Y-1.4 I-5.505 J5.577
X49.356 Y-1.435 I-0.114 J0.164
G1 X0.623 Y-1.431
G2 X0.508 Y-1.394 J0.2
X-0.543 Y-0.504 I4.438 J6.301
X-1.392 Y0.517 I5.582 J5.504
X-1.428 Y0.631 I0.164 J0.114
G1 X-1.517 Y36.704
G2 X-1.388 Y36.891 I0.2
X0.16 Y37.334 I3.407 J-8.989
G3 X0.487 Y37.731 I-0.078 J0.397
G1 X0.442 Y138.005
G2 X1.064 Y141.396 I9.558
X1.251 Y141.525 I0.187 J-0.071
G1 X48.749 Y141.528
G2 X48.936 Y141.399 J-0.2
X49.559 Y138.005 I-8.935 J-3.394
G1 X49.514 Y37.735
G3 X49.84 Y37.338 I0.405
G2 X51.392 Y36.894 I-1.859 J-9.431
G1 X51.402 Y36.89
X51.465 Y36.866 Z-10.992
X51.524 Y36.844 Z-10.97
X51.577 Y36.824 Z-10.935
X51.622 Y36.807 Z-10.887
X51.655 Y36.794 Z-10.83
X51.676 Y36.786 Z-10.767
X51.683 Y36.784 Z-10.7
G0 Z5
X-3.402 Y33.262
G1 Z-10.7 F400
X-3.395 Y33.265 Z-10.767
X-3.376 Y33.276 Z-10.83
X-3.344 Y33.292 Z-10.887
X-3.302 Y33.315 Z-10.935
X-3.252 Y33.341 Z-10.97
X-3.196 Y33.371 Z-10.992
X-3.137 Y33.402 Z-11
X-1.393 Y34.33
G2 X2 Y35.168 I3.364 J-6.33
X2.265 Y35.16 J-4.238
G3 X2.529 Y35.151 I0.265 J4.229
X2.849 Y35.471 J0.319
G1 X2.804 Y138.005
G2 X3.654 Y141.399 I7.197
X3.83 Y141.504 I0.176 J-0.094
G1 X46.172 Y141.501
G2 X46.348 Y141.395 J-0.2
X47.197 Y138.005 I-6.348 J-3.39
G1 X47.152 Y35.475
G3 X47.471 Y35.156 I0.319
X47.736 Y35.164 J4.234
G2 X48 Y35.173 I0.264 J-4.226
X51.394 Y34.322 J-7.197
G1 X51.404 Y34.317
X51.463 Y34.285 Z-10.992
X51.519 Y34.255 Z-10.97
X51.569 Y34.229 Z-10.935
X51.611 Y34.206 Z-10.887
X51.642 Y34.189 Z-10.83
X51.662 Y34.179 Z-10.767
X51.669 Y34.175 Z-10.7
G0 Z5
X-3.401 Y29.387
G1 Z-10.7 F400
X-3.396 Y29.392 Z-10.767
X-3.38 Y29.408 Z-10.83
X-3.355 Y29.433 Z-10.887
X-3.321 Y29.467 Z-10.935
X-3.281 Y29.507 Z-10.97
X-3.236 Y29.552 Z-10.992
X-3.189 Y29.599 Z-11
X-1.394 Y31.394
G2 X2 Y32.8 I3.394 J-3.394
X3.412 Y32.777 J-44.287
G3 X4.823 Y32.755 I1.412 J44.264
X5.245 Y33.177 J0.422
G1 X5.2 Y138.005
G2 X6.606 Y141.399 I4.8
X6.747 Y141.457 I0.141 J-0.141
G1 X43.253 Y141.458
G2 X43.394 Y141.399 J-0.2
X44.8 Y138.005 I-3.394 J-3.394
G1 X44.755 Y33.182
G3 X45.177 Y32.759 I0.422
X46.589 Y32.782 J44.274
G2 X48 Y32.805 I1.411 J-44.252
X51.394 Y31.399 J-4.8
X51.296 Y28.248 I-1.529 J-1.529
G3 X50 Y25.375 I2.536 J-2.873
G1 Y5.006
G2 X45 Y0 I-5 J-0.006
G1 X5
G2 X0 Y5 J5
G1 Y28
G2 X2 Y30 I2
G1 X5
G3 X8 Y33 I0.001 J3
G1 Y107.005
Y138.005
G2 X10 Y140.005 I2
G1 X40
G2 X42 Y138.005 J-2
G1 Y33.005
G3 X45 Y30.004 I3
G1 X48
G2 X50 Y28.004 J-2
G1 Y25.375
X51.783 Y1.141
G2 X51.747 Y1.012 I-0.199 J-0.015
G1 X51.709 Y0.957 Z-11.008
X51.673 Y0.905 Z-11.03
X51.64 Y0.859 Z-11.065
X51.613 Y0.82 Z-11.113
X51.592 Y0.791 Z-11.17
X51.579 Y0.773 Z-11.233
X51.575 Y0.766 Z-11.3
Z-11.7
X51.571 Y0.76 Z-11.767
X51.558 Y0.742 Z-11.83
X51.537 Y0.713 Z-11.887
X51.51 Y0.674 Z-11.935
X51.477 Y0.627 Z-11.97
X51.441 Y0.576 Z-11.992
X51.402 Y0.521 Z-12
X51.396 Y0.511
G2 X50.505 Y-0.541 I-6.31 J4.438
X49.471 Y-1.4 I-5.505 J5.577
X49.356 Y-1.435 I-0.114 J0.164
G1 X0.623 Y-1.431
G2 X0.508 Y-1.394 J0.2
X-0.543 Y-0.504 I4.438 J6.301
X-1.392 Y0.517 I5.582 J5.504
X-1.428 Y0.631 I0.164 J0.114
G1 X-1.517 Y36.704
G2 X-1.388 Y36.891 I0.2
X0.16 Y37.334 I3.407 J-8.989
G3 X0.487 Y37.731 I-0.078 J0.397
G1 X0.442 Y138.005
G2 X1.064 Y141.396 I9.558
X1.251 Y141.525 I0.187 J-0.071
G1 X48.749 Y141.528
G2 X48.936 Y141.399 J-0.2
X49.559 Y138.005 I-8.935 J-3.394
G1 X49.514 Y37.735
G3 X49.84 Y37.338 I0.405
G2 X51.392 Y36.894 I-1.859 J-9.431
G1 X51.402 Y36.89
X51.465 Y36.866 Z-11.992
X51.524 Y36.844 Z-11.97
X51.577 Y36.824 Z-11.935
X51.622 Y36.807 Z-11.887
X51.655 Y36.794 Z-11.83
X51.676 Y36.786 Z-11.767
X51.683 Y36.784 Z-11.7
G0 Z5
X-3.402 Y33.262
G1 Z-11.7 F400
X-3.395 Y33.265 Z-11.767
X-3.376 Y33.276 Z-11.83
X-3.344 Y33.292 Z-11.887
X-3.302 Y33.315 Z-11.935
X-3.252 Y33.341 Z-11.97
X-3.196 Y33.371 Z-11.992
X-3.137 Y33.402 Z-12
X-1.393 Y34.33
G2 X2 Y35.168 I3.364 J-6.33
X2.265 Y35.16 J-4.238
G3 X2.529 Y35.151 I0.265 J4.229
X2.849 Y35.471 J0.319
G1 X2.804 Y138.005
G2 X3.654 Y141.399 I7.197
X3.83 Y141.504 I0.176 J-0.094
G1 X46.172 Y141.501
G2 X46.348 Y141.395 J-0.2
X47.197 Y138.005 I-6.348 J-3.39
G1 X47.152 Y35.475
G3 X47.471 Y35.156 I0.319
X47.736 Y35.164 J4.234
G2 X48 Y35.173 I0.264 J-4.226
X51.394 Y34.322 J-7.197
G1 X51.404 Y34.317
X51.463 Y34.285 Z-11.992
X51.519 Y34.255 Z-11.97
X51.569 Y34.229 Z-11.935
X51.611 Y34.206 Z-11.887
X51.642 Y34.189 Z-11.83
X51.662 Y34.179 Z-11.767
X51.669 Y34.175 Z-11.7
G0 Z5
X-3.401 Y29.387
G1 Z-11.7 F400
X-3.396 Y29.392 Z-11.767
X-3.38 Y29.408 Z-11.83
X-3.355 Y29.433 Z-11.887
X-3.321 Y29.467 Z-11.935
X-3.281 Y29.507 Z-11.97
X-3.236 Y29.552 Z-11.992
X-3.189 Y29.599 Z-12
X-1.394 Y31.394
G2 X2 Y32.8 I3.394 J-3.394
X3.412 Y32.777 J-44.287
G3 X4.823 Y32.755 I1.412 J44.264
X5.245 Y33.177 J0.422
G1 X5.2 Y138.005
G2 X6.606 Y141.399 I4.8
X6.747 Y141.457 I0.141 J-0.141
G1 X43.253 Y141.458
G2 X43.394 Y141.399 J-0.2
X44.8 Y138.005 I-3.394 J-3.394
G1 X44.755 Y33.182
G3 X45.177 Y32.759 I0.422
X46.589 Y32.782 J44.274
G2 X48 Y32.805 I1.411 J-44.252
X51.394 Y31.399 J-4.8
X51.296 Y28.248 I-1.529 J-1.529
G3 X50 Y25.375 I2.536 J-2.873
G1 Y5.006
G2 X45 Y0 I-5 J-0.006
G1 X5
G2 X0 Y5 J5
G1 Y28
G2 X2 Y30 I2
G1 X5
G3 X8 Y33 I0.001 J3
G1 Y107.005
Y138.005
G2 X10 Y140.005 I2
G1 X40
G2 X42 Y138.005 J-2
G1 Y33.005
G3 X45 Y30.004 I3
G1 X48
G2 X50 Y28.004 J-2
G1 Y25.375
X51.783 Y1.141
G2 X51.747 Y1.012 I-0.199 J-0.015
G1 X51.709 Y0.957 Z-12.008
X51.673 Y0.905 Z-12.03
X51.64 Y0.859 Z-12.065
X51.613 Y0.82 Z-12.113
X51.592 Y0.791 Z-12.17
X51.579 Y0.773 Z-12.233
X51.575 Y0.766 Z-12.3
Z-12.7
X51.571 Y0.76 Z-12.767
X51.558 Y0.742 Z-12.83
X51.537 Y0.713 Z-12.887
X51.51 Y0.674 Z-12.935
X51.477 Y0.627 Z-12.97
X51.441 Y0.576 Z-12.992
X51.402 Y0.521 Z-13
X51.396 Y0.511
G2 X50.505 Y-0.541 I-6.31 J4.438
X49.471 Y-1.4 I-5.505 J5.577
X49.356 Y-1.435 I-0.114 J0.164
G1 X0.623 Y-1.431
G2 X0.508 Y-1.394 J0.2
X-0.543 Y-0.504 I4.438 J6.301
X-1.392 Y0.517 I5.582 J5.504
X-1.428 Y0.631 I0.164 J0.114
G1 X-1.517 Y36.704
G2 X-1.388 Y36.891 I0.2
X0.16 Y37.334 I3.407 J-8.989
G3 X0.487 Y37.731 I-0.078 J0.397
G1 X0.442 Y138.005
G2 X1.064 Y141.396 I9.558
X1.251 Y141.525 I0.187 J-0.071
G1 X48.749 Y141.528
G2 X48.936 Y141.399 J-0.2
X49.559 Y138.005 I-8.935 J-3.394
G1 X49.514 Y37.735
G3 X49.84 Y37.338 I0.405
G2 X51.392 Y36.894 I-1.859 J-9.431
G1 X51.402 Y36.89
X51.465 Y36.866 Z-12.992
X51.524 Y36.844 Z-12.97
X51.577 Y36.824 Z-12.935
X51.622 Y36.807 Z-12.887
X51.655 Y36.794 Z-12.83
X51.676 Y36.786 Z-12.767
X51.683 Y36.784 Z-12.7
G0 Z5
X-3.402 Y33.262
G1 Z-12.7 F400
X-3.395 Y33.265 Z-12.767
X-3.376 Y33.276 Z-12.83
X-3.344 Y33.292 Z-12.887
X-3.302 Y33.315 Z-12.935
X-3.252 Y33.341 Z-12.97
X-3.196 Y33.371 Z-12.992
X-3.137 Y33.402 Z-13
X-1.393 Y34.33
G2 X2 Y35.168 I3.364 J-6.33
X2.265 Y35.16 J-4.238
G3 X2.529 Y35.151 I0.265 J4.229
X2.849 Y35.471 J0.319
G1 X2.804 Y138.005
G2 X3.654 Y141.399 I7.197
X3.83 Y141.504 I0.176 J-0.094
G1 X46.172 Y141.501
G2 X46.348 Y141.395 J-0.2
X47.197 Y138.005 I-6.348 J-3.39
G1 X47.152 Y35.475
G3 X47.471 Y35.156 I0.319
X47.736 Y35.164 J4.234
G2 X48 Y35.173 I0.264 J-4.226
X51.394 Y34.322 J-7.197
G1 X51.404 Y34.317
X51.463 Y34.285 Z-12.992
X51.519 Y34.255 Z-12.97
X51.569 Y34.229 Z-12.935
X51.611 Y34.206 Z-12.887
X51.642 Y34.189 Z-12.83
X51.662 Y34.179 Z-12.767
X51.669 Y34.175 Z-12.7
G0 Z5
X-3.401 Y29.387
G1 Z-12.7 F400
X-3.396 Y29.392 Z-12.767
X-3.38 Y29.408 Z-12.83
X-3.355 Y29.433 Z-12.887
X-3.321 Y29.467 Z-12.935
X-3.281 Y29.507 Z-12.97
X-3.236 Y29.552 Z-12.992
X-3.189 Y29.599 Z-13
X-1.394 Y31.394
G2 X2 Y32.8 I3.394 J-3.394
X3.412 Y32.777 J-44.287
G3 X4.823 Y32.755 I1.412 J44.264
X5.245 Y33.177 J0.422
G1 X5.2 Y138.005
G2 X6.606 Y141.399 I4.8
X6.747 Y141.457 I0.141 J-0.141
G1 X43.253 Y141.458
G2 X43.394 Y141.399 J-0.2
X44.8 Y138.005 I-3.394 J-3.394
G1 X44.755 Y33.182
G3 X45.177 Y32.759 I0.422
X46.589 Y32.782 J44.274
G2 X48 Y32.805 I1.411 J-44.252
X51.394 Y31.399 J-4.8
X51.296 Y28.248 I-1.529 J-1.529
G3 X50 Y25.375 I2.536 J-2.873
G1 Y5.006
G2 X45 Y0 I-5 J-0.006
G1 X5
G2 X0 Y5 J5
G1 Y28
G2 X2 Y30 I2
G1 X5
G3 X8 Y33 I0.001 J3
G1 Y107.005
Y138.005
G2 X10 Y140.005 I2
G1 X40
G2 X42 Y138.005 J-2
G1 Y33.005
G3 X45 Y30.004 I3
G1 X48
G2 X50 Y28.004 J-2
G1 Y25.375
X51.783 Y1.141
G2 X51.747 Y1.012 I-0.199 J-0.015
G1 X51.709 Y0.957 Z-13.008
X51.673 Y0.905 Z-13.03
X51.64 Y0.859 Z-13.065
X51.613 Y0.82 Z-13.113
X51.592 Y0.791 Z-13.17
X51.579 Y0.773 Z-13.233
X51.575 Y0.766 Z-13.3
Z-13.7
X51.571 Y0.76 Z-13.767
X51.558 Y0.742 Z-13.83
X51.537 Y0.713 Z-13.887
X51.51 Y0.674 Z-13.935
X51.477 Y0.627 Z-13.97
X51.441 Y0.576 Z-13.992
X51.402 Y0.521 Z-14
X51.396 Y0.511
G2 X50.505 Y-0.541 I-6.31 J4.438
X49.471 Y-1.4 I-5.505 J5.577
X49.356 Y-1.435 I-0.114 J0.164
G1 X0.623 Y-1.431
G2 X0.508 Y-1.394 J0.2
X-0.543 Y-0.504 I4.438 J6.301
X-1.392 Y0.517 I5.582 J5.504
X-1.428 Y0.631 I0.164 J0.114
G1 X-1.517 Y36.704
G2 X-1.388 Y36.891 I0.2
X0.16 Y37.334 I3.407 J-8.989
G3 X0.487 Y37.731 I-0.078 J0.397
G1 X0.442 Y138.005
G2 X1.064 Y141.396 I9.558
X1.251 Y141.525 I0.187 J-0.071
G1 X48.749 Y141.528
G2 X48.936 Y141.399 J-0.2
X49.559 Y138.005 I-8.935 J-3.394
G1 X49.514 Y37.735
G3 X49.84 Y37.338 I0.405
G2 X51.392 Y36.894 I-1.859 J-9.431
G1 X51.402 Y36.89
X51.465 Y36.866 Z-13.992
X51.524 Y36.844 Z-13.97
X51.577 Y36.824 Z-13.935
X51.622 Y36.807 Z-13.887
X51.655 Y36.794 Z-13.83
X51.676 Y36.786 Z-13.767
X51.683 Y36.784 Z-13.7
G0 Z5
X-3.402 Y33.262
G1 Z-13.7 F400
X-3.395 Y33.265 Z-13.767
X-3.376 Y33.276 Z-13.83
X-3.344 Y33.292 Z-13.887
X-3.302 Y33.315 Z-13.935
X-3.252 Y33.341 Z-13.97
X-3.196 Y33.371 Z-13.992
X-3.137 Y33.402 Z-14
X-1.393 Y34.33
G2 X2 Y35.168 I3.364 J-6.33
X2.265 Y35.16 J-4.238
G3 X2.529 Y35.151 I0.265 J4.229
X2.849 Y35.471 J0.319
G1 X2.804 Y138.005
G2 X3.654 Y141.399 I7.197
X3.83 Y141.504 I0.176 J-0.094
G1 X46.172 Y141.501
G2 X46.348 Y141.395 J-0.2
X47.197 Y138.005 I-6.348 J-3.39
G1 X47.152 Y35.475
G3 X47.471 Y35.156 I0.319
X47.736 Y35.164 J4.234
G2 X48 Y35.173 I0.264 J-4.226
X51.394 Y34.322 J-7.197
G1 X51.404 Y34.317
X51.463 Y34.285 Z-13.992
X51.519 Y34.255 Z-13.97
X51.569 Y34.229 Z-13.935
X51.611 Y34.206 Z-13.887
X51.642 Y34.189 Z-13.83
X51.662 Y34.179 Z-13.767
X51.669 Y34.175 Z-13.7
G0 Z5
X-3.401 Y29.387
G1 Z-13.7 F400
X-3.396 Y29.392 Z-13.767
X-3.38 Y29.408 Z-13.83
X-3.355 Y29.433 Z-13.887
X-3.321 Y29.467 Z-13.935
X-3.281 Y29.507 Z-13.97
X-3.236 Y29.552 Z-13.992
X-3.189 Y29.599 Z-14
X-1.394 Y31.394
G2 X2 Y32.8 I3.394 J-3.394
X3.412 Y32.777 J-44.287
G3 X4.823 Y32.755 I1.412 J44.264
X5.245 Y33.177 J0.422
G1 X5.2 Y138.005
G2 X6.606 Y141.399 I4.8
X6.747 Y141.457 I0.141 J-0.141
G1 X43.253 Y141.458
G2 X43.394 Y141.399 J-0.2
X44.8 Y138.005 I-3.394 J-3.394
G1 X44.755 Y33.182
G3 X45.177 Y32.759 I0.422
X46.589 Y32.782 J44.274
G2 X48 Y32.805 I1.411 J-44.252
X51.394 Y31.399 J-4.8
X51.296 Y28.248 I-1.529 J-1.529
G3 X50 Y25.375 I2.536 J-2.873
G1 Y5.006
G2 X45 Y0 I-5 J-0.006
G1 X5
G2 X0 Y5 J5
G1 Y28
G2 X2 Y30 I2
G1 X5
G3 X8 Y33 I0.001 J3
G1 Y107.005
Y138.005
G2 X10 Y140.005 I2
G1 X40
G2 X42 Y138.005 J-2
G1 Y33.005
G3 X45 Y30.004 I3
G1 X48
G2 X50 Y28.004 J-2
G1 Y25.375
X51.783 Y1.141
G2 X51.747 Y1.012 I-0.199 J-0.015
G1 X51.709 Y0.957 Z-14.008
X51.673 Y0.905 Z-14.03
X51.64 Y0.859 Z-14.065
X51.613 Y0.82 Z-14.113
X51.592 Y0.791 Z-14.17
X51.579 Y0.773 Z-14.233
X51.575 Y0.766 Z-14.3
Z-14.7
X51.571 Y0.76 Z-14.767
X51.558 Y0.742 Z-14.83
X51.537 Y0.713 Z-14.887
X51.51 Y0.674 Z-14.935
X51.477 Y0.627 Z-14.97
X51.441 Y0.576 Z-14.992
X51.402 Y0.521 Z-15
X51.396 Y0.511
G2 X50.505 Y-0.541 I-6.31 J4.438
X49.471 Y-1.4 I-5.505 J5.577
X49.356 Y-1.435 I-0.114 J0.164
G1 X0.623 Y-1.431
G2 X0.508 Y-1.394 J0.2
X-0.543 Y-0.504 I4.438 J6.301
X-1.392 Y0.517 I5.582 J5.504
X-1.428 Y0.631 I0.164 J0.114
G1 X-1.517 Y36.704
G2 X-1.388 Y36.891 I0.2
X0.16 Y37.334 I3.407 J-8.989
G3 X0.487 Y37.731 I-0.078 J0.397
G1 X0.442 Y138.005
G2 X1.064 Y141.396 I9.558
X1.251 Y141.525 I0.187 J-0.071
G1 X48.749 Y141.528
G2 X48.936 Y141.399 J-0.2
X49.559 Y138.005 I-8.935 J-3.394
G1 X49.514 Y37.735
G3 X49.84 Y37.338 I0.405
G2 X51.392 Y36.894 I-1.859 J-9.431
G1 X51.402 Y36.89
X51.465 Y36.866 Z-14.992
X51.524 Y36.844 Z-14.97
X51.577 Y36.824 Z-14.935
X51.622 Y36.807 Z-14.887
X51.655 Y36.794 Z-14.83
X51.676 Y36.786 Z-14.767
X51.683 Y36.784 Z-14.7
G0 Z5
X-3.402 Y33.262
G1 Z-14.7 F400
X-3.395 Y33.265 Z-14.767
X-3.376 Y33.276 Z-14.83
X-3.344 Y33.292 Z-14.887
X-3.302 Y33.315 Z-14.935
X-3.252 Y33.341 Z-14.97
X-3.196 Y33.371 Z-14.992
X-3.137 Y33.402 Z-15
X-1.393 Y34.33
G2 X2 Y35.168 I3.364 J-6.33
X2.265 Y35.16 J-4.238
G3 X2.529 Y35.151 I0.265 J4.229
X2.849 Y35.471 J0.319
G1 X2.804 Y138.005
G2 X3.654 Y141.399 I7.197
X3.83 Y141.504 I0.176 J-0.094
G1 X46.172 Y141.501
G2 X46.348 Y141.395 J-0.2
X47.197 Y138.005 I-6.348 J-3.39
G1 X47.152 Y35.475
G3 X47.471 Y35.156 I0.319
X47.736 Y35.164 J4.234
G2 X48 Y35.173 I0.264 J-4.226
X51.394 Y34.322 J-7.197
G1 X51.404 Y34.317
X51.463 Y34.285 Z-14.992
X51.519 Y34.255 Z-14.97
X51.569 Y34.229 Z-14.935
X51.611 Y34.206 Z-14.887
X51.642 Y34.189 Z-14.83
X51.662 Y34.179 Z-14.767
X51.669 Y34.175 Z-14.7
G0 Z5
X-3.401 Y29.387
G1 Z-14.7 F400
X-3.396 Y29.392 Z-14.767
X-3.38 Y29.408 Z-14.83
X-3.355 Y29.433 Z-14.887
X-3.321 Y29.467 Z-14.935
X-3.281 Y29.507 Z-14.97
X-3.236 Y29.552 Z-14.992
X-3.189 Y29.599 Z-15
X-1.394 Y31.394
G2 X2 Y32.8 I3.394 J-3.394
X3.412 Y32.777 J-44.287
G3 X4.823 Y32.755 I1.412 J44.264
X5.245 Y33.177 J0.422
G1 X5.2 Y138.005
G2 X6.606 Y141.399 I4.8
X6.747 Y141.457 I0.141 J-0.141
G1 X43.253 Y141.458
G2 X43.394 Y141.399 J-0.2
X44.8 Y138.005 I-3.394 J-3.394
G1 X44.755 Y33.182
G3 X45.177 Y32.759 I0.422
X46.589 Y32.782 J44.274
G2 X48 Y32.805 I1.411 J-44.252
X51.394 Y31.399 J-4.8
X51.296 Y28.248 I-1.529 J-1.529
G3 X50 Y25.375 I2.536 J-2.873
G1 Y5.006
G2 X45 Y0 I-5 J-0.006
G1 X5
G2 X0 Y5 J5
G1 Y28
G2 X2 Y30 I2
G1 X5
G3 X8 Y33 I0.001 J3
G1 Y107.005
Y138.005
G2 X10 Y140.005 I2
G1 X40
G2 X42 Y138.005 J-2
G1 Y33.005
G3 X45 Y30.004 I3
G1 X48
G2 X50 Y28.004 J-2
G1 Y25.375
X51.783 Y1.141
G2 X51.747 Y1.012 I-0.199 J-0.015
G1 X51.709 Y0.957 Z-15.008
X51.673 Y0.905 Z-15.03
X51.64 Y0.859 Z-15.065
X51.613 Y0.82 Z-15.113
X51.592 Y0.791 Z-15.17
X51.579 Y0.773 Z-15.233
X51.575 Y0.766 Z-15.3
Z-15.7
X51.571 Y0.76 Z-15.767
X51.558 Y0.742 Z-15.83
X51.537 Y0.713 Z-15.887
X51.51 Y0.674 Z-15.935
X51.477 Y0.627 Z-15.97
X51.441 Y0.576 Z-15.992
X51.402 Y0.521 Z-16
X51.396 Y0.511
G2 X50.505 Y-0.541 I-6.31 J4.438
X49.471 Y-1.4 I-5.505 J5.577
X49.356 Y-1.435 I-0.114 J0.164
G1 X0.623 Y-1.431
G2 X0.508 Y-1.394 J0.2
X-0.543 Y-0.504 I4.438 J6.301
X-1.392 Y0.517 I5.582 J5.504
X-1.428 Y0.631 I0.164 J0.114
G1 X-1.517 Y36.704
G2 X-1.388 Y36.891 I0.2
X0.16 Y37.334 I3.407 J-8.989
G3 X0.487 Y37.731 I-0.078 J0.397
G1 X0.442 Y138.005
G2 X1.064 Y141.396 I9.558
X1.251 Y141.525 I0.187 J-0.071
G1 X48.749 Y141.528
G2 X48.936 Y141.399 J-0.2
X49.559 Y138.005 I-8.935 J-3.394
G1 X49.514 Y37.735
G3 X49.84 Y37.338 I0.405
G2 X51.392 Y36.894 I-1.859 J-9.431
G1 X51.402 Y36.89
X51.465 Y36.866 Z-15.992
X51.524 Y36.844 Z-15.97
X51.577 Y36.824 Z-15.935
X51.622 Y36.807 Z-15.887
X51.655 Y36.794 Z-15.83
X51.676 Y36.786 Z-15.767
X51.683 Y36.784 Z-15.7
G0 Z5
X-3.402 Y33.262
G1 Z-15.7 F400
X-3.395 Y33.265 Z-15.767
X-3.376 Y33.276 Z-15.83
X-3.344 Y33.292 Z-15.887
X-3.302 Y33.315 Z-15.935
X-3.252 Y33.341 Z-15.97
X-3.196 Y33.371 Z-15.992
X-3.137 Y33.402 Z-16
X-1.393 Y34.33
G2 X2 Y35.168 I3.364 J-6.33
X2.265 Y35.16 J-4.238
G3 X2.529 Y35.151 I0.265 J4.229
X2.849 Y35.471 J0.319
G1 X2.804 Y138.005
G2 X3.654 Y141.399 I7.197
X3.83 Y141.504 I0.176 J-0.094
G1 X46.172 Y141.501
G2 X46.348 Y141.395 J-0.2
X47.197 Y138.005 I-6.348 J-3.39
G1 X47.152 Y35.475
G3 X47.471 Y35.156 I0.319
X47.736 Y35.164 J4.234
G2 X48 Y35.173 I0.264 J-4.226
X51.394 Y34.322 J-7.197
G1 X51.404 Y34.317
X51.463 Y34.285 Z-15.992
X51.519 Y34.255 Z-15.97
X51.569 Y34.229 Z-15.935
X51.611 Y34.206 Z-15.887
X51.642 Y34.189 Z-15.83
X51.662 Y34.179 Z-15.767
X51.669 Y34.175 Z-15.7
G0 Z5
X-3.401 Y29.387
G1 Z-15.7 F400
X-3.396 Y29.392 Z-15.767
X-3.38 Y29.408 Z-15.83
X-3.355 Y29.433 Z-15.887
X-3.321 Y29.467 Z-15.935
X-3.281 Y29.507 Z-15.97
X-3.236 Y29.552 Z-15.992
X-3.189 Y29.599 Z-16
X-1.394 Y31.394
G2 X2 Y32.8 I3.394 J-3.394
X3.412 Y32.777 J-44.287
G3 X4.823 Y32.755 I1.412 J44.264
X5.245 Y33.177 J0.422
G1 X5.2 Y138.005
G2 X6.606 Y141.399 I4.8
X6.747 Y141.457 I0.141 J-0.141
G1 X43.253 Y141.458
G2 X43.394 Y141.399 J-0.2
X44.8 Y138.005 I-3.394 J-3.394
G1 X44.755 Y33.182
G3 X45.177 Y32.759 I0.422
X46.589 Y32.782 J44.274
G2 X48 Y32.805 I1.411 J-44.252
X51.394 Y31.399 J-4.8
X51.296 Y28.248 I-1.529 J-1.529
G3 X50 Y25.375 I2.536 J-2.873
G1 Y5.006
G2 X45 Y0 I-5 J-0.006
G1 X5
G2 X0 Y5 J5
G1 Y28
G2 X2 Y30 I2
G1 X5
G3 X8 Y33 I0.001 J3
G1 Y107.005
Y138.005
G2 X10 Y140.005 I2
G1 X40
G2 X42 Y138.005 J-2
G1 Y33.005
G3 X45 Y30.004 I3
G1 X48
G2 X50 Y28.004 J-2
G1 Y25.375
X51.783 Y1.141
G2 X51.747 Y1.012 I-0.199 J-0.015
G1 X51.709 Y0.957 Z-16.008
X51.673 Y0.905 Z-16.03
X51.64 Y0.859 Z-16.065
X51.613 Y0.82 Z-16.113
X51.592 Y0.791 Z-16.17
X51.579 Y0.773 Z-16.233
X51.575 Y0.766 Z-16.3
Z-16.7
X51.571 Y0.76 Z-16.767
X51.558 Y0.742 Z-16.83
X51.537 Y0.713 Z-16.887
X51.51 Y0.674 Z-16.935
X51.477 Y0.627 Z-16.97
X51.441 Y0.576 Z-16.992
X51.402 Y0.521 Z-17
X51.396 Y0.511
G2 X50.505 Y-0.541 I-6.31 J4.438
X49.471 Y-1.4 I-5.505 J5.577
X49.356 Y-1.435 I-0.114 J0.164
G1 X0.623 Y-1.431
G2 X0.508 Y-1.394 J0.2
X-0.543 Y-0.504 I4.438 J6.301
X-1.392 Y0.517 I5.582 J5.504
X-1.428 Y0.631 I0.164 J0.114
G1 X-1.517 Y36.704
G2 X-1.388 Y36.891 I0.2
X0.16 Y37.334 I3.407 J-8.989
G3 X0.487 Y37.731 I-0.078 J0.397
G1 X0.442 Y138.005
G2 X1.064 Y141.396 I9.558
X1.251 Y141.525 I0.187 J-0.071
G1 X48.749 Y141.528
G2 X48.936 Y141.399 J-0.2
X49.559 Y138.005 I-8.935 J-3.394
G1 X49.514 Y37.735
G3 X49.84 Y37.338 I0.405
G2 X51.392 Y36.894 I-1.859 J-9.431
G1 X51.402 Y36.89
X51.465 Y36.866 Z-16.992
X51.524 Y36.844 Z-16.97
X51.577 Y36.824 Z-16.935
X51.622 Y36.807 Z-16.887
X51.655 Y36.794 Z-16.83
X51.676 Y36.786 Z-16.767
X51.683 Y36.784 Z-16.7
G0 Z5
X-3.402 Y33.262
G1 Z-16.7 F400
X-3.395 Y33.265 Z-16.767
X-3.376 Y33.276 Z-16.83
X-3.344 Y33.292 Z-16.887
X-3.302 Y33.315 Z-16.935
X-3.252 Y33.341 Z-16.97
X-3.196 Y33.371 Z-16.992
X-3.137 Y33.402 Z-17
X-1.393 Y34.33
G2 X2 Y35.168 I3.364 J-6.33
X2.265 Y35.16 J-4.238
G3 X2.529 Y35.151 I0.265 J4.229
X2.849 Y35.471 J0.319
G1 X2.804 Y138.005
G2 X3.654 Y141.399 I7.197
X3.83 Y141.504 I0.176 J-0.094
G1 X46.172 Y141.501
G2 X46.348 Y141.395 J-0.2
X47.197 Y138.005 I-6.348 J-3.39
G1 X47.152 Y35.475
G3 X47.471 Y35.156 I0.319
X47.736 Y35.164 J4.234
G2 X48 Y35.173 I0.264 J-4.226
X51.394 Y34.322 J-7.197
G1 X51.404 Y34.317
X51.463 Y34.285 Z-16.992
X51.519 Y34.255 Z-16.97
X51.569 Y34.229 Z-16.935
X51.611 Y34.206 Z-16.887
X51.642 Y34.189 Z-16.83
X51.662 Y34.179 Z-16.767
X51.669 Y34.175 Z-16.7
G0 Z5
X-3.401 Y29.387
G1 Z-16.7 F400
X-3.396 Y29.392 Z-16.767
X-3.38 Y29.408 Z-16.83
X-3.355 Y29.433 Z-16.887
X-3.321 Y29.467 Z-16.935
X-3.281 Y29.507 Z-16.97
X-3.236 Y29.552 Z-16.992
X-3.189 Y29.599 Z-17
X-1.394 Y31.394
G2 X2 Y32.8 I3.394 J-3.394
X3.412 Y32.777 J-44.287
G3 X4.823 Y32.755 I1.412 J44.264
X5.245 Y33.177 J0.422
G1 X5.2 Y138.005
G2 X6.606 Y141.399 I4.8
X6.747 Y141.457 I0.141 J-0.141
G1 X43.253 Y141.458
G2 X43.394 Y141.399 J-0.2
X44.8 Y138.005 I-3.394 J-3.394
G1 X44.755 Y33.182
G3 X45.177 Y32.759 I0.422
X46.589 Y32.782 J44.274
G2 X48 Y32.805 I1.411 J-44.252
X51.394 Y31.399 J-4.8
X51.296 Y28.248 I-1.529 J-1.529
G3 X50 Y25.375 I2.536 J-2.873
G1 Y5.006
G2 X45 Y0 I-5 J-0.006
G1 X5
G2 X0 Y5 J5
G1 Y28
G2 X2 Y30 I2
G1 X5
G3 X8 Y33 I0.001 J3
G1 Y107.005
Y138.005
G2 X10 Y140.005 I2
G1 X40
G2 X42 Y138.005 J-2
G1 Y33.005
G3 X45 Y30.004 I3
G1 X48
G2 X50 Y28.004 J-2
G1 Y25.375
X51.783 Y1.141
G2 X51.747 Y1.012 I-0.199 J-0.015
G1 X51.709 Y0.957 Z-17.008
X51.673 Y0.905 Z-17.03
X51.64 Y0.859 Z-17.065
X51.613 Y0.82 Z-17.113
X51.592 Y0.791 Z-17.17
X51.579 Y0.773 Z-17.233
X51.575 Y0.766 Z-17.3
Z-17.7
X51.571 Y0.76 Z-17.767
X51.558 Y0.742 Z-17.83
X51.537 Y0.713 Z-17.887
X51.51 Y0.674 Z-17.935
X51.477 Y0.627 Z-17.97
X51.441 Y0.576 Z-17.992
X51.402 Y0.521 Z-18
X51.396 Y0.511
G2 X50.505 Y-0.541 I-6.31 J4.438
X49.471 Y-1.4 I-5.505 J5.577
X49.356 Y-1.435 I-0.114 J0.164
G1 X0.623 Y-1.431
G2 X0.508 Y-1.394 J0.2
X-0.543 Y-0.504 I4.438 J6.301
X-1.392 Y0.517 I5.582 J5.504
X-1.428 Y0.631 I0.164 J0.114
G1 X-1.517 Y36.704
G2 X-1.388 Y36.891 I0.2
X0.16 Y37.334 I3.407 J-8.989
G3 X0.487 Y37.731 I-0.078 J0.397
G1 X0.442 Y138.005
G2 X1.064 Y141.396 I9.558
X1.251 Y141.525 I0.187 J-0.071
G1 X48.749 Y141.528
G2 X48.936 Y141.399 J-0.2
X49.559 Y138.005 I-8.935 J-3.394
G1 X49.514 Y37.735
G3 X49.84 Y37.338 I0.405
G2 X51.392 Y36.894 I-1.859 J-9.431
G1 X51.402 Y36.89
X51.465 Y36.866 Z-17.992
X51.524 Y36.844 Z-17.97
X51.577 Y36.824 Z-17.935
X51.622 Y36.807 Z-17.887
X51.655 Y36.794 Z-17.83
X51.676 Y36.786 Z-17.767
X51.683 Y36.784 Z-17.7
G0 Z5
X-3.402 Y33.262
G1 Z-17.7 F400
X-3.395 Y33.265 Z-17.767
X-3.376 Y33.276 Z-17.83
X-3.344 Y33.292 Z-17.887
X-3.302 Y33.315 Z-17.935
X-3.252 Y33.341 Z-17.97
X-3.196 Y33.371 Z-17.992
X-3.137 Y33.402 Z-18
X-1.393 Y34.33
G2 X2 Y35.168 I3.364 J-6.33
X2.265 Y35.16 J-4.238
G3 X2.529 Y35.151 I0.265 J4.229
X2.849 Y35.471 J0.319
G1 X2.804 Y138.005
G2 X3.654 Y141.399 I7.197
X3.83 Y141.504 I0.176 J-0.094
G1 X46.172 Y141.501
G2 X46.348 Y141.395 J-0.2
X47.197 Y138.005 I-6.348 J-3.39
G1 X47.152 Y35.475
G3 X47.471 Y35.156 I0.319
X47.736 Y35.164 J4.234
G2 X48 Y35.173 I0.264 J-4.226
X51.394 Y34.322 J-7.197
G1 X51.404 Y34.317
X51.463 Y34.285 Z-17.992
X51.519 Y34.255 Z-17.97
X51.569 Y34.229 Z-17.935
X51.611 Y34.206 Z-17.887
X51.642 Y34.189 Z-17.83
X51.662 Y34.179 Z-17.767
X51.669 Y34.175 Z-17.7
G0 Z5
X-3.401 Y29.387
G1 Z-17.7 F400
X-3.396 Y29.392 Z-17.767
X-3.38 Y29.408 Z-17.83
X-3.355 Y29.433 Z-17.887
X-3.321 Y29.467 Z-17.935
X-3.281 Y29.507 Z-17.97
X-3.236 Y29.552 Z-17.992
X-3.189 Y29.599 Z-18
X-1.394 Y31.394
G2 X2 Y32.8 I3.394 J-3.394
X3.412 Y32.777 J-44.287
G3 X4.823 Y32.755 I1.412 J44.264
X5.245 Y33.177 J0.422
G1 X5.2 Y138.005
G2 X6.606 Y141.399 I4.8
X6.747 Y141.457 I0.141 J-0.141
G1 X43.253 Y141.458
G2 X43.394 Y141.399 J-0.2
X44.8 Y138.005 I-3.394 J-3.394
G1 X44.755 Y33.182
G3 X45.177 Y32.759 I0.422
X46.589 Y32.782 J44.274
G2 X48 Y32.805 I1.411 J-44.252
X51.394 Y31.399 J-4.8
X51.296 Y28.248 I-1.529 J-1.529
G3 X50 Y25.375 I2.536 J-2.873
G1 Y5.006
G2 X45 Y0 I-5 J-0.006
G1 X5
G2 X0 Y5 J5
G1 Y28
G2 X2 Y30 I2
G1 X5
G3 X8 Y33 I0.001 J3
G1 Y107.005
Y138.005
G2 X10 Y140.005 I2
G1 X40
G2 X42 Y138.005 J-2
G1 Y33.005
G3 X45 Y30.004 I3
G1 X48
G2 X50 Y28.004 J-2
G1 Y25.375
X51.783 Y1.141
G2 X51.747 Y1.012 I-0.199 J-0.015
G1 X51.709 Y0.957 Z-18.008
X51.673 Y0.905 Z-18.03
X51.64 Y0.859 Z-18.065
X51.613 Y0.82 Z-18.113
X51.592 Y0.791 Z-18.17
X51.579 Y0.773 Z-18.233
X51.575 Y0.766 Z-18.3
Z-18.7
X51.571 Y0.76 Z-18.767
X51.558 Y0.742 Z-18.83
X51.537 Y0.713 Z-18.887
X51.51 Y0.674 Z-18.935
X51.477 Y0.627 Z-18.97
X51.441 Y0.576 Z-18.992
X51.402 Y0.521 Z-19
X51.396 Y0.511
G2 X50.505 Y-0.541 I-6.31 J4.438
X49.471 Y-1.4 I-5.505 J5.577
X49.356 Y-1.435 I-0.114 J0.164
G1 X0.623 Y-1.431
G2 X0.508 Y-1.394 J0.2
X-0.543 Y-0.504 I4.438 J6.301
X-1.392 Y0.517 I5.582 J5.504
X-1.428 Y0.631 I0.164 J0.114
G1 X-1.517 Y36.704
G2 X-1.388 Y36.891 I0.2
X0.16 Y37.334 I3.407 J-8.989
G3 X0.487 Y37.731 I-0.078 J0.397
G1 X0.442 Y138.005
G2 X1.064 Y141.396 I9.558
X1.251 Y141.525 I0.187 J-0.071
G1 X48.749 Y141.528
G2 X48.936 Y141.399 J-0.2
X49.559 Y138.005 I-8.935 J-3.394
G1 X49.514 Y37.735
G3 X49.84 Y37.338 I0.405
G2 X51.392 Y36.894 I-1.859 J-9.431
G1 X51.402 Y36.89
X51.465 Y36.866 Z-18.992
X51.524 Y36.844 Z-18.97
X51.577 Y36.824 Z-18.935
X51.622 Y36.807 Z-18.887
X51.655 Y36.794 Z-18.83
X51.676 Y36.786 Z-18.767
X51.683 Y36.784 Z-18.7
G0 Z5
X-3.402 Y33.262
G1 Z-18.7 F400
X-3.395 Y33.265 Z-18.767
X-3.376 Y33.276 Z-18.83
X-3.344 Y33.292 Z-18.887
X-3.302 Y33.315 Z-18.935
X-3.252 Y33.341 Z-18.97
X-3.196 Y33.371 Z-18.992
X-3.137 Y33.402 Z-19
X-1.393 Y34.33
G2 X2 Y35.168 I3.364 J-6.33
X2.265 Y35.16 J-4.238
G3 X2.529 Y35.151 I0.265 J4.229
X2.849 Y35.471 J0.319
G1 X2.804 Y138.005
G2 X3.654 Y141.399 I7.197
X3.83 Y141.504 I0.176 J-0.094
G1 X46.172 Y141.501
G2 X46.348 Y141.395 J-0.2
X47.197 Y138.005 I-6.348 J-3.39
G1 X47.152 Y35.475
G3 X47.471 Y35.156 I0.319
X47.736 Y35.164 J4.234
G2 X48 Y35.173 I0.264 J-4.226
X51.394 Y34.322 J-7.197
G1 X51.404 Y34.317
X51.463 Y34.285 Z-18.992
X51.519 Y34.255 Z-18.97
X51.569 Y34.229 Z-18.935
X51.611 Y34.206 Z-18.887
X51.642 Y34.189 Z-18.83
X51.662 Y34.179 Z-18.767
X51.669 Y34.175 Z-18.7
G0 Z5
X-3.401 Y29.387
G1 Z-18.7 F400
X-3.396 Y29.392 Z-18.767
X-3.38 Y29.408 Z-18.83
X-3.355 Y29.433 Z-18.887
X-3.321 Y29.467 Z-18.935
X-3.281 Y29.507 Z-18.97
X-3.236 Y29.552 Z-18.992
X-3.189 Y29.599 Z-19
X-1.394 Y31.394
G2 X2 Y32.8 I3.394 J-3.394
X3.412 Y32.777 J-44.287
G3 X4.823 Y32.755 I1.412 J44.264
X5.245 Y33.177 J0.422
G1 X5.2 Y138.005
G2 X6.606 Y141.399 I4.8
X6.747 Y141.457 I0.141 J-0.141
G1 X43.253 Y141.458
G2 X43.394 Y141.399 J-0.2
X44.8 Y138.005 I-3.394 J-3.394
G1 X44.755 Y33.182
G3 X45.177 Y32.759 I0.422
X46.589 Y32.782 J44.274
G2 X48 Y32.805 I1.411 J-44.252
X51.394 Y31.399 J-4.8
X51.296 Y28.248 I-1.529 J-1.529
G3 X50 Y25.375 I2.536 J-2.873
G1 Y5.006
G2 X45 Y0 I-5 J-0.006
G1 X5
G2 X0 Y5 J5
G1 Y28
G2 X2 Y30 I2
G1 X5
G3 X8 Y33 I0.001 J3
G1 Y107.005
Y138.005
G2 X10 Y140.005 I2
G1 X40
G2 X42 Y138.005 J-2
G1 Y33.005
G3 X45 Y30.004 I3
G1 X48
G2 X50 Y28.004 J-2
G1 Y25.375
G3 X50.003 Y25.277 Z-19.002 I1.425
G1 X51.652 Y1.429 Z-19.481
G2 X51.396 Y0.511 Z-19.5 I-1.422 J-0.098
X50.505 Y-0.541 I-6.31 J4.438
X49.471 Y-1.4 I-5.505 J5.577
X49.356 Y-1.435 I-0.114 J0.164
G1 X0.623 Y-1.431
G2 X0.508 Y-1.394 J0.2
X-0.543 Y-0.504 I4.438 J6.301
X-1.392 Y0.517 I5.582 J5.504
X-1.428 Y0.631 I0.164 J0.114
G1 X-1.517 Y36.704
G2 X-1.388 Y36.891 I0.2
X0.16 Y37.334 I3.407 J-8.989
G3 X0.487 Y37.731 I-0.078 J0.397
G1 X0.442 Y138.005
G2 X1.064 Y141.396 I9.558
X1.251 Y141.525 I0.187 J-0.071
G1 X48.749 Y141.528
G2 X48.936 Y141.399 J-0.2
X49.559 Y138.005 I-8.935 J-3.394
G1 X49.514 Y37.735
G3 X49.84 Y37.338 I0.405
G2 X51.392 Y36.894 I-1.859 J-9.431
G1 X51.402 Y36.89
X51.465 Y36.866 Z-19.492
X51.524 Y36.844 Z-19.47
X51.577 Y36.824 Z-19.435
X51.622 Y36.807 Z-19.387
X51.655 Y36.794 Z-19.33
X51.676 Y36.786 Z-19.267
X51.683 Y36.784 Z-19.2
G0 Z5
X-3.402 Y33.262
G1 Z-19.2 F400
X-3.395 Y33.265 Z-19.267
X-3.376 Y33.276 Z-19.33
X-3.344 Y33.292 Z-19.387
X-3.302 Y33.315 Z-19.435
X-3.252 Y33.341 Z-19.47
X-3.196 Y33.371 Z-19.492
X-3.137 Y33.402 Z-19.5
X-1.393 Y34.33
G2 X2 Y35.168 I3.364 J-6.33
X2.265 Y35.16 J-4.238
G3 X2.529 Y35.151 I0.265 J4.229
X2.849 Y35.471 J0.319
G1 X2.804 Y138.005
G2 X3.654 Y141.399 I7.197
X3.83 Y141.504 I0.176 J-0.094
G1 X46.172 Y141.501
G2 X46.348 Y141.395 J-0.2
X47.197 Y138.005 I-6.348 J-3.39
G1 X47.152 Y35.475
G3 X47.471 Y35.156 I0.319
X47.736 Y35.164 J4.234
G2 X48 Y35.173 I0.264 J-4.226
X51.394 Y34.322 J-7.197
G1 X51.404 Y34.317
X51.463 Y34.285 Z-19.492
X51.519 Y34.255 Z-19.47
X51.569 Y34.229 Z-19.435
X51.611 Y34.206 Z-19.387
X51.642 Y34.189 Z-19.33
X51.662 Y34.179 Z-19.267
X51.669 Y34.175 Z-19.2
G0 Z5
X-3.401 Y29.387
G1 Z-19.2 F400
X-3.396 Y29.392 Z-19.267
X-3.38 Y29.408 Z-19.33
X-3.355 Y29.433 Z-19.387
X-3.321 Y29.467 Z-19.435
X-3.281 Y29.507 Z-19.47
X-3.236 Y29.552 Z-19.492
X-3.189 Y29.599 Z-19.5
X-1.394 Y31.394
G2 X2 Y32.8 I3.394 J-3.394
X3.412 Y32.777 J-44.287
G3 X4.823 Y32.755 I1.412 J44.264
X5.245 Y33.177 J0.422
G1 X5.2 Y138.005
G2 X6.606 Y141.399 I4.8
X6.747 Y141.457 I0.141 J-0.141
G1 X43.253 Y141.458
G2 X43.394 Y141.399 J-0.2
X44.8 Y138.005 I-3.394 J-3.394
G1 X44.755 Y33.182
G3 X45.177 Y32.759 I0.422
X46.589 Y32.782 J44.274
G2 X48 Y32.805 I1.411 J-44.252
X51.394 Y31.399 J-4.8
X51.296 Y28.248 I-1.529 J-1.529
G3 X50 Y25.375 I2.536 J-2.873
G1 Y5.006
G2 X45 Y0 I-5 J-0.006
G1 X5
G2 X0 Y5 J5
G1 Y28
G2 X2 Y30 I2
G1 X5
G3 X8 Y33 I0.001 J3
G1 Y107.005
Y138.005
G2 X10 Y140.005 I2
G1 X40
G2 X42 Y138.005 J-2
G1 Y33.005
G3 X45 Y30.004 I3
G1 X48
G2 X50 Y28.004 J-2
G1 Y25.375
G3 X50.164 Y25.108 I0.3
G1 X51.5 Y24.427
X51.56 Y24.397 Z-19.492
X51.616 Y24.368 Z-19.47
X51.667 Y24.342 Z-19.435
X51.709 Y24.321 Z-19.387
X51.741 Y24.304 Z-19.33
X51.761 Y24.294 Z-19.267
X51.768 Y24.291 Z-19.2
G0 Z15

(2D Pocket3)
M8
X24.25 Y72.173
Z15
Z5
G1 Z2.8 F400
G19 G2 Y71.884 Z2.5 J-0.3
G1 Y36.648 Z1.27
G17 G3 X25.75 Z1.187 I0.75
G1 Y96.644 Z-0.908
G3 X25.002 Y97.398 Z-0.949 I-0.75 J0.004
X24.25 Y96.647 Z-0.99 I-0.002 J-0.75
G1 Y96.369 Z-1
Y36.648
G3 X25.75 I0.75
G1 Y96.644
G3 X25.002 Y97.398 I-0.75 J0.004
X24.25 Y96.647 I-0.002 J-0.75
G1 Y96.369
Y67.733 Z-2
Y36.648
G3 X25.75 I0.75
G1 Y96.644
G3 X25.002 Y97.398 I-0.75 J0.004
X24.25 Y96.647 I-0.002 J-0.75
G1 Y67.733
Y39.097 Z-3
Y36.648
G3 X25.75 I0.75
G1 Y96.644
G3 X25.002 Y97.398 I-0.75 J0.004
X24.25 Y96.647 I-0.002 J-0.75
G1 Y67.733
Y39.097
Y36.648 Z-3.086
G3 X25.75 Z-3.168 I0.75
G1 Y60.48 Z-4
Y96.644
G3 X25.002 Y97.398 I-0.75 J0.004
X24.25 Y96.647 I-0.002 J-0.75
G1 Y39.097
Y36.648
G3 X25.75 I0.75
G1 Y60.48
Y89.116 Z-5
Y96.644
G3 X25.002 Y97.398 I-0.75 J0.004
X24.25 Y96.647 I-0.002 J-0.75
G1 Y36.648
G3 X25.75 I0.75
G1 Y89.116
Y96.644 Z-5.263
G3 X25.002 Y97.398 Z-5.304 I-0.75 J0.004
X24.25 Y96.647 Z-5.345 I-0.002 J-0.75
G1 Y77.9 Z-6
Y36.648
G3 X25.75 I0.75
G1 Y89.116
Y96.644
G3 X25.002 Y97.398 I-0.75 J0.004
X24.25 Y96.647 I-0.002 J-0.75
G1 Y77.9
Y49.264 Z-7
Y36.648
G3 X25.75 I0.75
G1 Y96.644
G3 X25.002 Y97.398 I-0.75 J0.004
X24.25 Y96.647 I-0.002 J-0.75
G1 Y49.264
Y36.648 Z-7.441
G3 X25.75 Z-7.523 I0.75
G1 Y50.312 Z-8
Y96.644
G3 X25.002 Y97.398 I-0.75 J0.004
X24.25 Y96.647 I-0.002 J-0.75
G1 Y49.264
Y36.648
G3 X25.75 I0.75
G1 Y50.312
Y78.949 Z-9
Y96.644
G3 X25.002 Y97.398 I-0.75 J0.004
X24.25 Y96.647 I-0.002 J-0.75
G1 Y36.648
G3 X25.75 I0.75
G1 Y78.949
Y96.644 Z-9.618
G3 X25.002 Y97.398 Z-9.659 I-0.75 J0.004
X24.25 Y96.647 Z-9.7 I-0.002 J-0.75
G1 Y88.067 Z-10
Y36.648
G3 X25.75 I0.75
G1 Y78.949
Y96.644
G3 X25.002 Y97.398 I-0.75 J0.004
X24.25 Y96.647 I-0.002 J-0.75
G1 Y88.067
Y59.431 Z-11
Y36.648
G3 X25.75 I0.75
G1 Y96.644
G3 X25.002 Y97.398 I-0.75 J0.004
X24.25 Y96.647 I-0.002 J-0.75
G1 Y59.431
Y36.648 Z-11.796
G3 X25.75 Z-11.878 I0.75
G1 Y40.145 Z-12
Y96.644
G3 X25.002 Y97.398 I-0.75 J0.004
X24.25 Y96.647 I-0.002 J-0.75
G1 Y59.431
Y36.648
G3 X25.75 I0.75
G1 Y40.145
Y68.781 Z-13
Y96.644
G3 X25.002 Y97.398 I-0.75 J0.004
X24.25 Y96.647 I-0.002 J-0.75
G1 Y36.648
G3 X25.75 I0.75
G1 Y68.781
Y96.644 Z-13.973
G3 X25.389 Y97.29 Z-14 I-0.75 J0.004
X24.25 Y96.647 I-0.389 J-0.641
G1 Y36.648
G3 X25.75 I0.75
G1 Y68.781
Y96.644
G3 X25.389 Y97.29 I-0.75 J0.004
X24.25 Y96.647 Z-14.055 I-0.389 J-0.641
G1 Y69.598 Z-15
Y36.648
G3 X25.75 I0.75
G1 Y96.644
G3 X25.002 Y97.398 I-0.75 J0.004
X24.25 Y96.647 I-0.002 J-0.75
G1 Y69.598
Y40.962 Z-16
Y36.648
G3 X25.75 I0.75
G1 Y96.644
G3 X25.002 Y97.398 I-0.75 J0.004
X24.25 Y96.647 I-0.002 J-0.75
G1 Y40.962
Y36.648 Z-16.151
G3 X25.75 Z-16.233 I0.75
G1 Y58.614 Z-17
Y96.644
G3 X25.002 Y97.398 I-0.75 J0.004
X24.25 Y96.647 I-0.002 J-0.75
G1 Y40.962
Y36.648
G3 X25.75 I0.75
G1 Y58.614
Y87.25 Z-18
Y96.644
G3 X25.002 Y97.398 I-0.75 J0.004
X24.25 Y96.647 I-0.002 J-0.75
G1 Y36.648
G3 X25.75 I0.75
G1 Y87.25
Y96.644 Z-18.328
G3 X25.002 Y97.398 Z-18.369 I-0.75 J0.004
X24.25 Y96.647 Z-18.41 I-0.002 J-0.75
G1 Y79.766 Z-19
Y36.648
G3 X25.75 I0.75
G1 Y87.25
Y96.644
G3 X25.002 Y97.398 I-0.75 J0.004
X24.25 Y96.647 I-0.002 J-0.75
G1 Y79.766
Y65.448 Z-19.5
Y36.648
G3 X25.75 I0.75
G1 Y96.644
G3 X25.002 Y97.398 I-0.75 J0.004
X24.25 Y96.647 I-0.002 J-0.75
G1 Y79.766
Y65.448
G3 X24.272 Y65.336 Z-19.477 I0.3
X24.322 Y65.253 Z-19.412 I0.278 J0.112
X24.369 Y65.208 Z-19.315 I0.228 J0.195
X24.388 Y65.195 Z-19.2 I0.181 J0.239
G0 Z15
M9
G28 G91 Z0
G28 X0 Y0
M30
%
