%
(1)
(T2  D=2.778 CR=0 - ZMIN=-20 - flat end mill)
G90 G94
G17
G21
G28 G91 Z0
G90

(2D Contour2)
M9
T2 M6
S18905 M3
G54
M8
G0 X41.223 Y137.283
Z15
Z5
G1 Z1.75 F600
Z-0.472 F400
G18 G3 X40.945 Z-0.75 I-0.278
G1 X40.667 F600
G17 G3 X40.389 Y137.005 J-0.278
G1 Y32.005
G3 X44 Y28.394 I3.611
G1 X47
G2 X48.389 Y27.004 J-1.389
G1 Y4.005
G2 X44 Y-0.389 I-4.389 J-0.005
G1 X4
G2 X-0.389 Y4 J4.389
G1 Y27
G2 X1 Y28.389 I1.389
G1 X4
G3 X7.611 Y32 I0.001 J3.611
G1 Y137.005
G2 X9 Y138.394 I1.389
G1 X39
G2 X40.389 Y137.005 J-1.389
G3 X40.667 Y136.727 I0.278
G1 X40.945
G18 G2 X41.223 Z-0.472 K0.278
G1 Y137.283
Z-1.222 F400
G3 X40.945 Z-1.5 I-0.278
G1 X40.667 F600
G17 G3 X40.389 Y137.005 J-0.278
G1 Y32.005
G3 X44 Y28.394 I3.611
G1 X47
G2 X48.389 Y27.004 J-1.389
G1 Y4.005
G2 X44 Y-0.389 I-4.389 J-0.005
G1 X4
G2 X-0.389 Y4 J4.389
G1 Y27
G2 X1 Y28.389 I1.389
G1 X4
G3 X7.611 Y32 I0.001 J3.611
G1 Y137.005
G2 X9 Y138.394 I1.389
G1 X39
G2 X40.389 Y137.005 J-1.389
G3 X40.667 Y136.727 I0.278
G1 X40.945
G18 G2 X41.223 Z-1.222 K0.278
G1 Y137.283
Z-1.972 F400
G3 X40.945 Z-2.25 I-0.278
G1 X40.667 F600
G17 G3 X40.389 Y137.005 J-0.278
G1 Y32.005
G3 X44 Y28.394 I3.611
G1 X47
G2 X48.389 Y27.004 J-1.389
G1 Y4.005
G2 X44 Y-0.389 I-4.389 J-0.005
G1 X4
G2 X-0.389 Y4 J4.389
G1 Y27
G2 X1 Y28.389 I1.389
G1 X4
G3 X7.611 Y32 I0.001 J3.611
G1 Y137.005
G2 X9 Y138.394 I1.389
G1 X39
G2 X40.389 Y137.005 J-1.389
G3 X40.667 Y136.727 I0.278
G1 X40.945
G18 G2 X41.223 Z-1.972 K0.278
G1 Y137.283
Z-2.722 F400
G3 X40.945 Z-3 I-0.278
G1 X40.667 F600
G17 G3 X40.389 Y137.005 J-0.278
G1 Y32.005
G3 X44 Y28.394 I3.611
G1 X47
G2 X48.389 Y27.004 J-1.389
G1 Y4.005
G2 X44 Y-0.389 I-4.389 J-0.005
G1 X4
G2 X-0.389 Y4 J4.389
G1 Y27
G2 X1 Y28.389 I1.389
G1 X4
G3 X7.611 Y32 I0.001 J3.611
G1 Y137.005
G2 X9 Y138.394 I1.389
G1 X39
G2 X40.389 Y137.005 J-1.389
G3 X40.667 Y136.727 I0.278
G1 X40.945
G18 G2 X41.223 Z-2.722 K0.278
G1 Y137.283
Z-3.472 F400
G3 X40.945 Z-3.75 I-0.278
G1 X40.667 F600
G17 G3 X40.389 Y137.005 J-0.278
G1 Y32.005
G3 X44 Y28.394 I3.611
G1 X47
G2 X48.389 Y27.004 J-1.389
G1 Y4.005
G2 X44 Y-0.389 I-4.389 J-0.005
G1 X4
G2 X-0.389 Y4 J4.389
G1 Y27
G2 X1 Y28.389 I1.389
G1 X4
G3 X7.611 Y32 I0.001 J3.611
G1 Y137.005
G2 X9 Y138.394 I1.389
G1 X39
G2 X40.389 Y137.005 J-1.389
G3 X40.667 Y136.727 I0.278
G1 X40.945
G18 G2 X41.223 Z-3.472 K0.278
G1 Y137.283
Z-4.222 F400
G3 X40.945 Z-4.5 I-0.278
G1 X40.667 F600
G17 G3 X40.389 Y137.005 J-0.278
G1 Y32.005
G3 X44 Y28.394 I3.611
G1 X47
G2 X48.389 Y27.004 J-1.389
G1 Y4.005
G2 X44 Y-0.389 I-4.389 J-0.005
G1 X4
G2 X-0.389 Y4 J4.389
G1 Y27
G2 X1 Y28.389 I1.389
G1 X4
G3 X7.611 Y32 I0.001 J3.611
G1 Y137.005
G2 X9 Y138.394 I1.389
G1 X39
G2 X40.389 Y137.005 J-1.389
G3 X40.667 Y136.727 I0.278
G1 X40.945
G18 G2 X41.223 Z-4.222 K0.278
G1 Y137.283
Z-4.972 F400
G3 X40.945 Z-5.25 I-0.278
G1 X40.667 F600
G17 G3 X40.389 Y137.005 J-0.278
G1 Y32.005
G3 X44 Y28.394 I3.611
G1 X47
G2 X48.389 Y27.004 J-1.389
G1 Y4.005
G2 X44 Y-0.389 I-4.389 J-0.005
G1 X4
G2 X-0.389 Y4 J4.389
G1 Y27
G2 X1 Y28.389 I1.389
G1 X4
G3 X7.611 Y32 I0.001 J3.611
G1 Y137.005
G2 X9 Y138.394 I1.389
G1 X39
G2 X40.389 Y137.005 J-1.389
G3 X40.667 Y136.727 I0.278
G1 X40.945
G18 G2 X41.223 Z-4.972 K0.278
G1 Y137.283
Z-5.722 F400
G3 X40.945 Z-6 I-0.278
G1 X40.667 F600
G17 G3 X40.389 Y137.005 J-0.278
G1 Y32.005
G3 X44 Y28.394 I3.611
G1 X47
G2 X48.389 Y27.004 J-1.389
G1 Y4.005
G2 X44 Y-0.389 I-4.389 J-0.005
G1 X4
G2 X-0.389 Y4 J4.389
G1 Y27
G2 X1 Y28.389 I1.389
G1 X4
G3 X7.611 Y32 I0.001 J3.611
G1 Y137.005
G2 X9 Y138.394 I1.389
G1 X39
G2 X40.389 Y137.005 J-1.389
G3 X40.667 Y136.727 I0.278
G1 X40.945
G18 G2 X41.223 Z-5.722 K0.278
G1 Y137.283
Z-6.472 F400
G3 X40.945 Z-6.75 I-0.278
G1 X40.667 F600
G17 G3 X40.389 Y137.005 J-0.278
G1 Y32.005
G3 X44 Y28.394 I3.611
G1 X47
G2 X48.389 Y27.004 J-1.389
G1 Y4.005
G2 X44 Y-0.389 I-4.389 J-0.005
G1 X4
G2 X-0.389 Y4 J4.389
G1 Y27
G2 X1 Y28.389 I1.389
G1 X4
G3 X7.611 Y32 I0.001 J3.611
G1 Y137.005
G2 X9 Y138.394 I1.389
G1 X39
G2 X40.389 Y137.005 J-1.389
G3 X40.667 Y136.727 I0.278
G1 X40.945
G18 G2 X41.223 Z-6.472 K0.278
G1 Y137.283
Z-7.222 F400
G3 X40.945 Z-7.5 I-0.278
G1 X40.667 F600
G17 G3 X40.389 Y137.005 J-0.278
G1 Y32.005
G3 X44 Y28.394 I3.611
G1 X47
G2 X48.389 Y27.004 J-1.389
G1 Y4.005
G2 X44 Y-0.389 I-4.389 J-0.005
G1 X4
G2 X-0.389 Y4 J4.389
G1 Y27
G2 X1 Y28.389 I1.389
G1 X4
G3 X7.611 Y32 I0.001 J3.611
G1 Y137.005
G2 X9 Y138.394 I1.389
G1 X39
G2 X40.389 Y137.005 J-1.389
G3 X40.667 Y136.727 I0.278
G1 X40.945
G18 G2 X41.223 Z-7.222 K0.278
G1 Y137.283
Z-7.972 F400
G3 X40.945 Z-8.25 I-0.278
G1 X40.667 F600
G17 G3 X40.389 Y137.005 J-0.278
G1 Y32.005
G3 X44 Y28.394 I3.611
G1 X47
G2 X48.389 Y27.004 J-1.389
G1 Y4.005
G2 X44 Y-0.389 I-4.389 J-0.005
G1 X4
G2 X-0.389 Y4 J4.389
G1 Y27
G2 X1 Y28.389 I1.389
G1 X4
G3 X7.611 Y32 I0.001 J3.611
G1 Y137.005
G2 X9 Y138.394 I1.389
G1 X39
G2 X40.389 Y137.005 J-1.389
G3 X40.667 Y136.727 I0.278
G1 X40.945
G18 G2 X41.223 Z-7.972 K0.278
G1 Y137.283
Z-8.722 F400
G3 X40.945 Z-9 I-0.278
G1 X40.667 F600
G17 G3 X40.389 Y137.005 J-0.278
G1 Y32.005
G3 X44 Y28.394 I3.611
G1 X47
G2 X48.389 Y27.004 J-1.389
G1 Y4.005
G2 X44 Y-0.389 I-4.389 J-0.005
G1 X4
G2 X-0.389 Y4 J4.389
G1 Y27
G2 X1 Y28.389 I1.389
G1 X4
G3 X7.611 Y32 I0.001 J3.611
G1 Y137.005
G2 X9 Y138.394 I1.389
G1 X39
G2 X40.389 Y137.005 J-1.389
G3 X40.667 Y136.727 I0.278
G1 X40.945
G18 G2 X41.223 Z-8.722 K0.278
G1 Y137.283
Z-9.472 F400
G3 X40.945 Z-9.75 I-0.278
G1 X40.667 F600
G17 G3 X40.389 Y137.005 J-0.278
G1 Y32.005
G3 X44 Y28.394 I3.611
G1 X47
G2 X48.389 Y27.004 J-1.389
G1 Y4.005
G2 X44 Y-0.389 I-4.389 J-0.005
G1 X4
G2 X-0.389 Y4 J4.389
G1 Y27
G2 X1 Y28.389 I1.389
G1 X4
G3 X7.611 Y32 I0.001 J3.611
G1 Y137.005
G2 X9 Y138.394 I1.389
G1 X39
G2 X40.389 Y137.005 J-1.389
G3 X40.667 Y136.727 I0.278
G1 X40.945
G18 G2 X41.223 Z-9.472 K0.278
G1 Y137.283
Z-10.222 F400
G3 X40.945 Z-10.5 I-0.278
G1 X40.667 F600
G17 G3 X40.389 Y137.005 J-0.278
G1 Y32.005
G3 X44 Y28.394 I3.611
G1 X47
G2 X48.389 Y27.004 J-1.389
G1 Y4.005
G2 X44 Y-0.389 I-4.389 J-0.005
G1 X4
G2 X-0.389 Y4 J4.389
G1 Y27
G2 X1 Y28.389 I1.389
G1 X4
G3 X7.611 Y32 I0.001 J3.611
G1 Y137.005
G2 X9 Y138.394 I1.389
G1 X39
G2 X40.389 Y137.005 J-1.389
G3 X40.667 Y136.727 I0.278
G1 X40.945
G18 G2 X41.223 Z-10.222 K0.278
G1 Y137.283
Z-10.972 F400
G3 X40.945 Z-11.25 I-0.278
G1 X40.667 F600
G17 G3 X40.389 Y137.005 J-0.278
G1 Y32.005
G3 X44 Y28.394 I3.611
G1 X47
G2 X48.389 Y27.004 J-1.389
G1 Y4.005
G2 X44 Y-0.389 I-4.389 J-0.005
G1 X4
G2 X-0.389 Y4 J4.389
G1 Y27
G2 X1 Y28.389 I1.389
G1 X4
G3 X7.611 Y32 I0.001 J3.611
G1 Y137.005
G2 X9 Y138.394 I1.389
G1 X39
G2 X40.389 Y137.005 J-1.389
G3 X40.667 Y136.727 I0.278
G1 X40.945
G18 G2 X41.223 Z-10.972 K0.278
G1 Y137.283
Z-11.722 F400
G3 X40.945 Z-12 I-0.278
G1 X40.667 F600
G17 G3 X40.389 Y137.005 J-0.278
G1 Y32.005
G3 X44 Y28.394 I3.611
G1 X47
G2 X48.389 Y27.004 J-1.389
G1 Y4.005
G2 X44 Y-0.389 I-4.389 J-0.005
G1 X4
G2 X-0.389 Y4 J4.389
G1 Y27
G2 X1 Y28.389 I1.389
G1 X4
G3 X7.611 Y32 I0.001 J3.611
G1 Y137.005
G2 X9 Y138.394 I1.389
G1 X39
G2 X40.389 Y137.005 J-1.389
G3 X40.667 Y136.727 I0.278
G1 X40.945
G18 G2 X41.223 Z-11.722 K0.278
G1 Y137.283
Z-12.472 F400
G3 X40.945 Z-12.75 I-0.278
G1 X40.667 F600
G17 G3 X40.389 Y137.005 J-0.278
G1 Y32.005
G3 X44 Y28.394 I3.611
G1 X47
G2 X48.389 Y27.004 J-1.389
G1 Y4.005
G2 X44 Y-0.389 I-4.389 J-0.005
G1 X4
G2 X-0.389 Y4 J4.389
G1 Y27
G2 X1 Y28.389 I1.389
G1 X4
G3 X7.611 Y32 I0.001 J3.611
G1 Y137.005
G2 X9 Y138.394 I1.389
G1 X39
G2 X40.389 Y137.005 J-1.389
G3 X40.667 Y136.727 I0.278
G1 X40.945
G18 G2 X41.223 Z-12.472 K0.278
G1 Y137.283
Z-13.222 F400
G3 X40.945 Z-13.5 I-0.278
G1 X40.667 F600
G17 G3 X40.389 Y137.005 J-0.278
G1 Y32.005
G3 X44 Y28.394 I3.611
G1 X47
G2 X48.389 Y27.004 J-1.389
G1 Y4.005
G2 X44 Y-0.389 I-4.389 J-0.005
G1 X4
G2 X-0.389 Y4 J4.389
G1 Y27
G2 X1 Y28.389 I1.389
G1 X4
G3 X7.611 Y32 I0.001 J3.611
G1 Y137.005
G2 X9 Y138.394 I1.389
G1 X39
G2 X40.389 Y137.005 J-1.389
G3 X40.667 Y136.727 I0.278
G1 X40.945
G18 G2 X41.223 Z-13.222 K0.278
G1 Y137.283
Z-13.972 F400
G3 X40.945 Z-14.25 I-0.278
G1 X40.667 F600
G17 G3 X40.389 Y137.005 J-0.278
G1 Y32.005
G3 X44 Y28.394 I3.611
G1 X47
G2 X48.389 Y27.004 J-1.389
G1 Y4.005
G2 X44 Y-0.389 I-4.389 J-0.005
G1 X4
G2 X-0.389 Y4 J4.389
G1 Y27
G2 X1 Y28.389 I1.389
G1 X4
G3 X7.611 Y32 I0.001 J3.611
G1 Y137.005
G2 X9 Y138.394 I1.389
G1 X39
G2 X40.389 Y137.005 J-1.389
G3 X40.667 Y136.727 I0.278
G1 X40.945
G18 G2 X41.223 Z-13.972 K0.278
G1 Y137.283
Z-14.722 F400
G3 X40.945 Z-15 I-0.278
G1 X40.667 F600
G17 G3 X40.389 Y137.005 J-0.278
G1 Y32.005
G3 X44 Y28.394 I3.611
G1 X47
G2 X48.389 Y27.004 J-1.389
G1 Y4.005
G2 X44 Y-0.389 I-4.389 J-0.005
G1 X4
G2 X-0.389 Y4 J4.389
G1 Y27
G2 X1 Y28.389 I1.389
G1 X4
G3 X7.611 Y32 I0.001 J3.611
G1 Y137.005
G2 X9 Y138.394 I1.389
G1 X39
G2 X40.389 Y137.005 J-1.389
G3 X40.667 Y136.727 I0.278
G1 X40.945
G18 G2 X41.223 Z-14.722 K0.278
G1 Y137.283
Z-15.472 F400
G3 X40.945 Z-15.75 I-0.278
G1 X40.667 F600
G17 G3 X40.389 Y137.005 J-0.278
G1 Y32.005
G3 X44 Y28.394 I3.611
G1 X47
G2 X48.389 Y27.004 J-1.389
G1 Y4.005
G2 X44 Y-0.389 I-4.389 J-0.005
G1 X4
G2 X-0.389 Y4 J4.389
G1 Y27
G2 X1 Y28.389 I1.389
G1 X4
G3 X7.611 Y32 I0.001 J3.611
G1 Y137.005
G2 X9 Y138.394 I1.389
G1 X39
G2 X40.389 Y137.005 J-1.389
G3 X40.667 Y136.727 I0.278
G1 X40.945
G18 G2 X41.223 Z-15.472 K0.278
G1 Y137.283
Z-16.222 F400
G3 X40.945 Z-16.5 I-0.278
G1 X40.667 F600
G17 G3 X40.389 Y137.005 J-0.278
G1 Y32.005
G3 X44 Y28.394 I3.611
G1 X47
G2 X48.389 Y27.004 J-1.389
G1 Y4.005
G2 X44 Y-0.389 I-4.389 J-0.005
G1 X4
G2 X-0.389 Y4 J4.389
G1 Y27
G2 X1 Y28.389 I1.389
G1 X4
G3 X7.611 Y32 I0.001 J3.611
G1 Y137.005
G2 X9 Y138.394 I1.389
G1 X39
G2 X40.389 Y137.005 J-1.389
G3 X40.667 Y136.727 I0.278
G1 X40.945
G18 G2 X41.223 Z-16.222 K0.278
G1 Y137.283
Z-16.972 F400
G3 X40.945 Z-17.25 I-0.278
G1 X40.667 F600
G17 G3 X40.389 Y137.005 J-0.278
G1 Y32.005
G3 X44 Y28.394 I3.611
G1 X47
G2 X48.389 Y27.004 J-1.389
G1 Y4.005
G2 X44 Y-0.389 I-4.389 J-0.005
G1 X4
G2 X-0.389 Y4 J4.389
G1 Y27
G2 X1 Y28.389 I1.389
G1 X4
G3 X7.611 Y32 I0.001 J3.611
G1 Y137.005
G2 X9 Y138.394 I1.389
G1 X39
G2 X40.389 Y137.005 J-1.389
G3 X40.667 Y136.727 I0.278
G1 X40.945
G18 G2 X41.223 Z-16.972 K0.278
G1 Y137.283
Z-17.722 F400
G3 X40.945 Z-18 I-0.278
G1 X40.667 F600
G17 G3 X40.389 Y137.005 J-0.278
G1 Y32.005
G3 X44 Y28.394 I3.611
G1 X47
G2 X48.389 Y27.004 J-1.389
G1 Y4.005
G2 X44 Y-0.389 I-4.389 J-0.005
G1 X4
G2 X-0.389 Y4 J4.389
G1 Y27
G2 X1 Y28.389 I1.389
G1 X4
G3 X7.611 Y32 I0.001 J3.611
G1 Y137.005
G2 X9 Y138.394 I1.389
G1 X39
G2 X40.389 Y137.005 J-1.389
G3 X40.667 Y136.727 I0.278
G1 X40.945
G18 G2 X41.223 Z-17.722 K0.278
G1 Y137.283
Z-18.472 F400
G3 X40.945 Z-18.75 I-0.278
G1 X40.667 F600
G17 G3 X40.389 Y137.005 J-0.278
G1 Y32.005
G3 X44 Y28.394 I3.611
G1 X47
G2 X48.389 Y27.004 J-1.389
G1 Y4.005
G2 X44 Y-0.389 I-4.389 J-0.005
G1 X4
G2 X-0.389 Y4 J4.389
G1 Y27
G2 X1 Y28.389 I1.389
G1 X4
G3 X7.611 Y32 I0.001 J3.611
G1 Y137.005
G2 X9 Y138.394 I1.389
G1 X39
G2 X40.389 Y137.005 J-1.389
G3 X40.667 Y136.727 I0.278
G1 X40.945
G18 G2 X41.223 Z-18.472 K0.278
G1 Y137.283
Z-19.222 F400
G3 X40.945 Z-19.5 I-0.278
G1 X40.667 F600
G17 G3 X40.389 Y137.005 J-0.278
G1 Y32.005
G3 X44 Y28.394 I3.611
G1 X47
G2 X48.389 Y27.004 J-1.389
G1 Y4.005
G2 X44 Y-0.389 I-4.389 J-0.005
G1 X4
G2 X-0.389 Y4 J4.389
G1 Y27
G2 X1 Y28.389 I1.389
G1 X4
G3 X7.611 Y32 I0.001 J3.611
G1 Y137.005
G2 X9 Y138.394 I1.389
G1 X39
G2 X40.389 Y137.005 J-1.389
G3 X40.667 Y136.727 I0.278
G1 X40.945
G18 G2 X41.223 Z-19.222 K0.278
G1 Y137.283
Z-19.722 F400
G3 X40.945 Z-20 I-0.278
G1 X40.667 F600
G17 G3 X40.389 Y137.005 J-0.278
G1 Y32.005
G3 X44 Y28.394 I3.611
G1 X47
G2 X48.389 Y27.004 J-1.389
G1 Y4.005
G2 X44 Y-0.389 I-4.389 J-0.005
G1 X4
G2 X-0.389 Y4 J4.389
G1 Y27
G2 X1 Y28.389 I1.389
G1 X4
G3 X7.611 Y32 I0.001 J3.611
G1 Y137.005
G2 X9 Y138.394 I1.389
G1 X39
G2 X40.389 Y137.005 J-1.389
G3 X40.667 Y136.727 I0.278
G1 X40.945
G18 G2 X41.223 Z-19.722 K0.278
G0 Z15
G17
M9
G28 G91 Z0
G28 X0 Y0
M30
%
