%
(1)
(T3  D=3.175 CR=0 - ZMIN=-21 - flat end mill)
G90 G94
G17
G21
G28 G91 Z0
G90

G0 Z5
X22.938 Y121.619
Z0.842
G3 X22.948 Y121.608 Z0.746 I1.099 J1.033 F600
X22.979 Y121.577 Z0.659 I1.089 J1.044
X23.028 Y121.531 Z0.589 I1.058 J1.074
X23.093 Y121.476 Z0.543 I1.009 J1.121
X23.169 Y121.418 Z0.525 I0.944 J1.176
X24.905 Y123.885 Z0.36 I0.868 J1.233
X23.169 Y121.418 Z0.194 I-0.868 J-1.233
X24.905 Y123.885 Z0.029 I0.868 J1.233
X23.169 Y121.418 Z-0.137 I-0.868 J-1.233
X24.905 Y123.885 Z-0.302 I0.868 J1.233
X23.169 Y121.418 Z-0.468 I-0.868 J-1.233
X24.037 Y121.144 Z-0.5 I0.868 J1.233
G1 X24.228
G3 X24.938 Y121.853 J0.71
G1 Y122.235
G3 X24.228 Y122.945 I-0.71
G1 X23.997
G3 Y121.144 J-0.901
G1 X24.037
G2 X25.557 Y120.229 J-1.72
G3 X27.278 Y120.657 I0.808 J0.428
G1 Y124.323
G3 X26.315 Y125.286 I-0.963
G1 X21.683 Y125.285
G3 X20.72 Y124.322 J-0.963
G1 Y119.766
G3 X21.684 Y118.803 I0.963
G1 X26.315
G3 X27.278 Y119.766 J0.963
G1 Y120.657
G2 X28.448 Y122.412 I1.902
G3 X29.619 Y124.167 I-0.731 J1.755
G1 Y126.663
G3 X28.656 Y127.626 I-0.963
G1 X19.342
G3 X18.379 Y126.662 J-0.963
G1 X18.38 Y117.426
G3 X19.343 Y116.462 I0.963
G1 X28.655
G3 X29.619 Y117.426 J0.963
G1 Y124.167
G2 X30.789 Y125.923 I1.902
G3 X31.959 Y127.678 I-0.731 J1.755
G1 Y129.004
G3 X30.996 Y129.967 I-0.963
G1 X17.001 Y129.966
G3 X16.038 Y129.003 J-0.963
G1 X16.04 Y115.085
G3 X17.003 Y114.122 I0.963
G1 X30.996
G3 X31.959 Y115.085 J0.963
G1 Y127.678
G2 X33.13 Y129.434 I1.902
G3 X34.3 Y131.189 I-0.731 J1.755
G1 Y131.345
G3 X33.337 Y132.308 I-0.963
G1 X14.66 Y132.306
G3 X13.697 Y131.343 J-0.963
G1 X13.699 Y112.745
G3 X14.663 Y111.781 I0.963
G1 X33.337
G3 X34.3 Y112.745 J0.963
G1 Y131.189
G2 X35.369 Y132.773 I1.707
G3 X35.006 Y134.649 I-0.364 J0.903
G1 X12.319 Y134.647
G3 X11.356 Y133.683 J-0.963
G1 X11.359 Y110.404
G3 X12.322 Y109.441 I0.963
G1 X35.677
G3 X36.641 Y110.404 J0.963
G1 Y133.686
G3 X35.677 Y134.649 I-0.963
G1 X35.006
G2 X33.239 Y135.827 J1.914
G3 X31.472 Y137.004 I-1.767 J-0.736
G1 X9.009 Y137.002
X9.004 Y137.001
X9 Y136.96
X9.004 Y107.082
X9.065 Y107.084
G2 X9.1 Y107.085 I0.034 J-0.793
G1 X38.9
G2 X38.934 Y107.084 J-0.794
G1 X38.996 Y107.082
Y137.001
X38.964 Y137.005
X31.472 Y137.004
G3 X31.375 Y136.989 Z-0.484 J-0.318
X31.296 Y136.951 Z-0.439 I0.097 J-0.302
X31.242 Y136.906 Z-0.369 I0.176 J-0.264
X31.213 Y136.871 Z-0.281 I0.23 J-0.219
X31.205 Y136.858 Z-0.183 I0.258 J-0.184
G0 Z5
X25.569 Y122.47
Z0.342
G3 X25.559 Y122.481 Z0.246 I-1.099 J-1.033 F600
X25.528 Y122.511 Z0.159 I-1.089 J-1.044
X25.479 Y122.558 Z0.089 I-1.058 J-1.075
X25.414 Y122.613 Z0.043 I-1.009 J-1.121
X25.338 Y122.67 Z0.025 I-0.944 J-1.176
X23.602 Y120.203 Z-0.14 I-0.868 J-1.234
X25.338 Y122.67 Z-0.306 I0.868 J1.234
X23.602 Y120.203 Z-0.471 I-0.868 J-1.234
X25.338 Y122.67 Z-0.637 I0.868 J1.234
X23.602 Y120.203 Z-0.802 I-0.868 J-1.234
X25.338 Y122.67 Z-0.968 I0.868 J1.234
X24.47 Y122.945 Z-1 I-0.868 J-1.234
G1 X23.773
G3 Y122.01 J-0.468
G1 X24.545
G3 X24.938 Y122.402 J0.393
G1 Y122.552
G3 X24.545 Y122.945 I-0.393
G1 X24.47
G2 X22.68 Y123.927 J2.122
G3 X20.72 Y123.355 I-0.897 J-0.571
G1 Y120.632
G3 X21.684 Y119.669 I0.963
G1 X26.315
G3 X27.278 Y120.632 J0.963
G1 Y124.323
G3 X26.315 Y125.286 I-0.963
G1 X21.683 Y125.285
G3 X20.72 Y124.322 J-0.963
G1 Y123.355
G2 X19.55 Y121.6 I-1.902
G3 X18.38 Y119.844 I0.732 J-1.755
G1 Y118.292
G3 X19.343 Y117.329 I0.963
G1 X28.655
G3 X29.619 Y118.292 J0.963
G1 Y126.663
G3 X28.656 Y127.626 I-0.963
G1 X19.342
G3 X18.379 Y126.662 J-0.963
G1 X18.38 Y119.844
G2 X17.21 Y118.089 I-1.902
G3 X16.04 Y116.333 I0.732 J-1.755
G1 Y115.951
G3 X17.003 Y114.988 I0.963
G1 X30.996
G3 X31.959 Y115.951 J0.963
G1 Y129.004
G3 X30.996 Y129.967 I-0.963
G1 X17.001 Y129.966
G3 X16.038 Y129.003 J-0.963
G1 X16.04 Y116.333
G2 X15.103 Y114.562 I-2.143
G3 X15.694 Y112.647 I0.59 J-0.866
G1 X33.337
G3 X34.3 Y113.611 J0.963
G1 Y131.345
G3 X33.337 Y132.308 I-0.963
G1 X14.66 Y132.306
G3 X13.697 Y131.343 J-0.963
G1 X13.699 Y113.611
G3 X14.663 Y112.647 I0.963
G1 X15.694
G2 X17.449 Y111.477 J-1.902
G3 X19.205 Y110.307 I1.755 J0.731
G1 X35.677
G3 X36.641 Y111.27 J0.963
G1 Y133.686
G3 X35.677 Y134.649 I-0.963
G1 X12.319 Y134.647
G3 X11.356 Y133.683 J-0.963
G1 X11.359 Y111.27
G3 X12.322 Y110.307 I0.963
G1 X19.205
G2 X20.971 Y109.129 J-1.914
G3 X22.738 Y107.951 I1.767 J0.736
G1 X38.9
G2 X38.934 Y107.95 J-0.794
G1 X38.996 Y107.948
Y137.001
X38.964 Y137.005
X9.009 Y137.002
X9.004 Y137.001
X9 Y136.96
X9.004 Y107.948
X9.065 Y107.95
G2 X9.1 Y107.951 I0.034 J-0.793
G1 X22.738
G3 X22.895 Y108.088 J0.159
G1 X24.631 Y120.535
G2 X24.799 Y120.671 I0.157 J-0.022
G3 X25.007 Y123.68 Z-1.165 I0.104 J1.505
X24.799 Y120.671 Z-1.331 I-0.104 J-1.505
X26.41 Y122.124 Z-1.415 I0.104 J1.505
X24.903 Y123.684 Z-1.5 I-1.507 J0.052
G1 X23.201
G3 Y122.137 J-0.774
G1 X24.967
G3 X25.677 Y122.846 J0.71
G1 Y122.974
G3 X24.967 Y123.684 I-0.71
G1 X24.903
G2 X23.702 Y124.485 J1.301
G3 X22.501 Y125.285 I-1.201 J-0.501
G1 X21.683
G3 X20.72 Y124.322 J-0.963
G1 Y121.498
G3 X21.684 Y120.535 I0.963
G1 X26.315
G3 X27.278 Y121.498 J0.963
G1 Y124.323
G3 X26.315 Y125.286 I-0.963
G1 X22.501 Y125.285
G2 X20.602 Y126.53 J2.07
G3 X18.379 Y126.067 I-1.063 J-0.463
G1 X18.38 Y119.158
G3 X19.343 Y118.195 I0.963
G1 X28.655
G3 X29.619 Y119.158 J0.963
G1 Y126.663
G3 X28.656 Y127.626 I-0.963
G1 X19.342
G3 X18.379 Y126.662 J-0.963
G1 Y126.067
G2 X17.209 Y124.312 I-1.902
G3 X16.039 Y122.556 I0.732 J-1.755
G1 X16.04 Y116.817
G3 X17.003 Y115.854 I0.963
G1 X30.996
G3 X31.959 Y116.817 J0.963
G1 Y129.004
G3 X30.996 Y129.967 I-0.963
G1 X17.001 Y129.966
G3 X16.038 Y129.003 J-0.963
G1 X16.039 Y122.556
G2 X14.869 Y120.8 I-1.902
G3 X13.699 Y119.045 I0.732 J-1.755
G1 Y114.477
G3 X14.663 Y113.513 I0.963
G1 X33.337
G3 X34.3 Y114.477 J0.963
G1 Y131.345
G3 X33.337 Y132.308 I-0.963
G1 X14.66 Y132.306
G3 X13.697 Y131.343 J-0.963
G1 X13.699 Y119.045
G2 X12.529 Y117.289 I-1.902
G3 X11.358 Y115.534 I0.732 J-1.755
G1 X11.359 Y112.136
G3 X12.322 Y111.173 I0.963
G1 X35.677
G3 X36.641 Y112.136 J0.963
G1 Y133.686
G3 X35.677 Y134.649 I-0.963
G1 X12.319 Y134.647
G3 X11.356 Y133.683 J-0.963
G1 X11.358 Y115.534
G2 X10.181 Y113.767 I-1.914
G3 X9.003 Y112 I0.736 J-1.767
G1 X9.004 Y108.814
X9.065 Y108.816
G2 X9.1 Y108.817 I0.034 J-0.793
G1 X38.9
G2 X38.934 Y108.816 J-0.794
G1 X38.996 Y108.814
Y137.001
X38.964 Y137.005
X9.009 Y137.002
X9.004 Y137.001
X9 Y136.96
X9.003 Y112
G3 X9.018 Y111.903 Z-1.484 I0.318
X9.057 Y111.824 Z-1.439 I0.302 J0.097
X9.102 Y111.77 Z-1.369 I0.264 J0.176
X9.136 Y111.741 Z-1.281 I0.219 J0.23
X9.149 Y111.733 Z-1.183 I0.184 J0.258
G0 Z5
X24.237 Y123.188
Z-0.658
G3 X24.247 Y123.177 Z-0.754 I1.099 J1.033 F600
X24.278 Y123.146 Z-0.841 I1.089 J1.044
X24.327 Y123.1 Z-0.911 I1.058 J1.074
X24.392 Y123.045 Z-0.957 I1.009 J1.121
X24.468 Y122.987 Z-0.975 I0.944 J1.176
X26.204 Y125.454 Z-1.14 I0.868 J1.233
X24.468 Y122.987 Z-1.306 I-0.868 J-1.233
X26.204 Y125.454 Z-1.471 I0.868 J1.233
X24.468 Y122.987 Z-1.637 I-0.868 J-1.233
X26.204 Y125.454 Z-1.802 I0.868 J1.233
X24.468 Y122.987 Z-1.968 I-0.868 J-1.233
X25.336 Y122.713 Z-2 I0.868 J1.233
G1 X25.438
G3 X25.967 Y123.241 J0.528
G1 Y123.446
G3 X25.438 Y123.974 I-0.528
G1 X22.839
G3 Y122.713 J-0.631
G1 X25.336
G2 X26.126 Y122.052 J-0.803
G3 X27.139 Y121.865 I0.542 J0.098
X27.278 Y122.364 I-0.824 J0.499
G1 Y124.323
G3 X26.315 Y125.286 I-0.963
G1 X21.683 Y125.285
G3 X20.72 Y124.322 J-0.963
G1 Y122.364
G3 X21.684 Y121.401 I0.963
G1 X26.315
G3 X27.139 Y121.865 J0.963
G2 X28.574 Y123.119 I2.688 J-1.63
G3 X29.619 Y124.712 I-0.693 J1.593
G1 Y126.663
G3 X28.656 Y127.626 I-0.963
G1 X19.342
G3 X18.379 Y126.662 J-0.963
G1 X18.38 Y120.024
G3 X19.343 Y119.061 I0.963
G1 X28.655
G3 X29.619 Y120.024 J0.963
G1 Y124.712
G2 X30.789 Y126.467 I1.902
G3 X31.959 Y128.223 I-0.731 J1.755
G1 Y129.004
G3 X30.996 Y129.967 I-0.963
G1 X17.001 Y129.966
G3 X16.038 Y129.003 J-0.963
G1 X16.039 Y117.683
G3 X17.003 Y116.72 I0.963
G1 X30.996
G3 X31.959 Y117.683 J0.963
G1 Y128.223
G2 X33.178 Y130.111 I2.072
G3 X32.705 Y132.308 I-0.473 J1.048
G1 X14.66 Y132.306
G3 X13.697 Y131.343 J-0.963
G1 X13.699 Y115.343
G3 X14.663 Y114.379 I0.963
G1 X33.337
G3 X34.3 Y115.343 J0.963
G1 Y131.345
G3 X33.337 Y132.308 I-0.963
G1 X32.705
G2 X30.95 Y133.478 J1.902
G3 X29.194 Y134.648 I-1.755 J-0.732
G1 X12.319 Y134.647
G3 X11.356 Y133.683 J-0.963
G1 X11.359 Y113.002
G3 X12.322 Y112.039 I0.963
G1 X35.677
G3 X36.641 Y113.002 J0.963
G1 Y133.686
G3 X35.677 Y134.649 I-0.963
G1 X29.194 Y134.648
G2 X27.427 Y135.826 J1.914
G3 X25.661 Y137.004 I-1.767 J-0.736
G1 X9.009 Y137.002
X9.004 Y137.001
X9 Y136.96
X9.004 Y109.68
X9.065 Y109.682
G2 X9.1 Y109.683 I0.034 J-0.793
G1 X38.9
G2 X38.934 Y109.682 J-0.794
G1 X38.996 Y109.68
Y137.001
X38.964 Y137.005
X25.661 Y137.004
G3 X25.502 Y136.845 J-0.159
G1 X25.517 Y122.431
G3 X25.665 Y122.273 I0.159
X25.873 Y125.282 Z-2.165 I0.104 J1.505
X25.665 Y122.273 Z-2.331 I-0.104 J-1.505
X27.276 Y123.725 Z-2.415 I0.104 J1.505
X25.769 Y125.286 Z-2.5 I-1.507 J0.052
G1 X21.683 Y125.285
G3 X20.72 Y124.322 J-0.963
G1 Y123.23
G3 X21.683 Y122.267 I0.963
G1 X26.315
G3 X27.278 Y123.23 J0.963
G1 Y124.323
G3 X26.315 Y125.286 I-0.963
G1 X25.769
G2 X24.013 Y126.456 J1.902
G3 X22.258 Y127.626 I-1.755 J-0.732
G1 X19.342
G3 X18.379 Y126.662 J-0.963
G1 X18.38 Y120.89
G3 X19.343 Y119.927 I0.963
G1 X28.655
G3 X29.619 Y120.89 J0.963
G1 Y126.663
G3 X28.656 Y127.626 I-0.963
G1 X22.258
G2 X20.502 Y128.796 J1.902
G3 X18.747 Y129.966 I-1.755 J-0.732
G1 X17.001
G3 X16.038 Y129.003 J-0.963
G1 X16.039 Y118.549
G3 X17.003 Y117.586 I0.963
G1 X30.996
G3 X31.959 Y118.549 J0.963
G1 Y129.004
G3 X30.996 Y129.967 I-0.963
G1 X18.747 Y129.966
G2 X16.991 Y131.136 J1.902
G3 X15.235 Y132.306 I-1.755 J-0.732
G1 X14.66
G3 X13.697 Y131.343 J-0.963
G1 X13.699 Y116.209
G3 X14.663 Y115.245 I0.963
G1 X33.337
G3 X34.3 Y116.209 J0.963
G1 Y131.345
G3 X33.337 Y132.308 I-0.963
G1 X15.235 Y132.306
G2 X13.408 Y133.38 J2.093
G3 X11.356 Y132.846 I-0.956 J-0.534
G1 X11.359 Y113.868
G3 X12.322 Y112.905 I0.963
G1 X35.677
G3 X36.641 Y113.868 J0.963
G1 Y133.686
G3 X35.677 Y134.649 I-0.963
G1 X12.319 Y134.647
G3 X11.356 Y133.683 J-0.963
G1 Y132.846
G2 X10.179 Y131.079 I-1.914
G3 X9.001 Y129.312 I0.736 J-1.767
G1 X9.004 Y110.546
X9.065 Y110.548
G2 X9.1 Y110.549 I0.034 J-0.793
G1 X38.9
G2 X38.934 Y110.548 J-0.794
G1 X38.996 Y110.546
Y137.001
X38.964 Y137.005
X9.009 Y137.002
X9.004 Y137.001
X9 Y136.96
X9.001 Y129.312
G3 X9.016 Y129.215 Z-2.484 I0.318
X9.054 Y129.136 Z-2.439 I0.302 J0.097
X9.1 Y129.082 Z-2.369 I0.264 J0.176
X9.134 Y129.054 Z-2.281 I0.219 J0.23
X9.147 Y129.045 Z-2.183 I0.184 J0.258
G0 Z5
X27.301 Y124.811
Z-1.658
G3 X27.29 Y124.821 Z-1.754 I-1.099 J-1.033 F600
X27.26 Y124.852 Z-1.841 I-1.089 J-1.044
X27.211 Y124.898 Z-1.911 I-1.058 J-1.075
X27.146 Y124.954 Z-1.957 I-1.009 J-1.121
X27.07 Y125.011 Z-1.975 I-0.944 J-1.176
X25.334 Y122.544 Z-2.14 I-0.868 J-1.234
X27.07 Y125.011 Z-2.306 I0.868 J1.234
X25.334 Y122.544 Z-2.471 I-0.868 J-1.234
X27.07 Y125.011 Z-2.637 I0.868 J1.234
X25.334 Y122.544 Z-2.802 I-0.868 J-1.234
X27.07 Y125.011 Z-2.968 I0.868 J1.234
X26.202 Y125.286 Z-3 I-0.868 J-1.234
G1 X21.683 Y125.285
G3 X20.72 Y124.322 J-0.963
G1 Y124.096
G3 X21.683 Y123.133 I0.963
G1 X26.315
G3 X27.278 Y124.096 J0.963
G1 Y124.323
G3 X26.315 Y125.286 I-0.963
G1 X26.202
G2 X24.446 Y126.456 J1.902
G3 X22.691 Y127.626 I-1.755 J-0.732
G1 X19.342
G3 X18.379 Y126.662 J-0.963
G1 X18.38 Y121.756
G3 X19.343 Y120.793 I0.963
G1 X28.655
G3 X29.619 Y121.756 J0.963
G1 Y126.663
G3 X28.656 Y127.626 I-0.963
G1 X22.691
G2 X20.935 Y128.796 J1.902
G3 X19.18 Y129.966 I-1.755 J-0.732
G1 X17.001
G3 X16.038 Y129.003 J-0.963
G1 X16.039 Y119.415
G3 X17.003 Y118.452 I0.963
G1 X30.996
G3 X31.959 Y119.415 J0.963
G1 Y129.004
G3 X30.996 Y129.967 I-0.963
G1 X19.18 Y129.966
G2 X17.424 Y131.136 J1.902
G3 X15.668 Y132.306 I-1.755 J-0.732
G1 X14.66
G3 X13.697 Y131.343 J-0.963
G1 X13.699 Y117.075
G3 X14.663 Y116.111 I0.963
G1 X33.337
G3 X34.3 Y117.075 J0.963
G1 Y131.345
G3 X33.337 Y132.308 I-0.963
G1 X15.668 Y132.306
G2 X13.714 Y133.686 J2.074
G3 X11.356 Y133.279 I-1.144 J-0.407
G1 X11.359 Y114.734
G3 X12.322 Y113.771 I0.963
G1 X35.677
G3 X36.641 Y114.734 J0.963
G1 Y133.686
G3 X35.677 Y134.649 I-0.963
G1 X12.319 Y134.647
G3 X11.356 Y133.683 J-0.963
G1 Y133.279
G2 X10.179 Y131.512 I-1.914
G3 X9.001 Y129.745 I0.736 J-1.767
G1 X9.004 Y111.412
X9.068 Y111.414
G2 X9.1 Y111.415 I0.032 J-0.793
G1 X38.9
G2 X38.932 Y111.414 J-0.794
G1 X38.996 Y111.412
Y137.001
X38.964 Y137.005
X9.009 Y137.002
X9.004 Y137.001
X9 Y136.96
X9.001 Y129.745
G3 X9.016 Y129.649 Z-2.984 I0.318
X9.054 Y129.569 Z-2.939 I0.302 J0.097
X9.1 Y129.515 Z-2.869 I0.264 J0.176
X9.134 Y129.487 Z-2.781 I0.219 J0.23
X9.147 Y129.478 Z-2.683 I0.184 J0.258
G0 Z5
X27.732 Y124.811
Z-2.158
G3 X27.721 Y124.821 Z-2.254 I-1.099 J-1.033 F600
X27.691 Y124.852 Z-2.341 I-1.089 J-1.044
X27.642 Y124.898 Z-2.411 I-1.058 J-1.075
X27.577 Y124.954 Z-2.457 I-1.009 J-1.121
X27.501 Y125.011 Z-2.475 I-0.944 J-1.176
X25.765 Y122.544 Z-2.64 I-0.868 J-1.234
X27.501 Y125.011 Z-2.806 I0.868 J1.234
X25.765 Y122.544 Z-2.971 I-0.868 J-1.234
X27.501 Y125.011 Z-3.137 I0.868 J1.234
X25.765 Y122.544 Z-3.302 I-0.868 J-1.234
X27.501 Y125.011 Z-3.468 I0.868 J1.234
X26.633 Y125.286 Z-3.5 I-0.868 J-1.234
G1 X21.536 Y125.285
G3 Y123.995 J-0.645
G1 X26.75
G3 X27.278 Y124.523 J0.528
G1 Y124.757
G3 X26.75 Y125.286 I-0.528
G1 X26.633
G2 X24.877 Y126.456 J1.902
G3 X23.122 Y127.626 I-1.755 J-0.732
G1 X19.342
G3 X18.379 Y126.662 J-0.963
G1 X18.38 Y122.618
G3 X19.343 Y121.654 I0.963
G1 X28.655
G3 X29.619 Y122.618 J0.963
G1 Y126.663
G3 X28.656 Y127.626 I-0.963
G1 X23.122
G2 X21.366 Y128.796 J1.902
G3 X19.61 Y129.966 I-1.755 J-0.732
G1 X17.001
G3 X16.038 Y129.003 J-0.963
G1 X16.039 Y120.277
G3 X17.003 Y119.314 I0.963
G1 X30.996
G3 X31.959 Y120.277 J0.963
G1 Y129.004
G3 X30.996 Y129.967 I-0.963
G1 X19.61 Y129.966
G2 X17.855 Y131.136 J1.902
G3 X16.099 Y132.307 I-1.755 J-0.732
G1 X14.66 Y132.306
G3 X13.697 Y131.343 J-0.963
G1 X13.699 Y117.936
G3 X14.662 Y116.973 I0.963
G1 X33.337
G3 X34.3 Y117.936 J0.963
G1 Y131.345
G3 X33.337 Y132.308 I-0.963
G1 X16.099 Y132.307
G2 X14.344 Y133.477 J1.902
G3 X12.588 Y134.647 I-1.755 J-0.732
G1 X12.319
G3 X11.356 Y133.683 J-0.963
G1 X11.359 Y115.596
G3 X12.322 Y114.633 I0.963
G1 X35.677
G3 X36.641 Y115.596 J0.963
G1 Y133.686
G3 X35.677 Y134.649 I-0.963
G1 X12.588 Y134.647
G2 X10.821 Y135.824 J1.914
G3 X9.054 Y137.002 I-1.767 J-0.736
G1 X9.009
X9.004 Y137.001
X9 Y136.96
X9.004 Y112.277
X38.996
Y137.001
X38.964 Y137.005
X9.054 Y137.002
X9.009 Z-3.497
X9.004 Y137.001 Z-3.496
X9 Y136.96 Z-3.486
Y136.898 Z-3.46
Y136.842 Z-3.421
Y136.797 Z-3.372
Y136.763 Z-3.314
Y136.741 Z-3.25
Y136.734 Z-3.183
G0 Z5
X28.166 Y125.432
Z-2.658
G3 X28.156 Y125.443 Z-2.754 I-1.099 J-1.033 F600
X28.126 Y125.473 Z-2.841 I-1.089 J-1.044
X28.077 Y125.52 Z-2.911 I-1.058 J-1.075
X28.012 Y125.575 Z-2.957 I-1.009 J-1.121
X27.935 Y125.632 Z-2.975 I-0.944 J-1.176
X26.2 Y123.165 Z-3.14 I-0.868 J-1.234
X27.935 Y125.632 Z-3.306 I0.868 J1.234
X26.2 Y123.165 Z-3.471 I-0.868 J-1.234
X27.935 Y125.632 Z-3.637 I0.868 J1.234
X26.2 Y123.165 Z-3.802 I-0.868 J-1.234
X27.935 Y125.632 Z-3.968 I0.868 J1.234
X27.067 Y125.907 Z-4 I-0.868 J-1.234
G1 X21.005 Y125.906
G3 Y124.243 J-0.832
G1 X27.19
G3 X27.899 Y124.953 J0.71
G1 Y125.197
G3 X27.19 Y125.907 I-0.71
G1 X27.067
G2 X25.778 Y126.766 J1.397
G3 X24.488 Y127.626 I-1.289 J-0.537
G1 X19.342
G3 X18.379 Y126.662 J-0.963
G1 X18.38 Y123.487
G3 X19.343 Y122.524 I0.963
G1 X28.655
G3 X29.619 Y123.487 J0.963
G1 Y126.663
G3 X28.656 Y127.626 I-0.963
G1 X24.488
G2 X22.733 Y128.796 J1.902
G3 X20.977 Y129.966 I-1.755 J-0.732
G1 X17.001
G3 X16.038 Y129.003 J-0.963
G1 X16.039 Y121.147
G3 X17.003 Y120.183 I0.963
G1 X30.996
G3 X31.959 Y121.147 J0.963
G1 Y129.004
G3 X30.996 Y129.967 I-0.963
G1 X20.977 Y129.966
G2 X19.222 Y131.136 J1.902
G3 X17.466 Y132.307 I-1.755 J-0.732
G1 X14.66 Y132.306
G3 X13.697 Y131.343 J-0.963
G1 X13.699 Y118.806
G3 X14.662 Y117.843 I0.963
G1 X33.337
G3 X34.3 Y118.806 J0.963
G1 Y131.345
G3 X33.337 Y132.308 I-0.963
G1 X17.466 Y132.307
G2 X15.71 Y133.477 J1.902
G3 X13.955 Y134.647 I-1.755 J-0.732
G1 X12.319
G3 X11.356 Y133.683 J-0.963
G1 X11.359 Y116.465
G3 X12.322 Y115.502 I0.963
G1 X35.677
G3 X36.641 Y116.465 J0.963
G1 Y133.686
G3 X35.677 Y134.649 I-0.963
G1 X13.955 Y134.647
G2 X12.188 Y135.825 J1.914
G3 X10.421 Y137.002 I-1.767 J-0.736
G1 X9.009
X9.004 Y137.001
X9 Y136.96
X9.004 Y113.146
X38.996
Y137.001
X38.964 Y137.005
X10.421 Y137.002
G3 X10.325 Y136.987 Z-3.984 J-0.318
X10.245 Y136.949 Z-3.939 I0.097 J-0.302
X10.191 Y136.904 Z-3.869 I0.176 J-0.264
X10.163 Y136.869 Z-3.781 I0.23 J-0.219
X10.154 Y136.856 Z-3.683 I0.258 J-0.184
G0 Z5
X28.6 Y125.722
Z-3.158
G3 X28.59 Y125.733 Z-3.254 I-1.099 J-1.033 F600
X28.559 Y125.764 Z-3.341 I-1.089 J-1.044
X28.51 Y125.81 Z-3.411 I-1.058 J-1.075
X28.445 Y125.865 Z-3.457 I-1.009 J-1.121
X28.369 Y125.923 Z-3.475 I-0.944 J-1.176
X26.633 Y123.456 Z-3.64 I-0.868 J-1.234
X28.369 Y125.923 Z-3.806 I0.868 J1.234
X26.633 Y123.456 Z-3.971 I-0.868 J-1.234
X28.369 Y125.923 Z-4.137 I0.868 J1.234
X26.633 Y123.456 Z-4.302 I-0.868 J-1.234
X28.369 Y125.923 Z-4.468 I0.868 J1.234
X27.501 Y126.197 Z-4.5 I-0.868 J-1.234
G1 X20.647
G3 Y124.82 J-0.688
G1 X27.661
G3 X28.19 Y125.348 J0.528
G1 Y125.669
G3 X27.661 Y126.197 I-0.528
G1 X27.501
G2 X26.429 Y126.912 J1.161
G3 X25.357 Y127.626 I-1.072 J-0.447
G1 X19.33
G3 X18.379 Y126.674 J-0.951
G1 X18.38 Y124.354
G3 X19.343 Y123.391 I0.963
G1 X28.655
G3 X29.619 Y124.354 J0.963
G1 Y126.663
G3 X28.656 Y127.626 I-0.963
G1 X25.357
G2 X23.602 Y128.796 J1.902
G3 X21.846 Y129.966 I-1.755 J-0.732
G1 X16.989
G3 X16.038 Y129.015 J-0.951
G1 X16.039 Y122.013
G3 X17.003 Y121.05 I0.963
G1 X30.996
G3 X31.959 Y122.013 J0.963
G1 Y129.004
G3 X30.996 Y129.967 I-0.963
G1 X21.846 Y129.966
G2 X20.09 Y131.137 J1.902
G3 X18.335 Y132.307 I-1.755 J-0.732
G1 X14.648 Y132.306
G3 X13.697 Y131.355 J-0.951
G1 X13.699 Y119.673
G3 X14.662 Y118.709 I0.963
G1 X33.337
G3 X34.3 Y119.673 J0.963
G1 Y131.345
G3 X33.337 Y132.308 I-0.963
G1 X18.335 Y132.307
G2 X16.579 Y133.477 J1.902
G3 X14.824 Y134.647 I-1.755 J-0.732
G1 X12.307
G3 X11.356 Y133.695 J-0.951
G1 X11.359 Y117.332
G3 X12.322 Y116.369 I0.963
G1 X35.677
G3 X36.641 Y117.332 J0.963
G1 Y133.686
G3 X35.677 Y134.649 I-0.963
G1 X14.824 Y134.647
G2 X13.057 Y135.825 J1.914
G3 X11.29 Y137.002 I-1.767 J-0.736
G1 X9.009
X9.004 Y137.001
X9 Y136.96
X9.004 Y114.01
X9.065 Y114.012
G2 X9.1 Y114.013 I0.034 J-0.793
G1 X38.9
G2 X38.934 Y114.012 J-0.794
G1 X38.996 Y114.01
Y137.001
X38.964 Y137.005
X11.29 Y137.002
G3 X11.193 Y136.987 Z-4.484 J-0.318
X11.114 Y136.949 Z-4.439 I0.097 J-0.302
X11.06 Y136.904 Z-4.369 I0.176 J-0.264
X11.032 Y136.869 Z-4.281 I0.23 J-0.219
X11.023 Y136.856 Z-4.183 I0.258 J-0.184
G0 Z5
X29.033 Y126.012
Z-3.658
G3 X29.023 Y126.023 Z-3.754 I-1.099 J-1.033 F600
X28.992 Y126.054 Z-3.841 I-1.089 J-1.044
X28.943 Y126.1 Z-3.911 I-1.058 J-1.075
X28.878 Y126.155 Z-3.957 I-1.009 J-1.121
X28.802 Y126.213 Z-3.975 I-0.944 J-1.176
X27.066 Y123.746 Z-4.14 I-0.868 J-1.234
X28.802 Y126.213 Z-4.306 I0.868 J1.234
X27.066 Y123.746 Z-4.471 I-0.868 J-1.234
X28.802 Y126.213 Z-4.637 I0.868 J1.234
X27.066 Y123.746 Z-4.802 I-0.868 J-1.234
X28.802 Y126.213 Z-4.968 I0.868 J1.234
X27.934 Y126.487 Z-5 I-0.868 J-1.234
G1 X20.279
G3 X19.733 Y125.941 J-0.546
X20.279 Y125.396 I0.546
G1 X27.951
G3 X28.48 Y125.924 J0.528
G1 Y125.959
G3 X27.951 Y126.487 I-0.528
G1 X27.934
G2 X27.08 Y127.057 J0.925
G3 X26.225 Y127.626 I-0.854 J-0.356
G1 X19.342
G3 X18.379 Y126.662 J-0.963
G1 Y125.22
G3 X19.343 Y124.257 I0.963
G1 X28.655
G3 X29.619 Y125.22 J0.963
G1 Y126.663
G3 X28.656 Y127.626 I-0.963
G1 X26.225
G2 X24.47 Y128.796 J1.902
G3 X22.714 Y129.967 I-1.755 J-0.732
G1 X17.001 Y129.966
G3 X16.038 Y129.003 J-0.963
G1 X16.039 Y122.879
G3 X17.003 Y121.916 I0.963
G1 X30.996
G3 X31.959 Y122.879 J0.963
G1 Y129.004
G3 X30.996 Y129.967 I-0.963
G1 X22.714
G2 X20.959 Y131.137 J1.902
G3 X19.203 Y132.307 I-1.755 J-0.732
G1 X14.66 Y132.306
G3 X13.697 Y131.343 J-0.963
G1 X13.699 Y120.539
G3 X14.662 Y119.576 I0.963
G1 X33.337
G3 X34.3 Y120.539 J0.963
G1 Y131.345
G3 X33.337 Y132.308 I-0.963
G1 X19.203 Y132.307
G2 X17.448 Y133.477 J1.902
G3 X15.692 Y134.647 I-1.755 J-0.732
G1 X12.319
G3 X11.356 Y133.683 J-0.963
G1 X11.359 Y118.198
G3 X12.322 Y117.235 I0.963
G1 X35.677
G3 X36.641 Y118.198 J0.963
G1 Y133.686
G3 X35.677 Y134.649 I-0.963
G1 X15.692 Y134.647
G2 X13.925 Y135.825 J1.914
G3 X12.158 Y137.002 I-1.767 J-0.736
G1 X9.009
X9.004 Y137.001
X9 Y136.96
X9.004 Y114.876
X9.065 Y114.878
G2 X9.1 Y114.879 I0.034 J-0.793
G1 X38.9
G2 X38.934 Y114.878 J-0.794
G1 X38.996 Y114.876
Y137.001
X38.964 Y137.005
X12.158 Y137.002
G3 X12.062 Y136.987 Z-4.984 J-0.317
X11.982 Y136.949 Z-4.939 I0.097 J-0.302
X11.928 Y136.904 Z-4.869 I0.176 J-0.264
X11.9 Y136.869 Z-4.781 I0.23 J-0.219
X11.891 Y136.856 Z-4.683 I0.258 J-0.184
G0 Z5
X29.466 Y127.151
Z-4.158
G3 X29.455 Y127.162 Z-4.254 I-1.099 J-1.033 F600
X29.425 Y127.193 Z-4.341 I-1.089 J-1.044
X29.376 Y127.239 Z-4.411 I-1.058 J-1.075
X29.311 Y127.294 Z-4.457 I-1.009 J-1.121
X29.235 Y127.352 Z-4.475 I-0.944 J-1.176
X27.499 Y124.885 Z-4.64 I-0.868 J-1.234
X29.235 Y127.352 Z-4.806 I0.868 J1.234
X27.499 Y124.885 Z-4.971 I-0.868 J-1.234
X29.235 Y127.352 Z-5.137 I0.868 J1.234
X27.499 Y124.885 Z-5.302 I-0.868 J-1.234
X29.235 Y127.352 Z-5.468 I0.868 J1.234
X28.367 Y127.626 Z-5.5 I-0.868 J-1.234
G1 X19.342
G3 X18.379 Y126.662 J-0.963
G1 Y126.086
G3 X19.343 Y125.123 I0.963
G1 X28.655
G3 X29.619 Y126.086 J0.963
G1 Y126.663
G3 X28.656 Y127.626 I-0.963
G1 X28.367
G2 X26.611 Y128.797 J1.902
G3 X24.856 Y129.967 I-1.755 J-0.732
G1 X17.001 Y129.966
G3 X16.038 Y129.003 J-0.963
G1 X16.039 Y123.745
G3 X17.003 Y122.782 I0.963
G1 X30.996
G3 X31.959 Y123.745 J0.963
G1 Y129.004
G3 X30.996 Y129.967 I-0.963
G1 X24.856
G2 X23.1 Y131.137 J1.902
G3 X21.345 Y132.307 I-1.755 J-0.732
G1 X14.66 Y132.306
G3 X13.697 Y131.343 J-0.963
G1 X13.699 Y121.405
G3 X14.662 Y120.442 I0.963
G1 X33.337
G3 X34.3 Y121.405 J0.963
G1 Y131.345
G3 X33.337 Y132.308 I-0.963
G1 X21.345 Y132.307
G2 X19.589 Y133.477 J1.902
G3 X17.833 Y134.647 I-1.755 J-0.732
G1 X12.319
G3 X11.356 Y133.683 J-0.963
G1 X11.359 Y119.064
G3 X12.322 Y118.101 I0.963
G1 X35.677
G3 X36.641 Y119.064 J0.963
G1 Y133.686
G3 X35.677 Y134.649 I-0.963
G1 X17.833 Y134.647
G2 X16.067 Y135.825 J1.914
G3 X14.3 Y137.003 I-1.767 J-0.736
G1 X9.009 Y137.002
X9.004 Y137.001
X9 Y136.96
X9.004 Y115.742
X9.065 Y115.744
G2 X9.1 Y115.745 I0.034 J-0.793
G1 X38.9
G2 X38.934 J-0.794
G1 X38.996 Y115.742
Y137.001
X38.964 Y137.005
X14.3 Y137.003
G3 X14.203 Y136.988 Z-5.484 J-0.317
X14.124 Y136.949 Z-5.439 I0.097 J-0.302
X14.07 Y136.904 Z-5.369 I0.176 J-0.264
X14.041 Y136.87 Z-5.281 I0.23 J-0.219
X14.032 Y136.857 Z-5.183 I0.258 J-0.184
G0 Z5
X27.701 Y126.464
Z-4.658
G3 X27.711 Y126.453 Z-4.754 I1.099 J1.033 F600
X27.742 Y126.422 Z-4.841 I1.089 J1.044
X27.791 Y126.376 Z-4.911 I1.058 J1.074
X27.856 Y126.321 Z-4.957 I1.009 J1.121
X27.932 Y126.263 Z-4.975 I0.944 J1.176
X29.668 Y128.73 Z-5.14 I0.868 J1.233
X27.932 Y126.263 Z-5.306 I-0.868 J-1.233
X29.668 Y128.73 Z-5.471 I0.868 J1.233
X27.932 Y126.263 Z-5.637 I-0.868 J-1.233
X29.668 Y128.73 Z-5.802 I0.868 J1.233
X27.932 Y126.263 Z-5.968 I-0.868 J-1.233
X28.8 Y125.989 Z-6 I0.868 J1.233
G1 X28.909
G3 X29.619 Y126.698 J0.71
G1 Y126.917
G3 X28.909 Y127.626 I-0.71
G1 X19.28
G3 X18.461 Y126.807 J-0.818
X19.28 Y125.989 I0.818
G1 X28.8
G2 X30.296 Y125.132 J-1.734
G3 X31.959 Y125.583 I0.771 J0.452
G1 Y129.004
G3 X30.996 Y129.967 I-0.963
G1 X17.001 Y129.966
G3 X16.038 Y129.003 J-0.963
G1 X16.039 Y124.611
G3 X17.003 Y123.648 I0.963
G1 X30.996
G3 X31.959 Y124.611 J0.963
G1 Y125.583
G2 X33.13 Y127.339 I1.902
G3 X34.3 Y129.094 I-0.731 J1.755
G1 Y131.345
G3 X33.337 Y132.308 I-0.963
G1 X14.66 Y132.306
G3 X13.697 Y131.343 J-0.963
G1 X13.699 Y122.271
G3 X14.662 Y121.308 I0.963
G1 X33.337
G3 X34.3 Y122.271 J0.963
G1 Y129.094
G2 X35.47 Y130.85 I1.902
G3 X36.641 Y132.605 I-0.731 J1.755
G1 Y133.686
G3 X35.677 Y134.649 I-0.963
G1 X12.319 Y134.647
G3 X11.356 Y133.683 J-0.963
G1 X11.359 Y119.93
G3 X12.322 Y118.967 I0.963
G1 X35.677
G3 X36.641 Y119.93 J0.963
G1 Y132.605
G2 X37.818 Y134.372 I1.914
G3 X38.996 Y136.139 I-0.736 J1.767
G1 Y137.001
X38.964 Y137.005
X9.009 Y137.002
X9.004 Y137.001
X9 Y136.96
X9.004 Y116.608
X9.065 Y116.611
G2 X9.1 I0.034 J-0.793
G1 X38.9
G2 X38.934 J-0.794
G1 X38.996 Y116.608
Y136.139
G3 X38.748 Y136.27 I-0.159
G1 X29.44 Y129.895
G2 X29.339 Y129.867 I-0.09 J0.131
G3 X27.727 Y128.415 Z-6.085 I-0.104 J-1.505
X29.235 Y126.855 Z-6.169 I1.507 J-0.052
Y129.871 Z-6.335 J1.508
X28.028 Y129.268 Z-6.383 J-1.508
X29.235 Y126.855 Z-6.5 I1.207 J-0.905
G1 X29.33
G3 X29.621 Y127.145 J0.291
G1 Y127.336
G3 X29.33 Y127.627 I-0.291
G1 X19.034 Y127.626
G3 Y126.855 J-0.386
G1 X29.235
G2 X30.482 Y126.011 J-1.344
G3 X31.962 Y126.296 I0.712 J0.286
G1 X31.961 Y129.004
G3 X30.998 Y129.967 I-0.963
G1 X17 Y129.966
G3 X16.037 Y129.003 J-0.963
G1 Y125.477
G3 X17 Y124.514 I0.963
G1 X30.999
G3 X31.962 Y125.477 J0.963
G1 Y126.296
G2 X33.131 Y128.052 I1.902
G3 X34.301 Y129.808 I-0.732 J1.755
G1 Y131.345
G3 X33.338 Y132.308 I-0.963
G1 X14.66 Y132.306
G3 X13.696 Y131.343 J-0.963
G1 X13.697 Y123.137
G3 X14.66 Y122.173 I0.963
G1 X33.34
G3 X34.303 Y123.137 J0.963
G1 X34.301 Y129.808
G2 X35.471 Y131.563 I1.902
G3 X36.641 Y133.319 I-0.732 J1.755
G1 Y133.686
G3 X35.678 Y134.649 I-0.963
G1 X12.319 Y134.647
G3 X11.356 Y133.683 J-0.963
G1 Y120.796
G3 X12.319 Y119.833 I0.963
G1 X35.681
G3 X36.644 Y120.796 J0.963
G1 X36.641 Y133.319
G2 X37.819 Y135.086 I1.914
G3 X38.996 Y136.853 I-0.736 J1.767
G1 Y137.001
X38.964 Y137.005
X9.009 Y137.002
X9.004 Y137.001
X9 Y136.96
Y117.474
X9.065 Y117.477
G2 X9.1 I0.034 J-0.793
G1 X38.9
G2 X38.934 J-0.794
G1 X39 Y117.474
X38.996 Y136.853
G3 X38.913 Y136.892 I-0.051
G1 X38.737 Y136.745
X31.257 Y129.263
G2 X31.068 Y129.237 I-0.112 J0.112
G1 X29.838 Y129.92
G3 X29.772 Y129.94 I-0.077 J-0.139
X29.563 Y126.93 Z-6.665 I-0.104 J-1.505
X29.772 Y129.94 Z-6.831 I0.104 J1.505
X28.16 Y128.487 Z-6.915 I-0.104 J-1.505
X29.668 Y126.927 Z-7 I1.507 J-0.052
G1 X29.705
G3 X30.415 Y127.637 J0.71
G1 X30.414 Y127.711
G3 X29.705 Y128.42 I-0.71
G1 X18.452 Y128.419
G3 Y126.927 J-0.746
G1 X29.668
G2 X30.603 Y126.103 J-0.943
G3 X31.823 Y125.845 I0.655 J0.083
X31.962 Y126.343 I-0.824 J0.498
G1 X31.961 Y129.004
G3 X30.998 Y129.967 I-0.963
G1 X17.001 Y129.966
G3 X16.037 Y129.003 J-0.963
G1 X16.038 Y126.343
G3 X17.001 Y125.38 I0.963
G1 X30.999
G3 X31.823 Y125.845 J0.963
G2 X33.257 Y127.099 I2.683 J-1.621
G3 X34.302 Y128.693 I-0.692 J1.593
G1 X34.301 Y131.345
G3 X33.338 Y132.308 I-0.963
G1 X14.66 Y132.306
G3 X13.697 Y131.343 J-0.963
G1 Y124.003
G3 X14.661 Y123.039 I0.963
G1 X33.34
G3 X34.303 Y124.003 J0.963
G1 X34.302 Y128.693
G2 X35.472 Y130.448 I1.902
G3 X36.642 Y132.204 I-0.732 J1.755
G1 X36.641 Y133.686
G3 X35.678 Y134.649 I-0.963
G1 X12.319 Y134.647
G3 X11.356 Y133.683 J-0.963
G1 X11.357 Y121.662
G3 X12.32 Y120.699 I0.963
G1 X35.681
G3 X36.644 Y121.662 J0.963
G1 X36.642 Y132.204
G2 X37.819 Y133.971 I1.914
G3 X38.996 Y135.738 I-0.736 J1.767
G1 Y137.001
X38.964 Y137.005
X9.009 Y137.002
X9.004 Y137.001
X9 Y136.96
X9.001 Y118.34
X9.065 Y118.343
G2 X9.1 I0.034 J-0.793
G1 X38.9
G2 X38.934 J-0.794
G1 X39 Y118.34
X38.996 Y135.738
G3 X38.753 Y135.872 I-0.159
G1 X30.301 Y130.54
G2 X30.205 Y130.515 I-0.085 J0.134
G3 X29.996 Y127.506 Z-7.165 I-0.104 J-1.505
X30.205 Y130.515 Z-7.331 I0.104 J1.505
X28.593 Y129.063 Z-7.415 I-0.104 J-1.505
X30.101 Y127.503 Z-7.5 I1.507 J-0.052
G1 X30.176
G3 X30.705 Y128.031 J0.528
G1 Y128.182
G3 X30.176 Y128.711 I-0.528
G1 X18.089 Y128.71
G3 Y127.503 J-0.603
G1 X30.101
G2 X30.857 Y126.881 J-0.771
G3 X31.822 Y126.709 I0.515 J0.101
X31.962 Y127.209 I-0.823 J0.5
G1 X31.961 Y129.004
G3 X30.998 Y129.967 I-0.963
G1 X17.001 Y129.966
G3 X16.038 Y129.003 J-0.963
G1 X16.039 Y127.209
G3 X17.002 Y126.246 I0.963
G1 X30.999
G3 X31.822 Y126.709 J0.963
G2 X33.257 Y127.963 I2.692 J-1.634
G3 X34.302 Y129.557 I-0.693 J1.593
G1 X34.301 Y131.345
G3 X33.338 Y132.308 I-0.963
G1 X14.66 Y132.306
G3 X13.697 Y131.343 J-0.963
G1 X13.699 Y124.869
G3 X14.662 Y123.906 I0.963
G1 X33.34
G3 X34.303 Y124.869 J0.963
G1 X34.302 Y129.557
G2 X35.472 Y131.312 I1.902
G3 X36.641 Y133.068 I-0.732 J1.755
G1 Y133.686
G3 X35.678 Y134.649 I-0.963
G1 X12.319 Y134.647
G3 X11.356 Y133.684 J-0.963
G1 X11.358 Y122.528
G3 X12.322 Y121.565 I0.963
G1 X35.681
G3 X36.644 Y122.528 J0.963
G1 X36.641 Y133.068
G2 X37.819 Y134.835 I1.914
G3 X38.996 Y136.602 I-0.736 J1.767
G1 Y137.001
X38.964 Y137.005
X9.009 Y137.002
X9.004 Y137.001
X9 Y136.96
X9.003 Y119.206
X9.065 Y119.209
G2 X9.1 I0.034 J-0.793
G1 X38.9
G2 X38.934 J-0.794
G1 X39 Y119.206
X38.996 Y136.602
G3 X38.719 Y136.707 I-0.159
G1 X30.32 Y127.218
G3 X30.428 Y126.955 I0.119 J-0.105
X30.636 Y129.964 Z-7.665 I0.104 J1.505
X30.428 Y126.955 Z-7.831 I-0.104 J-1.505
X32.039 Y128.407 Z-7.915 I0.104 J1.505
X30.532 Y129.967 Z-8 I-1.507 J0.052
G1 X17.002 Y129.966
G3 X16.039 Y129.003 J-0.963
G1 Y128.076
G3 X17.002 Y127.112 I0.963
G1 X30.996
G3 X31.959 Y128.075 J0.963
G1 Y129.004
G3 X30.996 Y129.967 I-0.963
G1 X30.532
G2 X28.776 Y131.137 J1.902
G3 X27.021 Y132.308 I-1.755 J-0.732
G1 X14.661 Y132.306
G3 X13.698 Y131.343 J-0.963
G1 X13.699 Y125.735
G3 X14.662 Y124.772 I0.963
G1 X33.337
G3 X34.3 Y125.735 J0.963
G1 Y131.345
G3 X33.337 Y132.308 I-0.963
G1 X27.021
G2 X25.265 Y133.478 J1.902
G3 X23.509 Y134.648 I-1.755 J-0.732
G1 X12.32 Y134.647
G3 X11.357 Y133.683 J-0.963
G1 X11.359 Y123.394
G3 X12.322 Y122.431 I0.963
G1 X35.677
G3 X36.641 Y123.394 J0.963
G1 Y133.686
G3 X35.677 Y134.649 I-0.963
G1 X23.509 Y134.648
G2 X21.743 Y135.825 J1.914
G3 X19.976 Y137.003 I-1.767 J-0.736
G1 X9.009 Y137.002
X9.004 Y137.001
X9 Y136.96
X9.003 Y120.072
X9.065 Y120.075
G2 X9.1 I0.034 J-0.793
G1 X38.9
G2 X38.934 J-0.794
G1 X38.996 Y120.072
Y137.001
X38.964 Y137.005
X19.976 Y137.003
G3 X19.874 Y136.722 J-0.159
G1 X28.89 Y129.21
G2 X28.947 Y129.077 I-0.102 J-0.122
G3 X31.956 Y128.868 Z-8.165 I1.505 J-0.104
X28.947 Y129.077 Z-8.331 I-1.505 J0.104
X30.399 Y127.466 Z-8.415 I1.505 J-0.104
X31.959 Y128.973 Z-8.5 I0.052 J1.507
G1 Y129.004
G3 X30.996 Y129.967 I-0.963
G1 X17.002 Y129.966
G3 X16.039 Y129.003 J-0.963
G1 Y128.942
G3 X17.002 Y127.978 I0.963
G1 X30.996
G3 X31.959 Y128.941 J0.963
G1 Y128.973
G2 X32.941 Y130.52 I1.71
G3 X32.541 Y132.308 I-0.4 J0.849
G1 X14.661 Y132.306
G3 X13.698 Y131.343 J-0.963
G1 X13.699 Y126.601
G3 X14.662 Y125.638 I0.963
G1 X33.337
G3 X34.3 Y126.601 J0.963
G1 Y131.345
G3 X33.337 Y132.308 I-0.963
G1 X32.541
G2 X30.785 Y133.478 J1.902
G3 X29.03 Y134.648 I-1.755 J-0.732
G1 X12.32 Y134.647
G3 X11.357 Y133.683 J-0.963
G1 X11.358 Y124.26
G3 X12.322 Y123.297 I0.963
G1 X35.677
G3 X36.641 Y124.26 J0.963
G1 Y133.686
G3 X35.677 Y134.649 I-0.963
G1 X29.03 Y134.648
G2 X27.263 Y135.826 J1.914
G3 X25.496 Y137.004 I-1.767 J-0.736
G1 X9.009 Y137.002
X9.004 Y137.001
X9 Y136.96
X9.003 Y120.938
X9.065 Y120.941
G2 X9.1 I0.034 J-0.793
G1 X38.9
G2 X38.934 J-0.794
G1 X38.996 Y120.938
Y137.001
X38.964 Y137.005
X25.496 Y137.004
G3 X24.326 Y134.544 Z-8.614 J-1.508
G1 X29.281 Y128.454 Z-8.876
G3 X31.959 Y129.406 Z-9 I1.17 J0.952
G1 Y129.439
G3 X31.431 Y129.967 I-0.528
G1 X16.808 Y129.966
G3 Y128.844 J-0.561
G1 X31.431
G3 X31.959 Y129.373 J0.528
G1 Y129.406
G2 X32.635 Y130.826 I1.831
G3 X32.108 Y132.308 I-0.527 J0.647
G1 X14.661 Y132.306
G3 X13.698 Y131.343 J-0.963
G1 Y127.467
G3 X14.662 Y126.504 I0.963
G1 X33.337
G3 X34.3 Y127.467 J0.963
G1 Y131.345
G3 X33.337 Y132.308 I-0.963
G1 X32.108
G2 X30.352 Y133.478 J1.902
G3 X28.597 Y134.648 I-1.755 J-0.732
G1 X12.32 Y134.647
G3 X11.357 Y133.683 J-0.963
G1 X11.358 Y125.126
G3 X12.322 Y124.163 I0.963
G1 X35.677
G3 X36.641 Y125.126 J0.963
G1 Y133.686
G3 X35.677 Y134.649 I-0.963
G1 X28.597 Y134.648
G2 X26.83 Y135.826 J1.914
G3 X25.063 Y137.004 I-1.767 J-0.736
G1 X9.009 Y137.002
X9.004 Y137.001
X9 Y136.96
X9.003 Y121.804
X9.065 Y121.807
G2 X9.1 I0.034 J-0.793
G1 X38.9
G2 X38.934 J-0.794
G1 X38.996 Y121.804
Y137.001
X38.964 Y137.005
X25.063 Y137.004
G3 X24.935 Y136.751 J-0.159
G1 X31.61 Y127.695
G3 X31.727 Y127.631 I0.128 J0.094
X31.935 Y130.64 Z-9.165 I0.104 J1.505
X31.727 Y127.631 Z-9.331 I-0.104 J-1.505
X33.338 Y129.083 Z-9.415 I0.104 J1.505
X31.831 Y130.644 Z-9.5 I-1.507 J0.052
G1 X16.256 Y130.642
G3 Y129.034 J-0.804
G1 X31.926
G3 X32.636 Y129.744 J0.71
G1 Y129.934
G3 X31.926 Y130.644 I-0.71
G1 X31.831
G2 X30.582 Y131.476 J1.352
G3 X29.334 Y132.308 I-1.248 J-0.52
G1 X14.661 Y132.306
G3 X13.698 Y131.343 J-0.963
G1 Y128.333
G3 X14.662 Y127.37 I0.964
G1 X33.337
G3 X34.3 Y128.333 J0.963
G1 Y131.345
G3 X33.337 Y132.308 I-0.963
G1 X29.334
G2 X27.578 Y133.478 J1.902
G3 X25.823 Y134.648 I-1.755 J-0.732
G1 X12.32 Y134.647
G3 X11.357 Y133.683 J-0.963
G1 X11.358 Y125.992
G3 X12.322 Y125.029 I0.964
G1 X35.677
G3 X36.641 Y125.992 J0.963
G1 Y133.686
G3 X35.677 Y134.649 I-0.963
G1 X25.823 Y134.648
G2 X24.056 Y135.826 J1.914
G3 X22.289 Y137.003 I-1.767 J-0.736
G1 X9.009 Y137.002
X9.004 Y137.001
X9 Y136.96
X9.003 Y122.67
X9.065 Y122.673
G2 X9.1 I0.034 J-0.793
G1 X38.9
G2 X38.934 J-0.794
G1 X38.996 Y122.67
Y137.001
X38.964 Y137.005
X22.289 Y137.003
G3 X21.683 Y134.114 Z-9.632 J-1.508
G1 X31.658 Y129.737 Z-9.98
G3 X32.264 Y129.61 Z-10 I0.606 J1.381
G1 X32.397
G3 X32.926 Y130.139 J0.528
G1 Y130.405
G3 X32.397 Y130.934 I-0.528
G1 X15.896 Y130.932
G3 X15.235 Y130.271 J-0.661
X15.896 Y129.61 I0.661
G1 X32.264
G2 X33.093 Y128.906 J-0.84
G3 X34.161 Y128.7 I0.572 J0.094
X34.3 Y129.199 I-0.824 J0.499
G1 Y131.345
G3 X33.337 Y132.308 I-0.963
G1 X14.661 Y132.306
G3 X13.698 Y131.343 J-0.963
G1 Y129.199
G3 X14.662 Y128.236 I0.964
G1 X33.337
G3 X34.161 Y128.7 J0.963
G2 X35.596 Y129.954 I2.686 J-1.627
G3 X36.641 Y131.547 I-0.692 J1.593
G1 Y133.686
G3 X35.677 Y134.649 I-0.963
G1 X12.32 Y134.647
G3 X11.357 Y133.683 J-0.963
G1 X11.358 Y126.858
G3 X12.322 Y125.895 I0.964
G1 X35.677
G3 X36.641 Y126.858 J0.963
G1 Y131.547
G2 X37.818 Y133.314 I1.914
G3 X38.996 Y135.08 I-0.736 J1.767
G1 Y137.001
X38.964 Y137.005
X9.009 Y137.002
X9.004 Y137.001
X9 Y136.96
X9.003 Y123.536
X9.065 Y123.539
G2 X9.1 I0.034 J-0.793
G1 X38.9
G2 X38.934 J-0.794
G1 X38.996 Y123.536
Y135.08
G3 X38.786 Y135.231 I-0.159
G1 X32.863 Y133.207
G2 X32.801 Y133.199 I-0.051 J0.15
G3 X32.593 Y130.19 Z-10.165 I-0.104 J-1.505
X32.801 Y133.199 Z-10.331 I0.104 J1.505
X31.19 Y131.746 Z-10.415 I-0.104 J-1.505
X32.697 Y130.186 Z-10.5 I1.507 J-0.052
G1 X32.823
G3 X33.216 Y130.579 J0.393
G1 Y130.831
G3 X32.823 Y131.224 I-0.393
G1 X15.526 Y131.222
G3 Y130.186 J-0.518
G1 X32.697
G2 X33.347 Y129.684 J-0.672
G3 X34.16 Y129.564 I0.432 J0.112
X34.3 Y130.065 I-0.823 J0.501
G1 Y131.345
G3 X33.337 Y132.308 I-0.963
G1 X14.661 Y132.306
G3 X13.698 Y131.343 J-0.963
G1 Y130.065
G3 X14.662 Y129.102 I0.964
G1 X33.337
G3 X34.16 Y129.564 J0.963
G2 X35.596 Y130.817 I2.695 J-1.64
G3 X36.641 Y132.411 I-0.694 J1.594
G1 Y133.686
G3 X35.677 Y134.649 I-0.963
G1 X12.32 Y134.647
G3 X11.357 Y133.684 J-0.963
G1 X11.358 Y127.724
G3 X12.322 Y126.761 I0.964
G1 X35.677
G3 X36.641 Y127.724 J0.963
G1 Y132.411
G2 X37.818 Y134.177 I1.914
G3 X38.996 Y135.944 I-0.736 J1.767
G1 Y137.001
X38.964 Y137.005
X9.009 Y137.002
X9.004 Y137.001
X9 Y136.96
X9.003 Y124.402
X9.065 Y124.405
G2 X9.1 I0.034 J-0.793
G1 X38.9
G2 X38.934 J-0.794
G1 X38.996 Y124.402
Y135.944
G3 X37.194 Y136.703 Z-10.583 I-1.061
G1 X32.388 Y132.006 Z-10.806
G3 X33.53 Y130.265 Z-10.903 I0.741 J-0.759
X33.13 Y132.308 Z-11 I-0.4 J0.982
G1 X14.661 Y132.306
G3 X13.698 Y131.343 J-0.963
G1 Y130.931
G3 X14.662 Y129.968 I0.964
G1 X33.337
G3 X34.3 Y130.931 J0.963
G1 Y131.345
G3 X33.337 Y132.308 I-0.963
G1 X33.13
G2 X31.374 Y133.478 J1.902
G3 X29.619 Y134.648 I-1.755 J-0.732
G1 X12.32 Y134.647
G3 X11.357 Y133.684 J-0.963
G1 X11.358 Y128.59
G3 X12.322 Y127.627 I0.964
G1 X35.677
G3 X36.641 Y128.59 J0.963
G1 Y133.686
G3 X35.677 Y134.649 I-0.963
G1 X29.619 Y134.648
G2 X27.852 Y135.826 J1.914
G3 X26.085 Y137.004 I-1.767 J-0.736
G1 X9.009 Y137.002
X9.004 Y137.001
X9 Y136.96
X9.003 Y125.268
X9.065 Y125.271
G2 X9.1 Y125.272 I0.034 J-0.793
G1 X38.9
G2 X38.934 Y125.271 J-0.794
G1 X38.996 Y125.268
Y137.001
X38.964 Y137.005
X26.085 Y137.004
G3 X26.035 Y136.694 J-0.159
G1 X33.728 Y134.155
G2 X33.667 Y133.846 I-0.05 J-0.151
G3 X33.459 Y130.837 Z-11.165 I-0.104 J-1.505
X33.667 Y133.846 Z-11.331 I0.104 J1.505
X32.056 Y132.394 Z-11.415 I-0.104 J-1.505
X33.563 Y130.834 Z-11.5 I1.507 J-0.052
G1 X33.591
G3 X34.3 Y131.543 J0.71
G1 Y131.599
G3 X33.591 Y132.308 I-0.71
G1 X14.56 Y132.307
G3 Y130.834 J-0.737
G1 X33.563
G2 X35.035 Y130.034 J-1.755
G3 X36.641 Y130.51 I0.733 J0.475
G1 Y133.686
G3 X35.678 Y134.649 I-0.963
G1 X12.32 Y134.647
G3 X11.357 Y133.684 J-0.963
G1 X11.358 Y129.456
G3 X12.321 Y128.493 I0.964
G1 X35.678
G3 X36.641 Y129.456 J0.963
G1 Y130.51
G2 X37.819 Y132.276 I1.914
G3 X38.996 Y134.043 I-0.736 J1.767
G1 Y137.001
X38.964 Y137.005
X9.009 Y137.002
X9.004 Y137.001
X9 Y136.96
X9.003 Y126.132
X10.877 Y126.138
X38.9
G2 X38.923 Y126.137 J-0.794
G1 X38.996 Y126.135
Y134.043
G3 X36.887 Y135.426 Z-11.602 I-1.508
G1 X32.192 Y133.386 Z-11.778
G3 X33.393 Y130.62 Z-11.94 I0.601 J-1.383
X34.301 Y132.003 Z-12 I-0.601 J1.383
G1 Y132.031
G3 X34.023 Y132.309 I-0.278
G1 X14.272 Y132.307
G3 Y131.697 J-0.305
G1 X34.023
G3 X34.301 Y131.975 J0.278
G1 Y132.003
G2 X35.087 Y133.227 I1.345
G3 X34.778 Y134.649 I-0.309 J0.677
G1 X12.32 Y134.647
G3 X11.357 Y133.684 J-0.963
G1 X11.358 Y130.321
G3 X12.321 Y129.358 I0.964
G1 X35.677
G3 X36.641 Y130.321 J0.963
G1 Y133.686
G3 X35.677 Y134.649 I-0.963
G1 X34.778
G2 X33.011 Y135.827 J1.914
G3 X31.245 Y137.004 I-1.767 J-0.736
G1 X9.009 Y137.002
X9.004 Y137.001
X9 Y136.96
X9.003 Y127.002
X38.996
Y137.001
X38.964 Y137.005
X31.245 Y137.004
G3 X31.175 Y136.703 J-0.159
G1 X34.613 Y135.031
G2 X34.533 Y134.73 I-0.069 J-0.143
G3 X32.922 Y133.278 Z-12.085 I-0.104 J-1.505
X34.429 Y131.717 Z-12.169 I1.507 J-0.052
Y134.733 Z-12.335 J1.508
X33.222 Y134.13 Z-12.383 J-1.508
X34.429 Y131.717 Z-12.5 I1.207 J-0.905
G1 X34.439
G3 X35.149 Y132.427 J0.71
G1 Y132.447
G3 X34.439 Y133.157 I-0.71
G1 X13.702 Y133.155
G3 X13.703 Y131.717 J-0.719
G1 X34.429
G2 X35.33 Y130.932 J-0.91
G3 X36.502 Y130.69 I0.628 J0.087
X36.641 Y131.188 I-0.824 J0.498
G1 Y133.686
G3 X35.677 Y134.649 I-0.963
G1 X12.32 Y134.647
G3 X11.357 Y133.684 J-0.963
G1 X11.358 Y131.189
G3 X12.321 Y130.225 I0.964
G1 X35.677
G3 X36.502 Y130.69 J0.963
G2 X37.945 Y131.952 I2.699 J-1.631
G3 X38.996 Y133.555 I-0.696 J1.603
G1 Y137.001
X38.964 Y137.005
X9.009 Y137.002
X9.004 Y137.001
X9 Y136.96
X9.003 Y127.866
X9.065 Y127.869
G2 X9.1 Y127.87 I0.034 J-0.793
G1 X38.9
G2 X38.934 Y127.869 J-0.794
G1 X38.996 Y127.866
Y133.555
G3 X38.823 Y133.713 I-0.159
G1 X32.569 Y133.121
G3 X32.426 Y132.974 I0.015 J-0.158
X35.435 Y132.766 Z-12.665 I1.505 J-0.104
X32.426 Y132.974 Z-12.831 I-1.505 J0.104
X33.878 Y131.363 Z-12.915 I1.505 J-0.104
X35.439 Y132.87 Z-13 I0.052 J1.507
G1 Y132.919
G3 X34.91 Y133.447 I-0.528
G1 X13.337 Y133.445
G3 Y132.293 J-0.576
G1 X34.91
G3 X35.439 Y132.822 J0.528
G1 Y132.87
G2 X36.023 Y133.593 I0.739
G3 X36.178 Y134.509 I-0.105 J0.489
X35.677 Y134.649 I-0.5 J-0.823
G1 X12.32 Y134.647
G3 X11.357 Y133.684 J-0.963
G1 X11.358 Y132.055
G3 X12.321 Y131.091 I0.964
G1 X35.677
G3 X36.641 Y132.054 J0.963
G1 Y133.686
G3 X36.178 Y134.509 I-0.963
G2 X34.917 Y135.953 I1.645 J2.709
G3 X33.313 Y137.004 I-1.603 J-0.697
G1 X9.009 Y137.002
X9.004 Y137.001
X9 Y136.96
X9.003 Y128.732
X9.065 Y128.735
G2 X9.1 Y128.736 I0.034 J-0.793
G1 X38.9
G2 X38.934 Y128.735 J-0.794
G1 X38.996 Y128.732
Y137.001
X38.964 Y137.005
X33.313 Y137.004
G3 X33.165 Y136.79 J-0.159
G1 X35.053 Y131.739
G3 X35.191 Y131.636 I0.149 J0.056
X35.399 Y134.645 Z-13.165 I0.104 J1.505
X35.191 Y131.636 Z-13.331 I-0.104 J-1.505
X36.802 Y133.089 Z-13.415 I0.104 J1.505
X35.295 Y134.649 Z-13.5 I-1.507 J0.052
G1 X12.32 Y134.647
G3 X11.357 Y133.684 J-0.963
G1 Y132.921
G3 X12.321 Y131.957 I0.964
G1 X35.677
G3 X36.641 Y132.92 J0.963
G1 Y133.686
G3 X35.677 Y134.649 I-0.963
G1 X35.295
G2 X33.528 Y135.827 J1.914
G3 X31.761 Y137.004 I-1.767 J-0.736
G1 X9.009 Y137.002
X9.004 Y137.001
X9 Y136.96
X9.003 Y129.598
X9.065 Y129.601
G2 X9.1 Y129.602 I0.034 J-0.793
G1 X38.9
G2 X38.934 Y129.601 J-0.794
G1 X38.996 Y129.598
Y137.001
X38.964 Y137.005
X31.761 Y137.004
G3 X31.741 Y136.688 J-0.159
G1 X35.864 Y136.152
G2 X35.832 Y135.836 I-0.02 J-0.157
G3 X35.623 Y132.827 Z-13.665 I-0.104 J-1.505
X35.832 Y135.836 Z-13.831 I0.104 J1.505
X34.221 Y134.384 Z-13.915 I-0.104 J-1.505
X35.728 Y132.823 Z-14 I1.507 J-0.052
G1 X35.931
G3 X36.641 Y133.533 J0.71
G1 Y133.939
G3 X35.931 Y134.649 I-0.71
G1 X12.298 Y134.647
G3 X12.299 Y132.823 J-0.912
G1 X35.728
G2 X37.294 Y131.983 J-1.88
G3 X38.996 Y132.496 I0.774 J0.513
G1 Y137.001
X38.964 Y137.005
X9.009 Y137.002
X9.004 Y137.001
X9 Y136.96
X9.003 Y130.464
X9.065 Y130.467
G2 X9.1 Y130.468 I0.034 J-0.793
G1 X38.9
G2 X38.934 Y130.467 J-0.794
G1 X38.996 Y130.464
Y132.496
G3 X38.971 Y132.581 I-0.159
G1 X36.389 Y136.629
G3 X36.267 Y136.702 I-0.134 J-0.085
X36.058 Y133.693 Z-14.165 I-0.104 J-1.505
X36.267 Y136.702 Z-14.331 I0.104 J1.505
X34.655 Y135.249 Z-14.415 I-0.104 J-1.505
X36.162 Y133.689 Z-14.5 I1.507 J-0.052
G1 X36.25
G3 X36.642 Y134.082 J0.393
G1 Y134.257
G3 X36.25 Y134.649 I-0.393
G1 X12.075 Y134.647
G3 Y133.689 J-0.479
G1 X36.162
G2 X37.48 Y132.859 J-1.461
G3 X38.998 Y133.204 I0.72 J0.345
G1 X38.996 Y137.001
X38.964 Y137.005
X9.009 Y137.002
X9.004 Y137.001
X9 Y136.96
Y131.33
X9.065 Y131.333
G2 X9.1 Y131.334 I0.034 J-0.793
G1 X38.9
G2 X38.934 Y131.333 J-0.794
G1 X38.999 Y131.33
X38.998 Y133.204
G3 X38.975 Y133.287 I-0.159
G1 X36.824 Y136.762
G3 X36.7 Y136.837 I-0.135 J-0.084
X36.491 Y133.828 Z-14.665 I-0.104 J-1.505
X36.7 Y136.837 Z-14.831 I0.104 J1.505
X35.088 Y135.385 Z-14.915 I-0.104 J-1.505
X36.595 Y133.824 Z-15 I1.507 J-0.052
G1 X36.663
G3 X37.373 Y134.535 J0.71
G1 Y134.671
G3 X36.663 Y135.38 I-0.71
G1 X11.506 Y135.378
G3 X10.73 Y134.601 J-0.777
X11.506 Y133.824 I0.777
G1 X36.595
G2 X37.719 Y133.138 J-1.263
G3 X38.998 Y133.448 I0.602 J0.309
G1 X38.996 Y137.001
X38.964 Y137.005
X9.009 Y137.002
X9.004 Y137.001
X9 Y136.96
X9.001 Y132.196
X9.065 Y132.199
G2 X9.1 Y132.2 I0.034 J-0.793
G1 X38.9
G2 X38.934 Y132.199 J-0.794
G1 X38.999 Y132.196
X38.998 Y133.448
G3 X38.901 Y133.594 I-0.159
G1 X34.87 Y135.274
G3 X34.65 Y135.138 I-0.061 J-0.147
X35.251 Y133.827 Z-15.052 I1.505 J-0.103
X37.059 Y136.242 Z-15.218 I0.904 J1.207
X35.251 Y133.827 Z-15.383 I-0.904 J-1.207
X37.663 Y135.036 Z-15.5 I0.904 J1.207
G1 Y135.142
G3 X37.134 Y135.67 I-0.528
G1 X11.145 Y135.668
G3 Y134.4 J-0.634
G1 X37.135
G3 X37.663 Y134.929 J0.528
G1 Y135.036
G2 X38.218 Y135.959 I1.045 J0.001
G3 X37.958 Y137.005 I-0.26 J0.49
G1 X9.009 Y137.002
X9.004 Y137.001
X9 Y136.96
X9.002 Y133.062
X9.065 Y133.065
G2 X9.1 Y133.066 I0.034 J-0.793
G1 X38.9
G2 X38.934 Y133.065 J-0.794
G1 X38.999 Y133.062
X38.996 Y137.001
X38.964 Y137.005
X37.958
G3 X37.803 Y136.88 J-0.159
G1 X37.211 Y134.185
G3 X37.356 Y133.992 I0.155 J-0.034
X37.564 Y137.001 Z-15.665 I0.104 J1.505
X37.356 Y133.992 Z-15.831 I-0.104 J-1.505
X38.967 Y135.445 Z-15.915 I0.104 J1.505
X37.46 Y137.005 Z-16 I-1.507 J0.052
G1 X9.009 Y137.002
X9.004 Y137.001
X9 Y136.96
X9.003 Y133.928
X9.065 Y133.931
G2 X9.1 Y133.932 I0.034 J-0.793
G1 X38.9
G2 X38.934 Y133.931 J-0.794
G1 X38.996 Y133.928
Y137.001
X38.964 Y137.005
X37.46
G3 X37.428 Y137.002 J-0.159
G1 X28.258 Y135.112
G3 X28.29 Y134.798 I0.032 J-0.155
G1 X38.9 Z-16.371
G2 X38.934 Y134.797 Z-16.372 J-0.794
G1 X38.996 Y134.794 Z-16.374
Y137.001 Z-16.451
X38.964 Y137.005 Z-16.452
X37.591 Z-16.5
X9.009 Y137.002
X9.004 Y137.001
X9 Y136.96
X9.002 Y134.794
X9.065 Y134.797
G2 X9.1 Y134.798 I0.034 J-0.793
G1 X38.9
G2 X38.934 Y134.797 J-0.794
G1 X38.996 Y134.794
Y137.001
X38.964 Y137.005
X37.591
X26.976 Y135.981
G3 X26.991 Y135.664 I0.015 J-0.158
G1 X38.9 Z-16.916
G2 X38.934 Y135.663 Z-16.917 J-0.794
G1 X38.996 Y135.66 Z-16.919
Y137.001 Z-16.966
X38.964 Y137.005 Z-16.967
X38.024 Z-17
X9.009 Y137.002
X9.004 Y137.001
X9 Y136.96
X9.002 Y135.66
X9.065 Y135.663
G2 X9.1 Y135.664 I0.034 J-0.793
G1 X38.9
G2 X38.934 Y135.663 J-0.794
G1 X38.996 Y135.66
Y137.001
X38.964 Y137.005
X38.024
X24.74 Y136.847
G3 X24.742 Y136.53 I0.002 J-0.159
G1 X38.9 Z-17.494
G2 X38.934 Y136.529 Z-17.496 J-0.794
G1 X38.996 Y136.526 Z-17.498
Y136.591 Z-17.5
Y137.001
X38.964 Y137.005
X9.009 Y137.002
X9.004 Y137.001
X9 Y136.96
X9.001 Y136.526
X9.065 Y136.529
G2 X9.1 Y136.53 I0.034 J-0.793
G1 X38.9
G2 X38.934 Y136.529 J-0.794
G1 X38.996 Y136.526
Y136.591
G19 G3 Y136.908 Z-17.183 K0.317
G0 Z15
G17
M9
G28 G91 Z0
G28 X0 Y0
M30
%
