%
(1)
(T1  D=3 CR=0 - ZMIN=-20 - flat end mill)
G90 G94
G17
G21
G28 G91 Z0
G90

(Pocket2)
M9
T1 M6
S17507 M3
G54
M8
G0 X25.25 Y93.338
Z15
Z1.5
G1 Z0.825 F600
G19 G3 Y93.637 Z0.525 J0.3
G1 Y95.506 Z0.518
X25.152 Y96.07 Z0.515
X24.939 Y96.437 Z0.514
X24.601 Y96.715 Z0.512
X24.211 Y96.857 Z0.51
X23.785 Y96.856 Z0.509
X23.385 Y96.71 Z0.507
X23.065 Y96.44 Z0.505
X22.849 Y96.069 Z0.504
X22.75 Y95.506 Z0.502
X22.751 Y35.776 Z0.268
X22.847 Y35.228 Z0.265
X23.059 Y34.861 Z0.264
X23.396 Y34.582 Z0.262
X23.787 Y34.44 Z0.26
X24.213 Z0.259
X24.605 Y34.582 Z0.257
X24.941 Y34.861 Z0.255
X25.149 Y35.222 Z0.254
X25.167 Y35.309 Z0.253
X25.25 Y35.776 Z0.252
Y95.506 Z0.018
X25.152 Y96.07 Z0.015
X24.939 Y96.437 Z0.014
X24.601 Y96.715 Z0.012
X24.211 Y96.857 Z0.01
X23.785 Y96.856 Z0.009
X23.385 Y96.71 Z0.007
X23.065 Y96.44 Z0.005
X22.849 Y96.069 Z0.004
X22.75 Y95.506 Z0.002
X22.751 Y35.776 Z-0.232
X22.847 Y35.228 Z-0.235
X23.059 Y34.861 Z-0.236
X23.396 Y34.582 Z-0.238
X23.787 Y34.44 Z-0.24
X24.213 Z-0.241
X24.605 Y34.582 Z-0.243
X24.941 Y34.861 Z-0.245
X25.149 Y35.222 Z-0.246
X25.167 Y35.309 Z-0.247
X25.25 Y35.776 Z-0.248
Y95.506 Z-0.482
X25.152 Y96.07 Z-0.485
X24.939 Y96.437 Z-0.486
X24.601 Y96.715 Z-0.488
X24.211 Y96.857 Z-0.49
X23.785 Y96.856 Z-0.491
X23.385 Y96.71 Z-0.493
X23.065 Y96.44 Z-0.495
X22.849 Y96.069 Z-0.496
X22.75 Y95.506 Z-0.498
Y95.112 Z-0.5
X22.751 Y35.776
X22.847 Y35.228
X23.059 Y34.861
X23.396 Y34.582
X23.787 Y34.44
X24.213
X24.605 Y34.582
X24.941 Y34.861
X25.149 Y35.222
X25.167 Y35.309
X25.25 Y35.776
Y95.506
X25.152 Y96.07
X24.939 Y96.437
X24.601 Y96.715
X24.211 Y96.857
X23.785 Y96.856
X23.385 Y96.71
X23.065 Y96.44
X22.849 Y96.069
X22.75 Y95.506
Y95.112
X24.952 Y81.34
G17 G3 X25.25 Y81.364 I0.148 J0.024
G1 Y95.506 Z-0.994
X25.22 Y95.679 Z-1
X25.152 Y96.07
X24.939 Y96.437
X24.601 Y96.715
X24.211 Y96.857
X23.785 Y96.856
X23.385 Y96.71
X23.065 Y96.44
X22.849 Y96.069
X22.75 Y95.506
X22.751 Y35.776
X22.847 Y35.228
X23.059 Y34.861
X23.396 Y34.582
X23.787 Y34.44
X24.213
X24.605 Y34.582
X24.941 Y34.861
X25.149 Y35.222
X25.167 Y35.309
X25.25 Y35.776
Y95.506
X25.22 Y95.679
G3 X24.922 Y95.653 I-0.148 J-0.026
G1 X24.95 Y85.702
G3 X25.25 Y85.703 I0.15
G1 Y95.506 Z-1.342
X25.152 Y96.07 Z-1.362
X24.939 Y96.437 Z-1.377
X24.601 Y96.715 Z-1.392
X24.211 Y96.857 Z-1.407
X23.785 Y96.856 Z-1.422
X23.385 Y96.71 Z-1.437
X23.065 Y96.44 Z-1.451
X22.849 Y96.069 Z-1.466
X22.75 Y95.506 Z-1.486
Y95.112 Z-1.5
X22.751 Y35.776
X22.847 Y35.228
X23.059 Y34.861
X23.396 Y34.582
X23.787 Y34.44
X24.213
X24.605 Y34.582
X24.941 Y34.861
X25.149 Y35.222
X25.167 Y35.309
X25.25 Y35.776
Y95.506
X25.152 Y96.07
X24.939 Y96.437
X24.601 Y96.715
X24.211 Y96.857
X23.785 Y96.856
X23.385 Y96.71
X23.065 Y96.44
X22.849 Y96.069
X22.75 Y95.506
Y95.112
G3 X22.754 Y95.078 I0.15
G1 X24.954 Y85.668
G3 X25.25 Y85.703 I0.146 J0.034
G1 Y95.506 Z-1.842
X25.152 Y96.07 Z-1.862
X24.939 Y96.437 Z-1.877
X24.601 Y96.715 Z-1.892
X24.211 Y96.857 Z-1.907
X23.785 Y96.856 Z-1.922
X23.385 Y96.71 Z-1.937
X23.065 Y96.44 Z-1.951
X22.849 Y96.069 Z-1.966
X22.75 Y95.506 Z-1.986
Y95.112 Z-2
X22.751 Y35.776
X22.847 Y35.228
X23.059 Y34.861
X23.396 Y34.582
X23.787 Y34.44
X24.213
X24.605 Y34.582
X24.941 Y34.861
X25.149 Y35.222
X25.167 Y35.309
X25.25 Y35.776
Y95.506
X25.152 Y96.07
X24.939 Y96.437
X24.601 Y96.715
X24.211 Y96.857
X23.785 Y96.856
X23.385 Y96.71
X23.065 Y96.44
X22.849 Y96.069
X22.75 Y95.506
Y95.112
X24.952 Y81.34
G3 X25.25 Y81.364 I0.148 J0.024
G1 Y95.506 Z-2.494
X25.22 Y95.679 Z-2.5
X25.152 Y96.07
X24.939 Y96.437
X24.601 Y96.715
X24.211 Y96.857
X23.785 Y96.856
X23.385 Y96.71
X23.065 Y96.44
X22.849 Y96.069
X22.75 Y95.506
X22.751 Y35.776
X22.847 Y35.228
X23.059 Y34.861
X23.396 Y34.582
X23.787 Y34.44
X24.213
X24.605 Y34.582
X24.941 Y34.861
X25.149 Y35.222
X25.167 Y35.309
X25.25 Y35.776
Y95.506
X25.22 Y95.679
G3 X24.922 Y95.653 I-0.148 J-0.026
G1 X24.95 Y85.702
G3 X25.25 Y85.703 I0.15
G1 Y95.506 Z-2.842
X25.152 Y96.07 Z-2.862
X24.939 Y96.437 Z-2.877
X24.601 Y96.715 Z-2.892
X24.211 Y96.857 Z-2.907
X23.785 Y96.856 Z-2.922
X23.385 Y96.71 Z-2.937
X23.065 Y96.44 Z-2.951
X22.849 Y96.069 Z-2.966
X22.75 Y95.506 Z-2.986
Y95.112 Z-3
X22.751 Y35.776
X22.847 Y35.228
X23.059 Y34.861
X23.396 Y34.582
X23.787 Y34.44
X24.213
X24.605 Y34.582
X24.941 Y34.861
X25.149 Y35.222
X25.167 Y35.309
X25.25 Y35.776
Y95.506
X25.152 Y96.07
X24.939 Y96.437
X24.601 Y96.715
X24.211 Y96.857
X23.785 Y96.856
X23.385 Y96.71
X23.065 Y96.44
X22.849 Y96.069
X22.75 Y95.506
Y95.112
G3 X22.754 Y95.078 I0.15
G1 X24.954 Y85.668
G3 X25.25 Y85.703 I0.146 J0.034
G1 Y95.506 Z-3.342
X25.152 Y96.07 Z-3.362
X24.939 Y96.437 Z-3.377
X24.601 Y96.715 Z-3.392
X24.211 Y96.857 Z-3.407
X23.785 Y96.856 Z-3.422
X23.385 Y96.71 Z-3.437
X23.065 Y96.44 Z-3.451
X22.849 Y96.069 Z-3.466
X22.75 Y95.506 Z-3.486
Y95.112 Z-3.5
X22.751 Y35.776
X22.847 Y35.228
X23.059 Y34.861
X23.396 Y34.582
X23.787 Y34.44
X24.213
X24.605 Y34.582
X24.941 Y34.861
X25.149 Y35.222
X25.167 Y35.309
X25.25 Y35.776
Y95.506
X25.152 Y96.07
X24.939 Y96.437
X24.601 Y96.715
X24.211 Y96.857
X23.785 Y96.856
X23.385 Y96.71
X23.065 Y96.44
X22.849 Y96.069
X22.75 Y95.506
Y95.112
X24.952 Y81.34
G3 X25.25 Y81.364 I0.148 J0.024
G1 Y95.506 Z-3.994
X25.22 Y95.679 Z-4
X25.152 Y96.07
X24.939 Y96.437
X24.601 Y96.715
X24.211 Y96.857
X23.785 Y96.856
X23.385 Y96.71
X23.065 Y96.44
X22.849 Y96.069
X22.75 Y95.506
X22.751 Y35.776
X22.847 Y35.228
X23.059 Y34.861
X23.396 Y34.582
X23.787 Y34.44
X24.213
X24.605 Y34.582
X24.941 Y34.861
X25.149 Y35.222
X25.167 Y35.309
X25.25 Y35.776
Y95.506
X25.22 Y95.679
G3 X24.922 Y95.653 I-0.148 J-0.026
G1 X24.95 Y85.702
G3 X25.25 Y85.703 I0.15
G1 Y95.506 Z-4.342
X25.152 Y96.07 Z-4.362
X24.939 Y96.437 Z-4.377
X24.601 Y96.715 Z-4.392
X24.211 Y96.857 Z-4.407
X23.785 Y96.856 Z-4.422
X23.385 Y96.71 Z-4.437
X23.065 Y96.44 Z-4.451
X22.849 Y96.069 Z-4.466
X22.75 Y95.506 Z-4.486
Y95.112 Z-4.5
X22.751 Y35.776
X22.847 Y35.228
X23.059 Y34.861
X23.396 Y34.582
X23.787 Y34.44
X24.213
X24.605 Y34.582
X24.941 Y34.861
X25.149 Y35.222
X25.167 Y35.309
X25.25 Y35.776
Y95.506
X25.152 Y96.07
X24.939 Y96.437
X24.601 Y96.715
X24.211 Y96.857
X23.785 Y96.856
X23.385 Y96.71
X23.065 Y96.44
X22.849 Y96.069
X22.75 Y95.506
Y95.112
X24.952 Y81.34
G3 X25.25 Y81.364 I0.148 J0.024
G1 Y95.506 Z-4.994
X25.22 Y95.679 Z-5
X25.152 Y96.07
X24.939 Y96.437
X24.601 Y96.715
X24.211 Y96.857
X23.785 Y96.856
X23.385 Y96.71
X23.065 Y96.44
X22.849 Y96.069
X22.75 Y95.506
X22.751 Y35.776
X22.847 Y35.228
X23.059 Y34.861
X23.396 Y34.582
X23.787 Y34.44
X24.213
X24.605 Y34.582
X24.941 Y34.861
X25.149 Y35.222
X25.167 Y35.309
X25.25 Y35.776
Y95.506
X25.22 Y95.679
G3 X24.922 Y95.653 I-0.148 J-0.026
G1 X24.95 Y85.702
G3 X25.25 Y85.703 I0.15
G1 Y95.506 Z-5.342
X25.152 Y96.07 Z-5.362
X24.939 Y96.437 Z-5.377
X24.601 Y96.715 Z-5.392
X24.211 Y96.857 Z-5.407
X23.785 Y96.856 Z-5.422
X23.385 Y96.71 Z-5.437
X23.065 Y96.44 Z-5.451
X22.849 Y96.069 Z-5.466
X22.75 Y95.506 Z-5.486
Y95.112 Z-5.5
X22.751 Y35.776
X22.847 Y35.228
X23.059 Y34.861
X23.396 Y34.582
X23.787 Y34.44
X24.213
X24.605 Y34.582
X24.941 Y34.861
X25.149 Y35.222
X25.167 Y35.309
X25.25 Y35.776
Y95.506
X25.152 Y96.07
X24.939 Y96.437
X24.601 Y96.715
X24.211 Y96.857
X23.785 Y96.856
X23.385 Y96.71
X23.065 Y96.44
X22.849 Y96.069
X22.75 Y95.506
Y95.112
G3 X22.754 Y95.078 I0.15
G1 X24.954 Y85.668
G3 X25.25 Y85.703 I0.146 J0.034
G1 Y95.506 Z-5.842
X25.152 Y96.07 Z-5.862
X24.939 Y96.437 Z-5.877
X24.601 Y96.715 Z-5.892
X24.211 Y96.857 Z-5.907
X23.785 Y96.856 Z-5.922
X23.385 Y96.71 Z-5.937
X23.065 Y96.44 Z-5.951
X22.849 Y96.069 Z-5.966
X22.75 Y95.506 Z-5.986
Y95.112 Z-6
X22.751 Y35.776
X22.847 Y35.228
X23.059 Y34.861
X23.396 Y34.582
X23.787 Y34.44
X24.213
X24.605 Y34.582
X24.941 Y34.861
X25.149 Y35.222
X25.167 Y35.309
X25.25 Y35.776
Y95.506
X25.152 Y96.07
X24.939 Y96.437
X24.601 Y96.715
X24.211 Y96.857
X23.785 Y96.856
X23.385 Y96.71
X23.065 Y96.44
X22.849 Y96.069
X22.75 Y95.506
Y95.112
X24.952 Y81.34
G3 X25.25 Y81.364 I0.148 J0.024
G1 Y95.506 Z-6.494
X25.22 Y95.679 Z-6.5
X25.152 Y96.07
X24.939 Y96.437
X24.601 Y96.715
X24.211 Y96.857
X23.785 Y96.856
X23.385 Y96.71
X23.065 Y96.44
X22.849 Y96.069
X22.75 Y95.506
X22.751 Y35.776
X22.847 Y35.228
X23.059 Y34.861
X23.396 Y34.582
X23.787 Y34.44
X24.213
X24.605 Y34.582
X24.941 Y34.861
X25.149 Y35.222
X25.167 Y35.309
X25.25 Y35.776
Y95.506
X25.22 Y95.679
G3 X24.922 Y95.653 I-0.148 J-0.026
G1 X24.95 Y85.702
G3 X25.25 Y85.703 I0.15
G1 Y95.506 Z-6.842
X25.152 Y96.07 Z-6.862
X24.939 Y96.437 Z-6.877
X24.601 Y96.715 Z-6.892
X24.211 Y96.857 Z-6.907
X23.785 Y96.856 Z-6.922
X23.385 Y96.71 Z-6.937
X23.065 Y96.44 Z-6.951
X22.849 Y96.069 Z-6.966
X22.75 Y95.506 Z-6.986
Y95.112 Z-7
X22.751 Y35.776
X22.847 Y35.228
X23.059 Y34.861
X23.396 Y34.582
X23.787 Y34.44
X24.213
X24.605 Y34.582
X24.941 Y34.861
X25.149 Y35.222
X25.167 Y35.309
X25.25 Y35.776
Y95.506
X25.152 Y96.07
X24.939 Y96.437
X24.601 Y96.715
X24.211 Y96.857
X23.785 Y96.856
X23.385 Y96.71
X23.065 Y96.44
X22.849 Y96.069
X22.75 Y95.506
Y95.112
G3 X22.754 Y95.078 I0.15
G1 X24.954 Y85.668
G3 X25.25 Y85.703 I0.146 J0.034
G1 Y95.506 Z-7.342
X25.152 Y96.07 Z-7.362
X24.939 Y96.437 Z-7.377
X24.601 Y96.715 Z-7.392
X24.211 Y96.857 Z-7.407
X23.785 Y96.856 Z-7.422
X23.385 Y96.71 Z-7.437
X23.065 Y96.44 Z-7.451
X22.849 Y96.069 Z-7.466
X22.75 Y95.506 Z-7.486
Y95.112 Z-7.5
X22.751 Y35.776
X22.847 Y35.228
X23.059 Y34.861
X23.396 Y34.582
X23.787 Y34.44
X24.213
X24.605 Y34.582
X24.941 Y34.861
X25.149 Y35.222
X25.167 Y35.309
X25.25 Y35.776
Y95.506
X25.152 Y96.07
X24.939 Y96.437
X24.601 Y96.715
X24.211 Y96.857
X23.785 Y96.856
X23.385 Y96.71
X23.065 Y96.44
X22.849 Y96.069
X22.75 Y95.506
Y95.112
X24.952 Y81.34
G3 X25.25 Y81.364 I0.148 J0.024
G1 Y95.506 Z-7.994
X25.22 Y95.679 Z-8
X25.152 Y96.07
X24.939 Y96.437
X24.601 Y96.715
X24.211 Y96.857
X23.785 Y96.856
X23.385 Y96.71
X23.065 Y96.44
X22.849 Y96.069
X22.75 Y95.506
X22.751 Y35.776
X22.847 Y35.228
X23.059 Y34.861
X23.396 Y34.582
X23.787 Y34.44
X24.213
X24.605 Y34.582
X24.941 Y34.861
X25.149 Y35.222
X25.167 Y35.309
X25.25 Y35.776
Y95.506
X25.22 Y95.679
G3 X24.922 Y95.653 I-0.148 J-0.026
G1 X24.95 Y85.702
G3 X25.25 Y85.703 I0.15
G1 Y95.506 Z-8.342
X25.152 Y96.07 Z-8.362
X24.939 Y96.437 Z-8.377
X24.601 Y96.715 Z-8.392
X24.211 Y96.857 Z-8.407
X23.785 Y96.856 Z-8.422
X23.385 Y96.71 Z-8.437
X23.065 Y96.44 Z-8.451
X22.849 Y96.069 Z-8.466
X22.75 Y95.506 Z-8.486
Y95.112 Z-8.5
X22.751 Y35.776
X22.847 Y35.228
X23.059 Y34.861
X23.396 Y34.582
X23.787 Y34.44
X24.213
X24.605 Y34.582
X24.941 Y34.861
X25.149 Y35.222
X25.167 Y35.309
X25.25 Y35.776
Y95.506
X25.152 Y96.07
X24.939 Y96.437
X24.601 Y96.715
X24.211 Y96.857
X23.785 Y96.856
X23.385 Y96.71
X23.065 Y96.44
X22.849 Y96.069
X22.75 Y95.506
Y95.112
G3 X22.754 Y95.078 I0.15
G1 X24.954 Y85.668
G3 X25.25 Y85.703 I0.146 J0.034
G1 Y95.506 Z-8.842
X25.152 Y96.07 Z-8.862
X24.939 Y96.437 Z-8.877
X24.601 Y96.715 Z-8.892
X24.211 Y96.857 Z-8.907
X23.785 Y96.856 Z-8.922
X23.385 Y96.71 Z-8.937
X23.065 Y96.44 Z-8.951
X22.849 Y96.069 Z-8.966
X22.75 Y95.506 Z-8.986
Y95.112 Z-9
X22.751 Y35.776
X22.847 Y35.228
X23.059 Y34.861
X23.396 Y34.582
X23.787 Y34.44
X24.213
X24.605 Y34.582
X24.941 Y34.861
X25.149 Y35.222
X25.167 Y35.309
X25.25 Y35.776
Y95.506
X25.152 Y96.07
X24.939 Y96.437
X24.601 Y96.715
X24.211 Y96.857
X23.785 Y96.856
X23.385 Y96.71
X23.065 Y96.44
X22.849 Y96.069
X22.75 Y95.506
Y95.112
G3 X22.754 Y95.078 I0.15
G1 X24.954 Y85.668
G3 X25.25 Y85.703 I0.146 J0.034
G1 Y95.506 Z-9.342
X25.152 Y96.07 Z-9.362
X24.939 Y96.437 Z-9.377
X24.601 Y96.715 Z-9.392
X24.211 Y96.857 Z-9.407
X23.785 Y96.856 Z-9.422
X23.385 Y96.71 Z-9.437
X23.065 Y96.44 Z-9.451
X22.849 Y96.069 Z-9.466
X22.75 Y95.506 Z-9.486
Y95.112 Z-9.5
X22.751 Y35.776
X22.847 Y35.228
X23.059 Y34.861
X23.396 Y34.582
X23.787 Y34.44
X24.213
X24.605 Y34.582
X24.941 Y34.861
X25.149 Y35.222
X25.167 Y35.309
X25.25 Y35.776
Y95.506
X25.152 Y96.07
X24.939 Y96.437
X24.601 Y96.715
X24.211 Y96.857
X23.785 Y96.856
X23.385 Y96.71
X23.065 Y96.44
X22.849 Y96.069
X22.75 Y95.506
Y95.112
G3 X22.754 Y95.078 I0.15
G1 X24.954 Y85.668
G3 X25.25 Y85.703 I0.146 J0.034
G1 Y95.506 Z-9.842
X25.152 Y96.07 Z-9.862
X24.939 Y96.437 Z-9.877
X24.601 Y96.715 Z-9.892
X24.211 Y96.857 Z-9.907
X23.785 Y96.856 Z-9.922
X23.385 Y96.71 Z-9.937
X23.065 Y96.44 Z-9.951
X22.849 Y96.069 Z-9.966
X22.75 Y95.506 Z-9.986
Y95.112 Z-10
X22.751 Y35.776
X22.847 Y35.228
X23.059 Y34.861
X23.396 Y34.582
X23.787 Y34.44
X24.213
X24.605 Y34.582
X24.941 Y34.861
X25.149 Y35.222
X25.167 Y35.309
X25.25 Y35.776
Y95.506
X25.152 Y96.07
X24.939 Y96.437
X24.601 Y96.715
X24.211 Y96.857
X23.785 Y96.856
X23.385 Y96.71
X23.065 Y96.44
X22.849 Y96.069
X22.75 Y95.506
Y95.112
X24.952 Y81.34
G3 X25.25 Y81.364 I0.148 J0.024
G1 Y95.506 Z-10.494
X25.22 Y95.679 Z-10.5
X25.152 Y96.07
X24.939 Y96.437
X24.601 Y96.715
X24.211 Y96.857
X23.785 Y96.856
X23.385 Y96.71
X23.065 Y96.44
X22.849 Y96.069
X22.75 Y95.506
X22.751 Y35.776
X22.847 Y35.228
X23.059 Y34.861
X23.396 Y34.582
X23.787 Y34.44
X24.213
X24.605 Y34.582
X24.941 Y34.861
X25.149 Y35.222
X25.167 Y35.309
X25.25 Y35.776
Y95.506
X25.22 Y95.679
G3 X25.19 Y95.767 Z-10.485 I-0.296 J-0.052
X25.142 Y95.834 Z-10.443 I-0.266 J-0.139
X25.091 Y95.877 Z-10.376 I-0.217 J-0.207
X25.054 Y95.898 Z-10.293 I-0.167 J-0.249
X25.041 Y95.904 Z-10.2 I-0.13 J-0.271
G0 Z5
X25.25 Y88.999
G1 Z-9.675 F600
G19 G3 Y89.298 Z-9.975 J0.3
G1 Y95.506 Z-9.999
X25.152 Y96.07 Z-10.002
X24.939 Y96.437 Z-10.003
X24.601 Y96.715 Z-10.005
X24.211 Y96.857 Z-10.007
X23.785 Y96.856 Z-10.008
X23.385 Y96.71 Z-10.01
X23.065 Y96.44 Z-10.012
X22.849 Y96.069 Z-10.013
X22.75 Y95.506 Z-10.015
X22.751 Y35.776 Z-10.249
X22.847 Y35.228 Z-10.252
X23.059 Y34.861 Z-10.253
X23.396 Y34.582 Z-10.255
X23.787 Y34.44 Z-10.257
X24.213 Z-10.258
X24.605 Y34.582 Z-10.26
X24.941 Y34.861 Z-10.262
X25.149 Y35.222 Z-10.263
X25.167 Y35.309 Z-10.264
X25.25 Y35.776 Z-10.265
Y95.506 Z-10.499
X25.152 Y96.07 Z-10.502
X24.939 Y96.437 Z-10.503
X24.601 Y96.715 Z-10.505
X24.211 Y96.857 Z-10.507
X23.785 Y96.856 Z-10.508
X23.385 Y96.71 Z-10.51
X23.065 Y96.44 Z-10.512
X22.849 Y96.069 Z-10.513
X22.75 Y95.506 Z-10.515
X22.751 Y35.776 Z-10.749
X22.847 Y35.228 Z-10.752
X23.059 Y34.861 Z-10.753
X23.396 Y34.582 Z-10.755
X23.787 Y34.44 Z-10.757
X24.213 Z-10.758
X24.605 Y34.582 Z-10.76
X24.941 Y34.861 Z-10.762
X25.149 Y35.222 Z-10.763
X25.167 Y35.309 Z-10.764
X25.25 Y35.776 Z-10.765
Y95.506 Z-10.999
X25.22 Y95.679 Z-11
X25.152 Y96.07
X24.939 Y96.437
X24.601 Y96.715
X24.211 Y96.857
X23.785 Y96.856
X23.385 Y96.71
X23.065 Y96.44
X22.849 Y96.069
X22.75 Y95.506
X22.751 Y35.776
X22.847 Y35.228
X23.059 Y34.861
X23.396 Y34.582
X23.787 Y34.44
X24.213
X24.605 Y34.582
X24.941 Y34.861
X25.149 Y35.222
X25.167 Y35.309
X25.25 Y35.776
Y95.506
X25.22 Y95.679
G17 G3 X25.19 Y95.767 Z-10.985 I-0.296 J-0.052
X25.142 Y95.834 Z-10.943 I-0.266 J-0.139
X25.091 Y95.877 Z-10.876 I-0.217 J-0.207
X25.054 Y95.898 Z-10.793 I-0.167 J-0.249
X25.041 Y95.904 Z-10.7 I-0.13 J-0.271
G0 Z5
X25.25 Y88.999
G1 Z-10.175 F600
G19 G3 Y89.298 Z-10.475 J0.3
G1 Y95.506 Z-10.499
X25.152 Y96.07 Z-10.502
X24.939 Y96.437 Z-10.503
X24.601 Y96.715 Z-10.505
X24.211 Y96.857 Z-10.507
X23.785 Y96.856 Z-10.508
X23.385 Y96.71 Z-10.51
X23.065 Y96.44 Z-10.512
X22.849 Y96.069 Z-10.513
X22.75 Y95.506 Z-10.515
X22.751 Y35.776 Z-10.749
X22.847 Y35.228 Z-10.752
X23.059 Y34.861 Z-10.753
X23.396 Y34.582 Z-10.755
X23.787 Y34.44 Z-10.757
X24.213 Z-10.758
X24.605 Y34.582 Z-10.76
X24.941 Y34.861 Z-10.762
X25.149 Y35.222 Z-10.763
X25.167 Y35.309 Z-10.764
X25.25 Y35.776 Z-10.765
Y95.506 Z-10.999
X25.152 Y96.07 Z-11.002
X24.939 Y96.437 Z-11.003
X24.601 Y96.715 Z-11.005
X24.211 Y96.857 Z-11.007
X23.785 Y96.856 Z-11.008
X23.385 Y96.71 Z-11.01
X23.065 Y96.44 Z-11.012
X22.849 Y96.069 Z-11.013
X22.75 Y95.506 Z-11.015
X22.751 Y35.776 Z-11.249
X22.847 Y35.228 Z-11.252
X23.059 Y34.861 Z-11.253
X23.396 Y34.582 Z-11.255
X23.787 Y34.44 Z-11.257
X24.213 Z-11.258
X24.605 Y34.582 Z-11.26
X24.941 Y34.861 Z-11.262
X25.149 Y35.222 Z-11.263
X25.167 Y35.309 Z-11.264
X25.25 Y35.776 Z-11.265
Y95.506 Z-11.499
X25.22 Y95.679 Z-11.5
X25.152 Y96.07
X24.939 Y96.437
X24.601 Y96.715
X24.211 Y96.857
X23.785 Y96.856
X23.385 Y96.71
X23.065 Y96.44
X22.849 Y96.069
X22.75 Y95.506
X22.751 Y35.776
X22.847 Y35.228
X23.059 Y34.861
X23.396 Y34.582
X23.787 Y34.44
X24.213
X24.605 Y34.582
X24.941 Y34.861
X25.149 Y35.222
X25.167 Y35.309
X25.25 Y35.776
Y95.506
X25.22 Y95.679
G17 G3 X24.922 Y95.653 I-0.148 J-0.026
G1 X24.95 Y85.702
G3 X25.25 Y85.703 I0.15
G1 Y95.506 Z-11.842
X25.152 Y96.07 Z-11.862
X24.939 Y96.437 Z-11.877
X24.601 Y96.715 Z-11.892
X24.211 Y96.857 Z-11.907
X23.785 Y96.856 Z-11.922
X23.385 Y96.71 Z-11.937
X23.065 Y96.44 Z-11.951
X22.849 Y96.069 Z-11.966
X22.75 Y95.506 Z-11.986
Y95.112 Z-12
X22.751 Y35.776
X22.847 Y35.228
X23.059 Y34.861
X23.396 Y34.582
X23.787 Y34.44
X24.213
X24.605 Y34.582
X24.941 Y34.861
X25.149 Y35.222
X25.167 Y35.309
X25.25 Y35.776
Y95.506
X25.152 Y96.07
X24.939 Y96.437
X24.601 Y96.715
X24.211 Y96.857
X23.785 Y96.856
X23.385 Y96.71
X23.065 Y96.44
X22.849 Y96.069
X22.75 Y95.506
Y95.112
G3 X22.754 Y95.078 I0.15
G1 X24.954 Y85.668
G3 X25.25 Y85.703 I0.146 J0.034
G1 Y95.506 Z-12.342
X25.152 Y96.07 Z-12.362
X24.939 Y96.437 Z-12.377
X24.601 Y96.715 Z-12.392
X24.211 Y96.857 Z-12.407
X23.785 Y96.856 Z-12.422
X23.385 Y96.71 Z-12.437
X23.065 Y96.44 Z-12.451
X22.849 Y96.069 Z-12.466
X22.75 Y95.506 Z-12.486
Y95.112 Z-12.5
X22.751 Y35.776
X22.847 Y35.228
X23.059 Y34.861
X23.396 Y34.582
X23.787 Y34.44
X24.213
X24.605 Y34.582
X24.941 Y34.861
X25.149 Y35.222
X25.167 Y35.309
X25.25 Y35.776
Y95.506
X25.152 Y96.07
X24.939 Y96.437
X24.601 Y96.715
X24.211 Y96.857
X23.785 Y96.856
X23.385 Y96.71
X23.065 Y96.44
X22.849 Y96.069
X22.75 Y95.506
Y95.112
G3 X22.754 Y95.078 I0.15
G1 X24.954 Y85.668
G3 X25.25 Y85.703 I0.146 J0.034
G1 Y95.506 Z-12.842
X25.152 Y96.07 Z-12.862
X24.939 Y96.437 Z-12.877
X24.601 Y96.715 Z-12.892
X24.211 Y96.857 Z-12.907
X23.785 Y96.856 Z-12.922
X23.385 Y96.71 Z-12.937
X23.065 Y96.44 Z-12.951
X22.849 Y96.069 Z-12.966
X22.75 Y95.506 Z-12.986
Y95.112 Z-13
X22.751 Y35.776
X22.847 Y35.228
X23.059 Y34.861
X23.396 Y34.582
X23.787 Y34.44
X24.213
X24.605 Y34.582
X24.941 Y34.861
X25.149 Y35.222
X25.167 Y35.309
X25.25 Y35.776
Y95.506
X25.152 Y96.07
X24.939 Y96.437
X24.601 Y96.715
X24.211 Y96.857
X23.785 Y96.856
X23.385 Y96.71
X23.065 Y96.44
X22.849 Y96.069
X22.75 Y95.506
Y95.112
G3 X22.754 Y95.078 I0.15
G1 X24.954 Y85.668
G3 X25.25 Y85.703 I0.146 J0.034
G1 Y95.506 Z-13.342
X25.152 Y96.07 Z-13.362
X24.939 Y96.437 Z-13.377
X24.601 Y96.715 Z-13.392
X24.211 Y96.857 Z-13.407
X23.785 Y96.856 Z-13.422
X23.385 Y96.71 Z-13.437
X23.065 Y96.44 Z-13.451
X22.849 Y96.069 Z-13.466
X22.75 Y95.506 Z-13.486
Y95.112 Z-13.5
X22.751 Y35.776
X22.847 Y35.228
X23.059 Y34.861
X23.396 Y34.582
X23.787 Y34.44
X24.213
X24.605 Y34.582
X24.941 Y34.861
X25.149 Y35.222
X25.167 Y35.309
X25.25 Y35.776
Y95.506
X25.152 Y96.07
X24.939 Y96.437
X24.601 Y96.715
X24.211 Y96.857
X23.785 Y96.856
X23.385 Y96.71
X23.065 Y96.44
X22.849 Y96.069
X22.75 Y95.506
Y95.112
G3 X22.754 Y95.078 I0.15
G1 X24.954 Y85.668
G3 X25.25 Y85.703 I0.146 J0.034
G1 Y95.506 Z-13.842
X25.152 Y96.07 Z-13.862
X24.939 Y96.437 Z-13.877
X24.601 Y96.715 Z-13.892
X24.211 Y96.857 Z-13.907
X23.785 Y96.856 Z-13.922
X23.385 Y96.71 Z-13.937
X23.065 Y96.44 Z-13.951
X22.849 Y96.069 Z-13.966
X22.75 Y95.506 Z-13.986
Y95.112 Z-14
X22.751 Y35.776
X22.847 Y35.228
X23.059 Y34.861
X23.396 Y34.582
X23.787 Y34.44
X24.213
X24.605 Y34.582
X24.941 Y34.861
X25.149 Y35.222
X25.167 Y35.309
X25.25 Y35.776
Y95.506
X25.152 Y96.07
X24.939 Y96.437
X24.601 Y96.715
X24.211 Y96.857
X23.785 Y96.856
X23.385 Y96.71
X23.065 Y96.44
X22.849 Y96.069
X22.75 Y95.506
Y95.112
X24.952 Y81.34
G3 X25.25 Y81.364 I0.148 J0.024
G1 Y95.506 Z-14.494
X25.22 Y95.679 Z-14.5
X25.152 Y96.07
X24.939 Y96.437
X24.601 Y96.715
X24.211 Y96.857
X23.785 Y96.856
X23.385 Y96.71
X23.065 Y96.44
X22.849 Y96.069
X22.75 Y95.506
X22.751 Y35.776
X22.847 Y35.228
X23.059 Y34.861
X23.396 Y34.582
X23.787 Y34.44
X24.213
X24.605 Y34.582
X24.941 Y34.861
X25.149 Y35.222
X25.167 Y35.309
X25.25 Y35.776
Y95.506
X25.22 Y95.679
G3 X24.922 Y95.653 I-0.148 J-0.026
G1 X24.95 Y85.484
G3 X25.1 Y85.335 I0.15
X25.25 Y85.485 J0.15
G1 Y95.506 Z-14.85
X25.152 Y96.07 Z-14.87
X24.939 Y96.437 Z-14.885
X24.601 Y96.715 Z-14.9
X24.211 Y96.857 Z-14.915
X23.785 Y96.856 Z-14.929
X23.385 Y96.71 Z-14.944
X23.065 Y96.44 Z-14.959
X22.849 Y96.069 Z-14.974
X22.75 Y95.506 Z-14.994
Y95.33 Z-15
X22.751 Y35.776
X22.847 Y35.228
X23.059 Y34.861
X23.396 Y34.582
X23.787 Y34.44
X24.213
X24.605 Y34.582
X24.941 Y34.861
X25.149 Y35.222
X25.167 Y35.309
X25.25 Y35.776
Y95.506
X25.152 Y96.07
X24.939 Y96.437
X24.601 Y96.715
X24.211 Y96.857
X23.785 Y96.856
X23.385 Y96.71
X23.065 Y96.44
X22.849 Y96.069
X22.75 Y95.506
Y95.33
G3 X22.754 Y95.296 I0.15
G1 X24.954 Y85.669
G3 X25.25 Y85.703 I0.146 J0.033
G1 Y95.506 Z-15.342
X25.152 Y96.07 Z-15.362
X24.939 Y96.437 Z-15.377
X24.601 Y96.715 Z-15.392
X24.211 Y96.857 Z-15.407
X23.785 Y96.856 Z-15.422
X23.385 Y96.71 Z-15.437
X23.065 Y96.44 Z-15.451
X22.849 Y96.069 Z-15.466
X22.75 Y95.506 Z-15.486
Y95.112 Z-15.5
X22.751 Y35.776
X22.847 Y35.228
X23.059 Y34.861
X23.396 Y34.582
X23.787 Y34.44
X24.213
X24.605 Y34.582
X24.941 Y34.861
X25.149 Y35.222
X25.167 Y35.309
X25.25 Y35.776
Y95.506
X25.152 Y96.07
X24.939 Y96.437
X24.601 Y96.715
X24.211 Y96.857
X23.785 Y96.856
X23.385 Y96.71
X23.065 Y96.44
X22.849 Y96.069
X22.75 Y95.506
Y95.112
X24.952 Y81.34
G3 X25.25 Y81.364 I0.148 J0.024
G1 Y95.506 Z-15.994
X25.22 Y95.679 Z-16
X25.152 Y96.07
X24.939 Y96.437
X24.601 Y96.715
X24.211 Y96.857
X23.785 Y96.856
X23.385 Y96.71
X23.065 Y96.44
X22.849 Y96.069
X22.75 Y95.506
X22.751 Y35.776
X22.847 Y35.228
X23.059 Y34.861
X23.396 Y34.582
X23.787 Y34.44
X24.213
X24.605 Y34.582
X24.941 Y34.861
X25.149 Y35.222
X25.167 Y35.309
X25.25 Y35.776
Y95.506
X25.22 Y95.679
G3 X24.922 Y95.653 I-0.148 J-0.026
G1 X24.95 Y85.702
G3 X25.1 Y85.552 I0.15
X25.25 Y85.703 J0.15
G1 Y95.506 Z-16.342
X25.152 Y96.07 Z-16.362
X24.939 Y96.437 Z-16.377
X24.601 Y96.715 Z-16.392
X24.211 Y96.857 Z-16.407
X23.785 Y96.856 Z-16.422
X23.385 Y96.71 Z-16.437
X23.065 Y96.44 Z-16.451
X22.849 Y96.069 Z-16.466
X22.75 Y95.506 Z-16.486
Y95.112 Z-16.5
X22.751 Y35.776
X22.847 Y35.228
X23.059 Y34.861
X23.396 Y34.582
X23.787 Y34.44
X24.213
X24.605 Y34.582
X24.941 Y34.861
X25.149 Y35.222
X25.167 Y35.309
X25.25 Y35.776
Y95.506
X25.152 Y96.07
X24.939 Y96.437
X24.601 Y96.715
X24.211 Y96.857
X23.785 Y96.856
X23.385 Y96.71
X23.065 Y96.44
X22.849 Y96.069
X22.75 Y95.506
Y95.112
G3 X22.754 Y95.078 I0.15
G1 X24.954 Y85.668
G3 X25.25 Y85.703 I0.146 J0.034
G1 Y95.506 Z-16.842
X25.152 Y96.07 Z-16.862
X24.939 Y96.437 Z-16.877
X24.601 Y96.715 Z-16.892
X24.211 Y96.857 Z-16.907
X23.785 Y96.856 Z-16.922
X23.385 Y96.71 Z-16.937
X23.065 Y96.44 Z-16.951
X22.849 Y96.069 Z-16.966
X22.75 Y95.506 Z-16.986
Y95.112 Z-17
X22.751 Y35.776
X22.847 Y35.228
X23.059 Y34.861
X23.396 Y34.582
X23.787 Y34.44
X24.213
X24.605 Y34.582
X24.941 Y34.861
X25.149 Y35.222
X25.167 Y35.309
X25.25 Y35.776
Y95.506
X25.152 Y96.07
X24.939 Y96.437
X24.601 Y96.715
X24.211 Y96.857
X23.785 Y96.856
X23.385 Y96.71
X23.065 Y96.44
X22.849 Y96.069
X22.75 Y95.506
Y95.112
X24.952 Y81.34
G3 X25.25 Y81.364 I0.148 J0.024
G1 Y95.506 Z-17.494
X25.22 Y95.679 Z-17.5
X25.152 Y96.07
X24.939 Y96.437
X24.601 Y96.715
X24.211 Y96.857
X23.785 Y96.856
X23.385 Y96.71
X23.065 Y96.44
X22.849 Y96.069
X22.75 Y95.506
X22.751 Y35.776
X22.847 Y35.228
X23.059 Y34.861
X23.396 Y34.582
X23.787 Y34.44
X24.213
X24.605 Y34.582
X24.941 Y34.861
X25.149 Y35.222
X25.167 Y35.309
X25.25 Y35.776
Y95.506
X25.22 Y95.679
G3 X24.922 Y95.653 I-0.148 J-0.026
G1 X24.95 Y85.702
G3 X25.1 Y85.552 I0.15
X25.25 Y85.703 J0.15
G1 Y95.506 Z-17.842
X25.152 Y96.07 Z-17.862
X24.939 Y96.437 Z-17.877
X24.601 Y96.715 Z-17.892
X24.211 Y96.857 Z-17.907
X23.785 Y96.856 Z-17.922
X23.385 Y96.71 Z-17.937
X23.065 Y96.44 Z-17.951
X22.849 Y96.069 Z-17.966
X22.75 Y95.506 Z-17.986
Y95.112 Z-18
X22.751 Y35.776
X22.847 Y35.228
X23.059 Y34.861
X23.396 Y34.582
X23.787 Y34.44
X24.213
X24.605 Y34.582
X24.941 Y34.861
X25.149 Y35.222
X25.167 Y35.309
X25.25 Y35.776
Y95.506
X25.152 Y96.07
X24.939 Y96.437
X24.601 Y96.715
X24.211 Y96.857
X23.785 Y96.856
X23.385 Y96.71
X23.065 Y96.44
X22.849 Y96.069
X22.75 Y95.506
Y95.112
G3 X22.754 Y95.078 I0.15
G1 X24.954 Y85.668
G3 X25.25 Y85.703 I0.146 J0.034
G1 Y95.506 Z-18.342
X25.152 Y96.07 Z-18.362
X24.939 Y96.437 Z-18.377
X24.601 Y96.715 Z-18.392
X24.211 Y96.857 Z-18.407
X23.785 Y96.856 Z-18.422
X23.385 Y96.71 Z-18.437
X23.065 Y96.44 Z-18.451
X22.849 Y96.069 Z-18.466
X22.75 Y95.506 Z-18.486
Y95.112 Z-18.5
X22.751 Y35.776
X22.847 Y35.228
X23.059 Y34.861
X23.396 Y34.582
X23.787 Y34.44
X24.213
X24.605 Y34.582
X24.941 Y34.861
X25.149 Y35.222
X25.167 Y35.309
X25.25 Y35.776
Y95.506
X25.152 Y96.07
X24.939 Y96.437
X24.601 Y96.715
X24.211 Y96.857
X23.785 Y96.856
X23.385 Y96.71
X23.065 Y96.44
X22.849 Y96.069
X22.75 Y95.506
Y95.112
G3 X22.754 Y95.078 I0.15
G1 X24.954 Y85.668
G3 X25.25 Y85.703 I0.146 J0.034
G1 Y95.506 Z-18.842
X25.152 Y96.07 Z-18.862
X24.939 Y96.437 Z-18.877
X24.601 Y96.715 Z-18.892
X24.211 Y96.857 Z-18.907
X23.785 Y96.856 Z-18.922
X23.385 Y96.71 Z-18.937
X23.065 Y96.44 Z-18.951
X22.849 Y96.069 Z-18.966
X22.75 Y95.506 Z-18.986
Y95.112 Z-19
X22.751 Y35.776
X22.847 Y35.228
X23.059 Y34.861
X23.396 Y34.582
X23.787 Y34.44
X24.213
X24.605 Y34.582
X24.941 Y34.861
X25.149 Y35.222
X25.167 Y35.309
X25.25 Y35.776
Y95.506
X25.152 Y96.07
X24.939 Y96.437
X24.601 Y96.715
X24.211 Y96.857
X23.785 Y96.856
X23.385 Y96.71
X23.065 Y96.44
X22.849 Y96.069
X22.75 Y95.506
Y95.112
G3 X22.754 Y95.078 I0.15
G1 X24.954 Y85.668
G3 X25.25 Y85.703 I0.146 J0.034
G1 Y95.506 Z-19.342
X25.152 Y96.07 Z-19.362
X24.939 Y96.437 Z-19.377
X24.601 Y96.715 Z-19.392
X24.211 Y96.857 Z-19.407
X23.785 Y96.856 Z-19.422
X23.385 Y96.71 Z-19.437
X23.065 Y96.44 Z-19.451
X22.849 Y96.069 Z-19.466
X22.75 Y95.506 Z-19.486
Y95.112 Z-19.5
X22.751 Y35.776
X22.847 Y35.228
X23.059 Y34.861
X23.396 Y34.582
X23.787 Y34.44
X24.213
X24.605 Y34.582
X24.941 Y34.861
X25.149 Y35.222
X25.167 Y35.309
X25.25 Y35.776
Y95.506
X25.152 Y96.07
X24.939 Y96.437
X24.601 Y96.715
X24.211 Y96.857
X23.785 Y96.856
X23.385 Y96.71
X23.065 Y96.44
X22.849 Y96.069
X22.75 Y95.506
Y95.112
G3 X22.754 Y95.078 I0.15
G1 X24.954 Y85.668
G3 X25.25 Y85.703 I0.146 J0.034
G1 Y95.506 Z-19.842
X25.152 Y96.07 Z-19.862
X24.939 Y96.437 Z-19.877
X24.601 Y96.715 Z-19.892
X24.211 Y96.857 Z-19.907
X23.785 Y96.856 Z-19.922
X23.385 Y96.71 Z-19.937
X23.065 Y96.44 Z-19.951
X22.849 Y96.069 Z-19.966
X22.75 Y95.506 Z-19.986
Y95.112 Z-20
X22.751 Y35.776
X22.847 Y35.228
X23.059 Y34.861
X23.396 Y34.582
X23.787 Y34.44
X24.213
X24.605 Y34.582
X24.941 Y34.861
X25.149 Y35.222
X25.167 Y35.309
X25.25 Y35.776
Y95.506
X25.152 Y96.07
X24.939 Y96.437
X24.601 Y96.715
X24.211 Y96.857
X23.785 Y96.856
X23.385 Y96.71
X23.065 Y96.44
X22.849 Y96.069
X22.75 Y95.506
Y95.112
G3 X22.764 Y95.021 Z-19.985 I0.3
X22.801 Y94.946 Z-19.943 I0.286 J0.091
X22.843 Y94.895 Z-19.876 I0.25 J0.166
X22.876 Y94.868 Z-19.793 I0.207 J0.217
X22.888 Y94.859 Z-19.7 I0.174 J0.244
G0 Z5
X26.186 Y121.764
Z0.825
G3 X26.191 Y121.777 Z0.734 I-1.323 J0.53 F600
X26.205 Y121.815 Z0.652 I-1.328 J0.517
X26.225 Y121.876 Z0.586 I-1.342 J0.478
X26.247 Y121.954 Z0.542 I-1.362 J0.418
X26.266 Y122.042 Z0.525 I-1.384 J0.34
X23.46 Y122.545 Z0.369 I-1.403 J0.252
X26.266 Y122.042 Z0.212 I1.403 J-0.252
X23.46 Y122.545 Z0.056 I-1.403 J0.252
X26.266 Y122.042 Z-0.1 I1.403 J-0.252
X23.46 Y122.545 Z-0.257 I-1.403 J0.252
X26.266 Y122.042 Z-0.413 I1.403 J-0.252
X24.863 Y123.719 Z-0.5 I-1.403 J0.252
G1 X23.17
G3 Y122.014 J-0.853
G1 X25.045
G3 X25.716 Y122.684 J0.671
G1 X25.715 Y123.048
G3 X25.045 Y123.719 I-0.671
G1 X24.863
G2 X23.204 Y124.824 J1.797
G3 X21.546 Y125.93 I-1.659 J-0.691
G1 X20.971
G3 X20.073 Y125.031 J-0.899
G1 Y120.712
G3 X20.983 Y119.802 I0.91
G1 X27.017
G3 X27.927 Y120.712 J0.91
G1 Y125.02
G3 X27.017 Y125.93 I-0.91
G1 X21.546
G2 X19.814 Y126.96 J1.97
G3 X17.861 Y126.464 I-0.914 J-0.496
G1 Y118.5
G3 X18.771 Y117.59 I0.91
G1 X29.229
G3 X30.139 Y118.5 J0.91
G1 Y127.232
G3 X29.228 Y128.142 I-0.91
G1 X18.76
G3 X17.861 Y127.243 J-0.899
G1 Y126.464
G2 X16.755 Y124.806 I-1.797
G3 X15.649 Y123.147 I0.691 J-1.659
G1 Y116.289
G3 X16.559 Y115.379 I0.91
G1 X31.441
G3 X32.351 Y116.289 J0.91
G1 X32.35 Y129.443
G3 X31.44 Y130.353 I-0.91
G1 X16.548
G3 X15.649 Y129.455 J-0.899
G1 Y123.147
G2 X14.543 Y121.488 I-1.797
G3 X13.438 Y119.83 I0.691 J-1.659
G1 Y114.077
G3 X14.348 Y113.167 I0.91
G1 X33.652
G3 X34.562 Y114.077 J0.91
G1 Y131.655
G3 X33.651 Y132.565 I-0.91
G1 X14.336
G3 X13.438 Y131.666 J-0.899
G1 Y119.83
G2 X12.332 Y118.171 I-1.797
G3 X11.226 Y116.512 I0.691 J-1.659
G1 Y111.866
G3 X12.136 Y110.955 I0.91
G1 X35.864
G3 X36.774 Y111.866 J0.91
G1 X36.773 Y133.866
G3 X35.863 Y134.777 I-0.91
G1 X12.125
G3 X11.226 Y133.878 J-0.899
G1 Y116.512
G2 X10.113 Y114.843 I-1.809
G3 X9 Y113.173 I0.696 J-1.669
G1 Y108.722
X9.741 Y108.729
X9.748 Y108.73
X38.683
G2 X38.699 Y108.729 J-0.75
G1 X39 Y108.723
X38.999 Y136.986
X38.996 Y137.001
X38.989 Y137.003
X9.011 Y137.002
X9.005 Y137.001
X9 Y136.96
Y113.173
G3 X9.014 Y113.082 Z-0.485 I0.3
X9.051 Y113.007 Z-0.443 I0.286 J0.091
X9.093 Y112.956 Z-0.376 I0.25 J0.166
X9.126 Y112.929 Z-0.293 I0.207 J0.217
X9.138 Y112.921 Z-0.2 I0.174 J0.244
G0 Z5
X23.761 Y121.976
Z0.325
G3 X23.774 Y121.971 Z0.234 I0.53 J1.323 F600
X23.812 Y121.957 Z0.152 I0.517 J1.328
X23.873 Y121.937 Z0.086 I0.478 J1.342
X23.951 Y121.915 Z0.042 I0.418 J1.362
X24.039 Y121.896 Z0.025 I0.34 J1.384
X24.542 Y124.702 Z-0.131 I0.252 J1.403
X24.039 Y121.896 Z-0.288 I-0.252 J-1.403
X24.542 Y124.702 Z-0.444 I0.252 J1.403
X24.039 Y121.896 Z-0.6 I-0.252 J-1.403
X24.542 Y124.702 Z-0.757 I0.252 J1.403
X24.039 Y121.896 Z-0.913 I-0.252 J-1.403
X25.716 Y123.299 Z-1 I0.252 J1.403
G1 Y123.348
G3 X25.345 Y123.719 I-0.371
G1 X22.943
G3 Y122.88 J-0.42
G1 X25.345
G3 X25.716 Y123.25 J0.371
G1 Y123.299
G2 X26.551 Y124.494 I1.272
G3 X26.297 Y125.93 I-0.254 J0.696
G1 X20.971
G3 X20.073 Y125.031 J-0.899
G1 Y121.578
G3 X20.983 Y120.668 I0.91
G1 X27.017
G3 X27.927 Y121.578 J0.91
G1 Y125.02
G3 X27.017 Y125.93 I-0.91
G1 X26.297
G2 X24.638 Y127.036 J1.797
G3 X22.98 Y128.142 I-1.659 J-0.691
G1 X18.76
G3 X17.861 Y127.243 J-0.899
G1 Y119.366
G3 X18.771 Y118.456 I0.91
G1 X29.229
G3 X30.139 Y119.366 J0.91
G1 Y127.232
G3 X29.228 Y128.142 I-0.91
G1 X22.98
G2 X21.321 Y129.248 J1.797
G3 X19.662 Y130.353 I-1.659 J-0.691
G1 X16.548
G3 X15.649 Y129.455 J-0.899
G1 Y117.155
G3 X16.559 Y116.245 I0.91
G1 X31.441
G3 X32.351 Y117.155 J0.91
G1 X32.35 Y129.443
G3 X31.44 Y130.353 I-0.91
G1 X19.662
G2 X18.003 Y131.459 J1.797
G3 X16.345 Y132.565 I-1.659 J-0.691
G1 X14.336
G3 X13.438 Y131.666 J-0.899
G1 Y114.943
G3 X14.348 Y114.033 I0.91
G1 X33.652
G3 X34.562 Y114.943 J0.91
G1 Y131.655
G3 X33.651 Y132.565 I-0.91
G1 X16.345
G2 X14.686 Y133.671 J1.797
G3 X13.027 Y134.777 I-1.659 J-0.691
G1 X12.125
G3 X11.226 Y133.878 J-0.899
G1 Y112.732
G3 X12.136 Y111.821 I0.91
G1 X35.864
G3 X36.774 Y112.732 J0.91
G1 X36.773 Y133.866
G3 X35.863 Y134.777 I-0.91
G1 X13.027
G2 X11.358 Y135.89 J1.809
G3 X9.689 Y137.002 I-1.669 J-0.696
G1 X9.011
X9.005 Y137.001
X9 Y136.96
Y109.588
X9.741 Y109.596
X9.748
X38.683
G2 X38.699 Y109.595 J-0.75
G1 X39 Y109.589
X38.999 Y136.986
X38.996 Y137.001
X38.989 Y137.003
X9.689 Y137.002
G3 X9.597 Y136.988 Z-0.985 J-0.3
X9.522 Y136.952 Z-0.943 I0.091 J-0.286
X9.471 Y136.91 Z-0.876 I0.166 J-0.25
X9.444 Y136.877 Z-0.793 I0.217 J-0.207
X9.436 Y136.865 Z-0.7 I0.244 J-0.174
G0 Z5
X27.052 Y122.493
Z1.5
G1 Z-0.175 F600
G3 X27.057 Y122.506 Z-0.266 I-1.323 J0.53
X27.071 Y122.545 Z-0.348 I-1.328 J0.517
X27.091 Y122.605 Z-0.414 I-1.342 J0.478
X27.113 Y122.683 Z-0.458 I-1.362 J0.418
X27.132 Y122.771 Z-0.475 I-1.384 J0.34
X24.326 Y123.275 Z-0.631 I-1.403 J0.252
X27.132 Y122.771 Z-0.788 I1.403 J-0.252
X24.326 Y123.275 Z-0.944 I-1.403 J0.252
X27.132 Y122.771 Z-1.1 I1.403 J-0.252
X24.326 Y123.275 Z-1.257 I-1.403 J0.252
X27.132 Y122.771 Z-1.413 I1.403 J-0.252
X25.729 Y124.448 Z-1.5 I-1.403 J0.252
G1 X22.379
G3 X21.663 Y123.732 J-0.716
X22.379 Y123.016 I0.716
G1 X25.774
G3 X26.445 Y123.687 J0.671
G1 Y123.777
G3 X25.774 Y124.448 I-0.671
G1 X25.729
G2 X24.617 Y125.189 J1.204
G3 X23.506 Y125.93 I-1.112 J-0.463
G1 X20.983
G3 X20.073 Y125.02 J-0.91
G1 Y122.444
G3 X20.983 Y121.534 I0.91
G1 X27.017
G3 X27.927 Y122.444 J0.91
G1 Y125.02
G3 X27.017 Y125.93 I-0.91
G1 X23.506
G2 X21.847 Y127.036 J1.797
G3 X20.188 Y128.142 I-1.659 J-0.691
G1 X18.771
G3 X17.861 Y127.232 J-0.91
G1 Y120.232
G3 X18.771 Y119.322 I0.91
G1 X29.229
G3 X30.139 Y120.232 J0.91
G1 Y127.232
G3 X29.228 Y128.142 I-0.91
G1 X20.188
G2 X18.529 Y129.248 J1.797
G3 X16.871 Y130.353 I-1.659 J-0.691
G1 X16.559
G3 X15.649 Y129.443 J-0.91
G1 Y118.021
G3 X16.559 Y117.111 I0.91
G1 X31.441
G3 X32.351 Y118.021 J0.91
G1 X32.35 Y129.443
G3 X31.44 Y130.353 I-0.91
G1 X16.871
G2 X15.212 Y131.203 J2.044
G3 X13.438 Y130.631 I-0.795 J-0.572
G1 Y115.809
G3 X14.348 Y114.899 I0.91
G1 X33.652
G3 X34.562 Y115.809 J0.91
G1 Y131.655
G3 X33.651 Y132.565 I-0.91
G1 X14.348
G3 X13.438 Y131.655 J-0.91
G1 Y130.631
G2 X12.332 Y128.973 I-1.797
G3 X11.226 Y127.314 I0.691 J-1.659
G1 Y113.598
G3 X12.136 Y112.687 I0.91
G1 X35.864
G3 X36.774 Y113.598 J0.91
G1 X36.773 Y133.866
G3 X35.863 Y134.777 I-0.91
G1 X12.136
G3 X11.226 Y133.866 J-0.91
G1 Y127.314
G2 X10.113 Y125.644 I-1.809
G3 X9 Y123.975 I0.696 J-1.669
G1 Y110.454
X9.741 Y110.462
X9.748
X38.683
G2 X38.699 Y110.461 J-0.75
G1 X39 Y110.455
X38.999 Y136.986
X38.996 Y137.001
X38.989 Y137.003
X9.011 Y137.002
X9.005 Y137.001
X9 Y136.96
Y123.975
G3 X9.014 Y123.884 Z-1.485 I0.3
X9.051 Y123.809 Z-1.443 I0.286 J0.091
X9.093 Y123.758 Z-1.376 I0.25 J0.166
X9.126 Y123.731 Z-1.293 I0.207 J0.217
X9.138 Y123.723 Z-1.2 I0.174 J0.244
G0 Z5
X27.485 Y122.783
Z-0.675
G3 X27.49 Y122.796 Z-0.766 I-1.323 J0.53 F600
X27.504 Y122.835 Z-0.848 I-1.328 J0.517
X27.524 Y122.895 Z-0.914 I-1.342 J0.478
X27.546 Y122.973 Z-0.958 I-1.362 J0.418
X27.565 Y123.061 Z-0.975 I-1.384 J0.34
X24.759 Y123.565 Z-1.131 I-1.403 J0.252
X27.565 Y123.061 Z-1.288 I1.403 J-0.252
X24.759 Y123.565 Z-1.444 I-1.403 J0.252
X27.565 Y123.061 Z-1.6 I1.403 J-0.252
X24.759 Y123.565 Z-1.757 I-1.403 J0.252
X27.565 Y123.061 Z-1.913 I1.403 J-0.252
X26.162 Y124.738 Z-2 I-1.403 J0.252
G1 X21.764
G3 X21.265 Y124.239 J-0.499
G1 Y124.091
G3 X21.764 Y123.592 I0.499
G1 X26.236
G3 X26.735 Y124.091 J0.499
G1 Y124.239
G3 X26.236 Y124.738 I-0.499
G1 X26.162
G2 X25.268 Y125.334 J0.969
G3 X24.374 Y125.93 I-0.894 J-0.373
G1 X20.983
G3 X20.073 Y125.02 J-0.91
G1 Y123.31
G3 X20.983 Y122.4 I0.91
G1 X27.017
G3 X27.927 Y123.31 J0.91
G1 Y125.02
G3 X27.017 Y125.93 I-0.91
G1 X24.374
G2 X22.715 Y127.036 J1.797
G3 X21.056 Y128.142 I-1.659 J-0.691
G1 X18.771
G3 X17.861 Y127.232 J-0.91
G1 Y121.098
G3 X18.771 Y120.188 I0.91
G1 X29.229
G3 X30.139 Y121.098 J0.91
G1 Y127.232
G3 X29.228 Y128.142 I-0.91
G1 X21.056
G2 X19.398 Y129.248 J1.797
G3 X17.739 Y130.353 I-1.659 J-0.691
G1 X16.559
G3 X15.649 Y129.443 J-0.91
G1 Y118.887
G3 X16.559 Y117.977 I0.91
G1 X31.441
G3 X32.351 Y118.887 J0.91
G1 X32.35 Y129.443
G3 X31.44 Y130.353 I-0.91
G1 X17.739
G2 X16.08 Y131.459 J1.797
G3 X14.421 Y132.565 I-1.659 J-0.691
G1 X14.348
G3 X13.438 Y131.655 J-0.91
G1 Y116.675
G3 X14.348 Y115.765 I0.91
G1 X33.652
G3 X34.562 Y116.675 J0.91
G1 Y131.655
G3 X33.651 Y132.565 I-0.91
G1 X14.421
G2 X12.947 Y133.523 J1.614
G3 X11.226 Y133.158 I-0.822 J-0.365
G1 Y114.464
G3 X12.136 Y113.553 I0.91
G1 X35.864
G3 X36.774 Y114.464 J0.91
G1 X36.773 Y133.866
G3 X35.863 Y134.777 I-0.91
G1 X12.136
G3 X11.226 Y133.866 J-0.91
G1 Y133.158
G2 X10.113 Y131.489 I-1.809
G3 X9 Y129.819 I0.696 J-1.669
G1 Y111.32
X9.741 Y111.328
X9.748
X38.683
G2 X38.699 Y111.327 J-0.75
G1 X39 Y111.321
X38.999 Y136.986
X38.996 Y137.001
X38.989 Y137.003
X9.011 Y137.002
X9.005 Y137.001
X9 Y136.96
Y129.819
G3 X9.014 Y129.728 Z-1.985 I0.3
X9.051 Y129.653 Z-1.943 I0.286 J0.091
X9.093 Y129.602 Z-1.876 I0.25 J0.166
X9.126 Y129.575 Z-1.793 I0.207 J0.217
X9.138 Y129.567 Z-1.7 I0.174 J0.244
G0 Z5
X25.973 Y123.275
Z-1.175
G3 X25.986 Y123.27 Z-1.266 I0.53 J1.323 F600
X26.024 Y123.256 Z-1.348 I0.517 J1.328
X26.084 Y123.236 Z-1.414 I0.478 J1.342
X26.162 Y123.214 Z-1.458 I0.418 J1.362
X26.25 Y123.195 Z-1.475 I0.34 J1.384
X26.754 Y126.001 Z-1.631 I0.252 J1.403
X26.25 Y123.195 Z-1.788 I-0.252 J-1.403
X26.754 Y126.001 Z-1.944 I0.252 J1.403
X26.25 Y123.195 Z-2.1 I-0.252 J-1.403
X26.754 Y126.001 Z-2.257 I0.252 J1.403
X26.25 Y123.195 Z-2.413 I-0.252 J-1.403
X27.927 Y124.598 Z-2.5 I0.252 J1.403
G1 Y125.02
G3 X27.017 Y125.93 I-0.91
G1 X20.971
G3 X20.073 Y125.031 J-0.899
G1 Y124.176
G3 X20.983 Y123.266 I0.91
G1 X27.017
G3 X27.927 Y124.176 J0.91
G1 Y124.598
G2 X28.855 Y126.29 I2.005
G3 X28.315 Y128.142 I-0.54 J0.847
G1 X18.76
G3 X17.861 Y127.243 J-0.899
G1 Y121.965
G3 X18.771 Y121.054 I0.91
G1 X29.229
G3 X30.139 Y121.964 J0.91
G1 Y127.232
G3 X29.228 Y128.142 I-0.91
G1 X28.315
G2 X26.657 Y129.248 J1.797
G3 X24.998 Y130.353 I-1.659 J-0.691
G1 X16.548
G3 X15.649 Y129.455 J-0.899
G1 Y119.753
G3 X16.559 Y118.843 I0.91
G1 X31.441
G3 X32.351 Y119.753 J0.91
G1 X32.35 Y129.443
G3 X31.44 Y130.353 I-0.91
G1 X24.998
G2 X23.339 Y131.459 J1.797
G3 X21.68 Y132.565 I-1.659 J-0.691
G1 X14.336
G3 X13.438 Y131.666 J-0.899
G1 Y117.541
G3 X14.348 Y116.631 I0.91
G1 X33.652
G3 X34.562 Y117.541 J0.91
G1 Y131.655
G3 X33.651 Y132.565 I-0.91
G1 X21.68
G2 X20.022 Y133.671 J1.797
G3 X18.363 Y134.777 I-1.659 J-0.691
G1 X12.125
G3 X11.226 Y133.878 J-0.899
G1 Y115.33
G3 X12.136 Y114.42 I0.91
G1 X35.864
G3 X36.774 Y115.33 J0.91
G1 X36.773 Y133.866
G3 X35.863 Y134.777 I-0.91
G1 X18.363
G2 X16.694 Y135.89 J1.809
G3 X15.024 Y137.002 I-1.669 J-0.696
G1 X9.011
X9.005 Y137.001
X9 Y136.96
Y112.186
X9.741 Y112.194
X9.748
X38.683
G2 X38.699 Y112.193 J-0.75
G1 X39 Y112.187
X38.999 Y136.986
X38.996 Y137.001
X38.989 Y137.003
X15.024 Y137.002
G3 X14.933 Y136.988 Z-2.485 J-0.3
X14.858 Y136.952 Z-2.443 I0.091 J-0.286
X14.807 Y136.91 Z-2.376 I0.166 J-0.25
X14.78 Y136.877 Z-2.293 I0.217 J-0.207
X14.772 Y136.865 Z-2.2 I0.244 J-0.174
G0 Z5
X28.351 Y123.976
Z-1.675
G3 X28.356 Y123.989 Z-1.766 I-1.323 J0.53 F600
X28.37 Y124.027 Z-1.848 I-1.328 J0.517
X28.39 Y124.087 Z-1.914 I-1.342 J0.478
X28.412 Y124.165 Z-1.958 I-1.362 J0.418
X28.431 Y124.253 Z-1.975 I-1.384 J0.34
X25.625 Y124.757 Z-2.131 I-1.403 J0.252
X28.431 Y124.253 Z-2.288 I1.403 J-0.252
X25.625 Y124.757 Z-2.444 I-1.403 J0.252
X28.431 Y124.253 Z-2.6 I1.403 J-0.252
X25.625 Y124.757 Z-2.757 I-1.403 J0.252
X28.431 Y124.253 Z-2.913 I1.403 J-0.252
X27.028 Y125.93 Z-3 I-1.403 J0.252
G1 X20.978
G3 X20.079 Y125.031 J-0.899
X20.978 Y124.132 I0.899
G1 X27.028
G3 X27.927 Y125.031 J0.899
X27.028 Y125.93 I-0.899
G2 X25.369 Y127.036 J1.797
G3 X23.711 Y128.142 I-1.659 J-0.691
G1 X18.76
G3 X17.861 Y127.243 J-0.899
G1 Y122.831
G3 X18.771 Y121.92 I0.91
G1 X29.229
G3 X30.139 Y122.831 J0.91
G1 Y127.232
G3 X29.228 Y128.142 I-0.91
G1 X23.711
G2 X22.052 Y129.248 J1.797
G3 X20.393 Y130.353 I-1.659 J-0.691
G1 X16.548
G3 X15.649 Y129.455 J-0.899
G1 Y120.619
G3 X16.559 Y119.709 I0.91
G1 X31.441
G3 X32.351 Y120.619 J0.91
G1 X32.35 Y129.443
G3 X31.44 Y130.353 I-0.91
G1 X20.393
G2 X18.734 Y131.459 J1.797
G3 X17.076 Y132.565 I-1.659 J-0.691
G1 X14.336
G3 X13.438 Y131.666 J-0.899
G1 Y118.407
G3 X14.348 Y117.497 I0.91
G1 X33.652
G3 X34.562 Y118.407 J0.91
G1 Y131.655
G3 X33.651 Y132.565 I-0.91
G1 X17.076
G2 X15.417 Y133.671 J1.797
G3 X13.758 Y134.777 I-1.659 J-0.691
G1 X12.125
G3 X11.226 Y133.878 J-0.899
G1 Y116.196
G3 X12.136 Y115.286 I0.91
G1 X35.864
G3 X36.774 Y116.196 J0.91
G1 X36.773 Y133.866
G3 X35.863 Y134.777 I-0.91
G1 X13.758
G2 X12.089 Y135.89 J1.809
G3 X10.42 Y137.002 I-1.669 J-0.696
G1 X9.011
X9.005 Y137.001
X9 Y136.96
Y113.052
X9.741 Y113.06
X9.748
X38.683
G2 X38.699 J-0.75
G1 X39 Y113.053
X38.999 Y136.986
X38.996 Y137.001
X38.989 Y137.003
X10.42 Y137.002
G3 X10.328 Y136.988 Z-2.985 J-0.3
X10.253 Y136.952 Z-2.943 I0.091 J-0.286
X10.202 Y136.91 Z-2.876 I0.166 J-0.25
X10.175 Y136.877 Z-2.793 I0.217 J-0.207
X10.167 Y136.865 Z-2.7 I0.244 J-0.174
G0 Z5
X28.784 Y123.976
Z-2.175
G3 X28.789 Y123.989 Z-2.266 I-1.323 J0.53 F600
X28.803 Y124.027 Z-2.348 I-1.328 J0.517
X28.823 Y124.087 Z-2.414 I-1.342 J0.478
X28.845 Y124.165 Z-2.458 I-1.362 J0.418
X28.864 Y124.253 Z-2.475 I-1.384 J0.34
X26.058 Y124.757 Z-2.631 I-1.403 J0.252
X28.864 Y124.253 Z-2.788 I1.403 J-0.252
X26.058 Y124.757 Z-2.944 I-1.403 J0.252
X28.864 Y124.253 Z-3.1 I1.403 J-0.252
X26.058 Y124.757 Z-3.257 I-1.403 J0.252
X28.864 Y124.253 Z-3.413 I1.403 J-0.252
X27.461 Y125.93 Z-3.5 I-1.403 J0.252
G1 X20.761
G3 Y124.998 J-0.466
G1 X27.556
G3 X27.927 Y125.369 J0.371
G1 Y125.559
G3 X27.556 Y125.93 I-0.371
G1 X27.461
G2 X25.802 Y127.036 J1.797
G3 X24.144 Y128.142 I-1.659 J-0.691
G1 X18.76
G3 X17.861 Y127.243 J-0.899
G1 Y123.697
G3 X18.771 Y122.786 I0.91
G1 X29.229
G3 X30.139 Y123.697 J0.91
G1 Y127.232
G3 X29.228 Y128.142 I-0.91
G1 X24.144
G2 X22.485 Y129.248 J1.797
G3 X20.826 Y130.353 I-1.659 J-0.691
G1 X16.548
G3 X15.649 Y129.455 J-0.899
G1 Y121.485
G3 X16.559 Y120.575 I0.91
G1 X31.441
G3 X32.351 Y121.485 J0.91
G1 X32.35 Y129.443
G3 X31.44 Y130.353 I-0.91
G1 X20.826
G2 X19.168 Y131.459 J1.797
G3 X17.509 Y132.565 I-1.659 J-0.691
G1 X14.336
G3 X13.438 Y131.666 J-0.899
G1 Y119.273
G3 X14.348 Y118.363 I0.91
G1 X33.652
G3 X34.562 Y119.273 J0.91
G1 Y131.655
G3 X33.651 Y132.565 I-0.91
G1 X17.509
G2 X15.85 Y133.671 J1.797
G3 X14.191 Y134.777 I-1.659 J-0.691
G1 X12.125
G3 X11.226 Y133.878 J-0.899
G1 Y117.062
G3 X12.136 Y116.152 I0.91
G1 X35.864
G3 X36.774 Y117.062 J0.91
G1 X36.773 Y133.866
G3 X35.863 Y134.777 I-0.91
G1 X14.191
G2 X12.522 Y135.89 J1.809
G3 X10.853 Y137.002 I-1.669 J-0.696
G1 X9.011
X9.005 Y137.001
X9 Y136.96
Y113.918
X9.741 Y113.926
X9.748
X38.683
G2 X38.699 J-0.75
G1 X39 Y113.919
X38.999 Y136.986
X38.996 Y137.001
X38.989 Y137.003
X10.853 Y137.002
G3 X10.761 Y136.988 Z-3.485 J-0.3
X10.686 Y136.952 Z-3.443 I0.091 J-0.286
X10.635 Y136.91 Z-3.376 I0.166 J-0.25
X10.608 Y136.877 Z-3.293 I0.217 J-0.207
X10.6 Y136.865 Z-3.2 I0.244 J-0.174
G0 Z5
X29.217 Y124.674
Z-2.675
G3 X29.222 Y124.687 Z-2.766 I-1.323 J0.53 F600
X29.236 Y124.725 Z-2.848 I-1.328 J0.517
X29.256 Y124.785 Z-2.914 I-1.342 J0.478
X29.278 Y124.863 Z-2.958 I-1.362 J0.418
X29.297 Y124.951 Z-2.975 I-1.384 J0.34
X26.492 Y125.455 Z-3.131 I-1.403 J0.252
X29.297 Y124.951 Z-3.288 I1.403 J-0.252
X26.492 Y125.455 Z-3.444 I-1.403 J0.252
X29.297 Y124.951 Z-3.6 I1.403 J-0.252
X26.491 Y125.455 Z-3.757 I-1.403 J0.252
X29.297 Y124.951 Z-3.913 I1.403 J-0.252
X27.894 Y126.628 Z-4 I-1.403 J0.252
G1 X20.206
G3 Y125.166 J-0.731
G1 X27.955
G3 X28.625 Y125.836 J0.671
G1 Y125.958
G3 X27.955 Y126.628 I-0.671
G1 X27.894
G2 X26.759 Y127.385 J1.23
G3 X25.624 Y128.142 I-1.135 J-0.473
G1 X18.76
G3 X17.861 Y127.243 J-0.899
G1 Y124.563
G3 X18.771 Y123.652 I0.91
G1 X29.229
G3 X30.139 Y124.563 J0.91
G1 Y127.232
G3 X29.228 Y128.142 I-0.91
G1 X25.624
G2 X23.965 Y129.248 J1.797
G3 X22.306 Y130.353 I-1.659 J-0.691
G1 X16.548
G3 X15.649 Y129.455 J-0.899
G1 Y122.351
G3 X16.559 Y121.441 I0.91
G1 X31.441
G3 X32.351 Y122.351 J0.91
G1 X32.35 Y129.443
G3 X31.44 Y130.353 I-0.91
G1 X22.306
G2 X20.648 Y131.459 J1.797
G3 X18.989 Y132.565 I-1.659 J-0.691
G1 X14.336
G3 X13.438 Y131.666 J-0.899
G1 Y120.139
G3 X14.348 Y119.229 I0.91
G1 X33.652
G3 X34.562 Y120.139 J0.91
G1 Y131.655
G3 X33.651 Y132.565 I-0.91
G1 X18.989
G2 X17.33 Y133.671 J1.797
G3 X15.672 Y134.777 I-1.659 J-0.691
G1 X12.125
G3 X11.226 Y133.878 J-0.899
G1 Y117.928
G3 X12.136 Y117.018 I0.91
G1 X35.864
G3 X36.774 Y117.928 J0.91
G1 X36.773 Y133.866
G3 X35.863 Y134.777 I-0.91
G1 X15.672
G2 X14.002 Y135.89 J1.809
G3 X12.333 Y137.002 I-1.669 J-0.696
G1 X9.011
X9.005 Y137.001
X9 Y136.96
Y114.784
X9.741 Y114.792
X9.748
X38.683
G2 X38.699 J-0.75
G1 X39 Y114.785
X38.999 Y136.986
X38.996 Y137.001
X38.989 Y137.003
X12.333 Y137.002
G3 X12.242 Y136.988 Z-3.985 J-0.3
X12.166 Y136.952 Z-3.943 I0.091 J-0.286
X12.116 Y136.91 Z-3.876 I0.166 J-0.25
X12.089 Y136.877 Z-3.793 I0.217 J-0.207
X12.08 Y136.865 Z-3.7 I0.244 J-0.174
G0 Z5
X29.65 Y124.964
Z-3.175
G3 X29.655 Y124.977 Z-3.266 I-1.323 J0.53 F600
X29.669 Y125.015 Z-3.348 I-1.328 J0.517
X29.689 Y125.076 Z-3.414 I-1.342 J0.478
X29.711 Y125.153 Z-3.458 I-1.362 J0.418
X29.73 Y125.242 Z-3.475 I-1.384 J0.34
X26.925 Y125.745 Z-3.631 I-1.403 J0.252
X29.73 Y125.242 Z-3.788 I1.403 J-0.252
X26.925 Y125.745 Z-3.944 I-1.403 J0.252
X29.73 Y125.242 Z-4.1 I1.403 J-0.252
X26.925 Y125.745 Z-4.257 I-1.403 J0.252
X29.73 Y125.242 Z-4.413 I1.403 J-0.252
X28.327 Y126.918 Z-4.5 I-1.403 J0.252
G1 X19.844
G3 Y125.742 J-0.588
G1 X28.416
G3 X28.915 Y126.241 J0.499
G1 Y126.419
G3 X28.416 Y126.918 I-0.499
G1 X28.327
G2 X27.41 Y127.53 J0.994
G3 X26.492 Y128.142 I-0.918 J-0.382
G1 X18.76
G3 X17.861 Y127.243 J-0.899
G1 Y125.429
G3 X18.771 Y124.518 I0.91
G1 X29.229
G3 X30.139 Y125.429 J0.91
G1 Y127.232
G3 X29.228 Y128.142 I-0.91
G1 X26.492
G2 X24.833 Y129.248 J1.797
G3 X23.175 Y130.353 I-1.659 J-0.691
G1 X16.548
G3 X15.649 Y129.455 J-0.899
G1 Y123.217
G3 X16.559 Y122.307 I0.91
G1 X31.44
G3 X32.351 Y123.217 J0.91
G1 X32.35 Y129.443
G3 X31.44 Y130.353 I-0.91
G1 X23.175
G2 X21.516 Y131.459 J1.797
G3 X19.857 Y132.565 I-1.659 J-0.691
G1 X14.336
G3 X13.438 Y131.666 J-0.899
G1 Y121.005
G3 X14.348 Y120.095 I0.91
G1 X33.652
G3 X34.562 Y121.005 J0.91
G1 Y131.655
G3 X33.651 Y132.565 I-0.91
G1 X19.857
G2 X18.198 Y133.671 J1.797
G3 X16.54 Y134.777 I-1.659 J-0.691
G1 X12.125
G3 X11.226 Y133.878 J-0.899
G1 Y118.794
G3 X12.136 Y117.884 I0.91
G1 X35.864
G3 X36.774 Y118.794 J0.91
G1 X36.773 Y133.866
G3 X35.863 Y134.777 I-0.91
G1 X16.54
G2 X14.87 Y135.89 J1.809
G3 X13.201 Y137.002 I-1.669 J-0.696
G1 X9.011
X9.005 Y137.001
X9 Y136.96
Y115.65
X9.741 Y115.658
X9.748
X38.683
G2 X38.699 J-0.75
G1 X39 Y115.651
X38.999 Y136.986
X38.996 Y137.001
X38.989 Y137.003
X13.201 Y137.002
G3 X13.11 Y136.988 Z-4.485 J-0.3
X13.035 Y136.952 Z-4.443 I0.091 J-0.286
X12.984 Y136.91 Z-4.376 I0.166 J-0.25
X12.957 Y136.877 Z-4.293 I0.217 J-0.207
X12.949 Y136.865 Z-4.2 I0.244 J-0.174
G0 Z5
X30.083 Y126.187
Z-3.675
G3 X30.088 Y126.2 Z-3.766 I-1.323 J0.53 F600
X30.102 Y126.238 Z-3.848 I-1.328 J0.517
X30.122 Y126.299 Z-3.914 I-1.342 J0.478
X30.144 Y126.377 Z-3.958 I-1.362 J0.418
X30.163 Y126.465 Z-3.975 I-1.384 J0.34
X27.358 Y126.969 Z-4.131 I-1.403 J0.252
X30.163 Y126.465 Z-4.288 I1.403 J-0.252
X27.358 Y126.969 Z-4.444 I-1.403 J0.252
X30.163 Y126.465 Z-4.6 I1.403 J-0.252
X27.358 Y126.969 Z-4.757 I-1.403 J0.252
X30.163 Y126.465 Z-4.913 I1.403 J-0.252
X28.76 Y128.142 Z-5 I-1.403 J0.252
G1 X18.76
G3 X17.861 Y127.243 J-0.899
G1 Y126.295
G3 X18.771 Y125.384 I0.91
G1 X29.229
G3 X30.139 Y126.295 J0.91
G1 Y127.232
G3 X29.229 Y128.142 I-0.91
G1 X28.76
G2 X27.101 Y129.248 J1.797
G3 X25.443 Y130.353 I-1.659 J-0.691
G1 X16.548
G3 X15.649 Y129.455 J-0.899
G1 Y124.083
G3 X16.559 Y123.173 I0.91
G1 X31.44
G3 X32.351 Y124.083 J0.91
G1 X32.35 Y129.443
G3 X31.44 Y130.353 I-0.91
G1 X25.443
G2 X23.784 Y131.459 J1.797
G3 X22.125 Y132.565 I-1.659 J-0.691
G1 X14.336
G3 X13.438 Y131.666 J-0.899
G1 Y121.871
G3 X14.348 Y120.961 I0.91
G1 X33.652
G3 X34.562 Y121.871 J0.91
G1 Y131.655
G3 X33.651 Y132.565 I-0.91
G1 X22.125
G2 X20.467 Y133.671 J1.797
G3 X18.808 Y134.777 I-1.659 J-0.691
G1 X12.125
G3 X11.226 Y133.878 J-0.899
G1 Y119.66
G3 X12.136 Y118.75 I0.91
G1 X35.864
G3 X36.774 Y119.66 J0.91
G1 X36.773 Y133.866
G3 X35.863 Y134.777 I-0.91
G1 X18.808
G2 X17.138 Y135.89 J1.809
G3 X15.469 Y137.002 I-1.669 J-0.696
G1 X9.011
X9.005 Y137.001
X9 Y136.96
Y116.516
X9.741 Y116.524
X9.748
X38.683
G2 X38.699 J-0.75
G1 X39 Y116.517
X38.999 Y136.986
X38.996 Y137.001
X38.989 Y137.003
X15.469 Y137.002
G3 X15.378 Y136.988 Z-4.985 J-0.3
X15.303 Y136.952 Z-4.943 I0.091 J-0.286
X15.252 Y136.91 Z-4.876 I0.166 J-0.25
X15.225 Y136.877 Z-4.793 I0.217 J-0.207
X15.217 Y136.865 Z-4.7 I0.244 J-0.174
G0 Z5
X30.516 Y126.187
Z-4.175
G3 X30.521 Y126.2 Z-4.266 I-1.323 J0.53 F600
X30.535 Y126.238 Z-4.348 I-1.328 J0.517
X30.555 Y126.299 Z-4.414 I-1.342 J0.478
X30.577 Y126.377 Z-4.458 I-1.362 J0.418
X30.596 Y126.465 Z-4.475 I-1.384 J0.34
X27.791 Y126.969 Z-4.631 I-1.403 J0.252
X30.596 Y126.465 Z-4.788 I1.403 J-0.252
X27.791 Y126.969 Z-4.944 I-1.403 J0.252
X30.596 Y126.465 Z-5.1 I1.403 J-0.252
X27.791 Y126.969 Z-5.257 I-1.403 J0.252
X30.596 Y126.465 Z-5.413 I1.403 J-0.252
X29.193 Y128.142 Z-5.5 I-1.403 J0.252
G1 X18.76
G3 X17.861 Y127.243 J-0.899
G1 Y127.161
G3 X18.771 Y126.25 I0.91
G1 X29.229
G3 X30.139 Y127.161 J0.91
G1 Y127.232
G3 X29.229 Y128.142 I-0.91
G1 X29.193
G2 X27.534 Y129.248 J1.797
G3 X25.876 Y130.353 I-1.659 J-0.691
G1 X16.548
G3 X15.649 Y129.455 J-0.899
G1 Y124.949
G3 X16.559 Y124.039 I0.91
G1 X31.44
G3 X32.351 Y124.949 J0.91
G1 X32.35 Y129.443
G3 X31.44 Y130.353 I-0.91
G1 X25.876
G2 X24.217 Y131.459 J1.797
G3 X22.558 Y132.565 I-1.659 J-0.691
G1 X14.336
G3 X13.438 Y131.666 J-0.899
G1 Y122.737
G3 X14.348 Y121.827 I0.91
G1 X33.652
G3 X34.562 Y122.737 J0.91
G1 Y131.655
G3 X33.651 Y132.565 I-0.91
G1 X22.558
G2 X20.9 Y133.671 J1.797
G3 X19.241 Y134.777 I-1.659 J-0.691
G1 X12.125
G3 X11.226 Y133.878 J-0.899
G1 Y120.526
G3 X12.136 Y119.616 I0.91
G1 X35.864
G3 X36.774 Y120.526 J0.91
G1 X36.773 Y133.866
G3 X35.863 Y134.777 I-0.91
G1 X19.241
G2 X17.571 Y135.89 J1.809
G3 X15.902 Y137.002 I-1.669 J-0.696
G1 X9.011
X9.005 Y137.001
X9 Y136.96
Y117.382
X9.741 Y117.39
X9.748
X38.683
G2 X38.699 J-0.75
G1 X39 Y117.383
X38.999 Y136.986
X38.996 Y137.001
X38.989 Y137.003
X15.902 Y137.002
G3 X15.811 Y136.988 Z-5.485 J-0.3
X15.736 Y136.952 Z-5.443 I0.091 J-0.286
X15.685 Y136.91 Z-5.376 I0.166 J-0.25
X15.658 Y136.877 Z-5.293 I0.217 J-0.207
X15.65 Y136.865 Z-5.2 I0.244 J-0.174
G0 Z5
X30.949 Y126.187
Z-4.675
G3 X30.954 Y126.2 Z-4.766 I-1.323 J0.53 F600
X30.968 Y126.238 Z-4.848 I-1.328 J0.517
X30.988 Y126.299 Z-4.914 I-1.342 J0.478
X31.01 Y126.377 Z-4.958 I-1.362 J0.418
X31.029 Y126.465 Z-4.975 I-1.384 J0.34
X28.224 Y126.969 Z-5.131 I-1.403 J0.252
X31.029 Y126.465 Z-5.288 I1.403 J-0.252
X28.224 Y126.969 Z-5.444 I-1.403 J0.252
X31.029 Y126.465 Z-5.6 I1.403 J-0.252
X28.224 Y126.969 Z-5.757 I-1.403 J0.252
X31.029 Y126.465 Z-5.913 I1.403 J-0.252
X29.626 Y128.142 Z-6 I-1.403 J0.252
G1 X18.578
G3 Y127.117 J-0.513
G1 X29.639
G3 X30.139 Y127.616 J0.499
G1 Y127.643
G3 X29.639 Y128.142 I-0.499
G1 X29.626
G2 X27.967 Y129.248 J1.797
G3 X26.309 Y130.353 I-1.659 J-0.691
G1 X16.548
G3 X15.649 Y129.455 J-0.899
G1 Y125.815
G3 X16.559 Y124.905 I0.91
G1 X31.44
G3 X32.351 Y125.815 J0.91
G1 X32.35 Y129.443
G3 X31.44 Y130.353 I-0.91
G1 X26.309
G2 X24.65 Y131.459 J1.797
G3 X22.991 Y132.565 I-1.659 J-0.691
G1 X14.336
G3 X13.438 Y131.666 J-0.899
G1 Y123.603
G3 X14.348 Y122.693 I0.91
G1 X33.652
G3 X34.562 Y123.603 J0.91
G1 Y131.655
G3 X33.651 Y132.565 I-0.91
G1 X22.991
G2 X21.333 Y133.671 J1.797
G3 X19.674 Y134.777 I-1.659 J-0.691
G1 X12.125
G3 X11.226 Y133.878 J-0.899
G1 Y121.392
G3 X12.136 Y120.482 I0.91
G1 X35.864
G3 X36.774 Y121.392 J0.91
G1 X36.773 Y133.866
G3 X35.863 Y134.777 I-0.91
G1 X19.674
G2 X18.004 Y135.89 J1.809
G3 X16.335 Y137.002 I-1.669 J-0.696
G1 X9.011
X9.005 Y137.001
X9 Y136.96
Y118.248
X9.741 Y118.256
X9.748
X38.683
G2 X38.699 J-0.75
G1 X39 Y118.249
X38.999 Y136.986
X38.996 Y137.001
X38.989 Y137.003
X16.335 Y137.002
G3 X16.244 Y136.988 Z-5.985 J-0.3
X16.169 Y136.952 Z-5.943 I0.091 J-0.286
X16.118 Y136.91 Z-5.876 I0.166 J-0.25
X16.091 Y136.877 Z-5.793 I0.217 J-0.207
X16.083 Y136.865 Z-5.7 I0.244 J-0.174
G0 Z5
X31.382 Y126.854
Z-5.175
G3 X31.387 Y126.867 Z-5.266 I-1.323 J0.53 F600
X31.401 Y126.905 Z-5.348 I-1.328 J0.517
X31.421 Y126.966 Z-5.414 I-1.342 J0.478
X31.443 Y127.044 Z-5.458 I-1.362 J0.418
X31.462 Y127.132 Z-5.475 I-1.384 J0.34
X28.657 Y127.636 Z-5.631 I-1.403 J0.252
X31.462 Y127.132 Z-5.788 I1.403 J-0.252
X28.657 Y127.636 Z-5.944 I-1.403 J0.252
X31.462 Y127.132 Z-6.1 I1.403 J-0.252
X28.657 Y127.636 Z-6.257 I-1.403 J0.252
X31.462 Y127.132 Z-6.413 I1.403 J-0.252
X30.059 Y128.809 Z-6.5 I-1.403 J0.252
G1 X18.032
G3 X17.286 Y128.062 J-0.747
X18.032 Y127.316 I0.747
G1 X30.135
G3 X30.806 Y127.986 J0.671
G1 Y128.138
G3 X30.135 Y128.809 I-0.671
G1 X30.059
G2 X28.901 Y129.581 J1.255
G3 X27.742 Y130.353 I-1.159 J-0.483
G1 X16.548
G3 X15.649 Y129.455 J-0.899
G1 Y126.681
G3 X16.559 Y125.771 I0.91
G1 X31.44
G3 X32.35 Y126.681 J0.91
G1 Y129.443
G3 X31.44 Y130.353 I-0.91
G1 X27.742
G2 X26.083 Y131.459 J1.797
G3 X24.425 Y132.565 I-1.659 J-0.691
G1 X14.336
G3 X13.438 Y131.666 J-0.899
G1 Y124.469
G3 X14.348 Y123.559 I0.91
G1 X33.652
G3 X34.562 Y124.469 J0.91
G1 Y131.655
G3 X33.652 Y132.565 I-0.91
G1 X24.425
G2 X22.766 Y133.671 J1.797
G3 X21.107 Y134.777 I-1.659 J-0.691
G1 X12.125
G3 X11.226 Y133.878 J-0.899
G1 Y122.258
G3 X12.136 Y121.348 I0.91
G1 X35.864
G3 X36.774 Y122.258 J0.91
G1 X36.773 Y133.866
G3 X35.863 Y134.777 I-0.91
G1 X21.107
G2 X19.438 Y135.89 J1.809
G3 X17.768 Y137.002 I-1.669 J-0.696
G1 X9.011
X9.005 Y137.001
X9 Y136.96
Y119.114
X9.741 Y119.122
X9.748
X38.683
G2 X38.699 J-0.75
G1 X39 Y119.115
X38.999 Y136.986
X38.996 Y137.001
X38.989 Y137.003
X17.768 Y137.002
G3 X17.677 Y136.988 Z-6.485 J-0.3
X17.602 Y136.952 Z-6.443 I0.091 J-0.286
X17.551 Y136.91 Z-6.376 I0.166 J-0.25
X17.524 Y136.877 Z-6.293 I0.217 J-0.207
X17.516 Y136.865 Z-6.2 I0.244 J-0.174
G0 Z5
X31.815 Y127.144
Z-5.675
G3 X31.82 Y127.157 Z-5.766 I-1.323 J0.53 F600
X31.834 Y127.196 Z-5.848 I-1.328 J0.517
X31.855 Y127.256 Z-5.914 I-1.342 J0.478
X31.876 Y127.334 Z-5.958 I-1.362 J0.418
X31.895 Y127.422 Z-5.975 I-1.384 J0.34
X29.09 Y127.926 Z-6.131 I-1.403 J0.252
X31.895 Y127.422 Z-6.288 I1.403 J-0.252
X29.09 Y127.926 Z-6.444 I-1.403 J0.252
X31.895 Y127.422 Z-6.6 I1.403 J-0.252
X29.09 Y127.926 Z-6.757 I-1.403 J0.252
X31.895 Y127.422 Z-6.913 I1.403 J-0.252
X30.492 Y129.099 Z-7 I-1.403 J0.252
G1 X17.671
G3 X17.068 Y128.495 J-0.604
X17.672 Y127.892 I0.604
G1 X30.596
G3 X31.096 Y128.391 J0.499
G1 Y128.6
G3 X30.596 Y129.099 I-0.499
G1 X30.492
G2 X29.551 Y129.726 J1.019
G3 X28.61 Y130.353 I-0.941 J-0.392
G1 X16.548
G3 X15.649 Y129.455 J-0.899
G1 Y127.547
G3 X16.559 Y126.637 I0.91
G1 X31.44
G3 X32.35 Y127.547 J0.91
G1 Y129.443
G3 X31.44 Y130.353 I-0.91
G1 X28.61
G2 X26.952 Y131.459 J1.797
G3 X25.293 Y132.565 I-1.659 J-0.691
G1 X14.336
G3 X13.438 Y131.666 J-0.899
G1 Y125.335
G3 X14.348 Y124.425 I0.91
G1 X33.652
G3 X34.562 Y125.335 J0.91
G1 Y131.655
G3 X33.652 Y132.565 I-0.91
G1 X25.293
G2 X23.634 Y133.671 J1.797
G3 X21.975 Y134.777 I-1.659 J-0.691
G1 X12.125
G3 X11.226 Y133.878 J-0.899
G1 Y123.124
G3 X12.136 Y122.214 I0.91
G1 X35.864
G3 X36.774 Y123.124 J0.91
G1 X36.773 Y133.866
G3 X35.863 Y134.777 I-0.91
G1 X21.975
G2 X20.306 Y135.89 J1.809
G3 X18.637 Y137.002 I-1.669 J-0.696
G1 X9.011
X9.005 Y137.001
X9 Y136.96
Y119.98
X9.741 Y119.988
X9.748
X38.683
G2 X38.699 J-0.75
G1 X39 Y119.982
X38.999 Y136.986
X38.996 Y137.001
X38.989 Y137.003
X18.637 Y137.002
G3 X18.559 Y136.724 J-0.15
G1 X29.724 Y129.975
G2 X29.768 Y129.76 I-0.078 J-0.128
G3 X32.083 Y128.097 Z-7.156 I1.157 J-0.831
X29.768 Y129.76 Z-7.313 I-1.157 J0.831
X32.083 Y128.097 Z-7.469 I1.157 J-0.831
X32.35 Y128.928 Z-7.5 I-1.157 J0.831
G1 Y129.443
G3 X31.44 Y130.353 I-0.91
G1 X16.548
G3 X15.649 Y129.455 J-0.899
G1 Y128.413
G3 X16.559 Y127.503 I0.91
G1 X31.44
G3 X32.35 Y128.413 J0.91
G1 Y128.928
G2 X33.344 Y130.647 I1.983
G3 X32.832 Y132.565 I-0.513 J0.891
G1 X14.336
G3 X13.438 Y131.666 J-0.899
G1 Y126.201
G3 X14.348 Y125.291 I0.91
G1 X33.652
G3 X34.562 Y126.201 J0.91
G1 Y131.655
G3 X33.652 Y132.565 I-0.91
G1 X32.832
G2 X31.173 Y133.671 J1.797
G3 X29.514 Y134.777 I-1.659 J-0.691
G1 X12.125
G3 X11.226 Y133.878 J-0.899
G1 Y123.99
G3 X12.136 Y123.08 I0.91
G1 X35.864
G3 X36.774 Y123.99 J0.91
G1 X36.773 Y133.866
G3 X35.863 Y134.777 I-0.91
G1 X29.514
G2 X27.845 Y135.89 J1.809
G3 X26.175 Y137.002 I-1.669 J-0.696
G1 X9.011
X9.005 Y137.001
X9 Y136.96
Y120.846
X9.741 Y120.854
X9.748
X38.683
G2 X38.699 J-0.75
G1 X39 Y120.848
X38.999 Y136.986
X38.996 Y137.001
X38.989 Y137.003
X26.175 Y137.002
G3 X25.043 Y134.712 Z-7.609 J-1.425
G1 X29.793 Y128.496 Z-7.878
G3 X32.35 Y129.361 Z-8 I1.132 J0.865
G1 Y129.443
G3 X31.44 Y130.353 I-0.91
G1 X16.548
G3 X15.649 Y129.455 J-0.899
G1 Y129.279
G3 X16.559 Y128.369 I0.91
G1 X31.44
G3 X32.35 Y129.279 J0.91
G1 Y129.361
G2 X33.314 Y130.839 I1.614
G3 X32.951 Y132.565 I-0.363 J0.825
G1 X14.336
G3 X13.438 Y131.666 J-0.899
G1 Y127.068
G3 X14.348 Y126.157 I0.91
G1 X33.652
G3 X34.562 Y127.067 J0.91
G1 Y131.655
G3 X33.652 Y132.565 I-0.91
G1 X32.951
G2 X31.293 Y133.671 J1.797
G3 X29.634 Y134.777 I-1.659 J-0.691
G1 X12.125
G3 X11.226 Y133.878 J-0.899
G1 Y124.856
G3 X12.136 Y123.946 I0.91
G1 X35.864
G3 X36.774 Y124.856 J0.91
G1 X36.773 Y133.866
G3 X35.863 Y134.777 I-0.91
G1 X29.634
G2 X27.965 Y135.89 J1.809
G3 X26.295 Y137.002 I-1.669 J-0.696
G1 X9.011
X9.005 Y137.001
X9 Y136.96
Y121.712
X9.741 Y121.72
X9.748
X38.683
G2 X38.699 J-0.75
G1 X39 Y121.714
X38.999 Y136.986
X38.996 Y137.001
X38.989 Y137.003
X26.295 Y137.002
G3 X26.209 Y136.73 J-0.15
G1 X32.797 Y132.061
G2 X32.832 Y131.852 I-0.087 J-0.122
X32.623 Y131.817 I-0.122 J0.087
G3 X30.96 Y129.503 Z-8.156 I-0.831 J-1.157
X32.623 Y131.817 Z-8.313 I0.831 J1.157
X30.96 Y129.503 Z-8.469 I-0.831 J-1.157
X31.791 Y129.235 Z-8.5 I0.831 J1.157
G1 X31.851
G3 X32.35 Y129.734 J0.499
G1 Y129.854
G3 X31.851 Y130.353 I-0.499
G1 X16.149
G3 X15.649 Y129.854 J-0.499
G1 Y129.734
G3 X16.149 Y129.235 I0.499
G1 X31.791
G2 X33.142 Y128.577 J-1.714
G3 X34.562 Y129.066 I0.626 J0.489
G1 Y131.655
G3 X33.652 Y132.565 I-0.91
G1 X14.336
G3 X13.438 Y131.666 J-0.899
G1 Y127.934
G3 X14.348 Y127.023 I0.91
G1 X33.652
G3 X34.562 Y127.934 J0.91
G1 Y129.066
G2 X35.668 Y130.725 I1.797
G3 X36.773 Y132.384 I-0.691 J1.659
G1 Y133.866
G3 X35.863 Y134.777 I-0.91
G1 X12.125
G3 X11.226 Y133.878 J-0.899
G1 Y125.722
G3 X12.136 Y124.812 I0.91
G1 X35.864
G3 X36.774 Y125.722 J0.91
G1 X36.773 Y132.384
G2 X37.886 Y134.053 I1.809
G3 X38.999 Y135.723 I-0.696 J1.669
G1 Y136.986
X38.996 Y137.001
X38.989 Y137.003
X9.011 Y137.002
X9.005 Y137.001
X9 Y136.96
Y122.578
X9.741 Y122.586
X9.748
X38.683
G2 X38.699 J-0.75
G1 X39 Y122.58
X38.999 Y135.723
G3 X38.764 Y135.846 I-0.15
G1 X33.228 Y132.046
G2 X33.056 Y132.048 I-0.085 J0.124
G3 X31.393 Y129.733 Z-8.656 I-0.831 J-1.157
X33.056 Y132.048 Z-8.813 I0.831 J1.157
X31.393 Y129.733 Z-8.969 I-0.831 J-1.157
X32.224 Y129.465 Z-9 I0.831 J1.157
G1 X32.316
G3 X32.986 Y130.136 J0.671
G1 Y130.319
G3 X32.316 Y130.989 I-0.671
G1 X15.684
G3 X15.014 Y130.319 J-0.671
G1 Y130.136
G3 X15.684 Y129.465 I0.671
G1 X32.224
G2 X33.179 Y128.607 J-0.96
G3 X34.432 Y128.33 I0.673 J0.072
X34.562 Y128.8 I-0.779 J0.47
G1 Y131.655
G3 X33.652 Y132.565 I-0.91
G1 X14.348
G3 X13.438 Y131.655 J-0.91
G1 Y128.8
G3 X14.348 Y127.889 I0.91
G1 X33.652
G3 X34.432 Y128.33 J0.91
G2 X35.786 Y129.515 I2.531 J-1.525
G3 X36.774 Y131.02 I-0.653 J1.505
G1 X36.773 Y133.866
G3 X35.863 Y134.777 I-0.91
G1 X12.136
G3 X11.226 Y133.866 J-0.91
G1 Y126.588
G3 X12.136 Y125.678 I0.91
G1 X35.864
G3 X36.774 Y126.588 J0.91
G1 Y131.02
G2 X37.886 Y132.69 I1.809
G3 X38.999 Y134.359 I-0.696 J1.669
G1 Y136.986
X38.996 Y137.001
X38.989 Y137.003
X9.011 Y137.002
X9.005 Y137.001
X9 Y136.96
Y123.444
X9.741 Y123.452
X9.748
X38.683
G2 X38.699 J-0.75
G1 X39 Y123.446
X38.999 Y134.359
G3 X38.755 Y134.477 I-0.15
G1 X31.82 Y128.936
G3 X31.826 Y128.697 I0.094 J-0.117
X33.797 Y128.999 Z-9.077 I0.831 J1.157
X32.657 Y131.279 Z-9.187 I-1.14 J0.855
Y128.429 Z-9.344 J-1.425
X33.797 Y128.999 Z-9.39 J1.425
X32.657 Y131.279 Z-9.5 I-1.14 J0.855
G1 X15.223
G3 X14.723 Y130.78 J-0.499
G1 Y130.541
G3 X15.223 Y130.041 I0.499
G1 X32.777
G3 X33.276 Y130.541 J0.499
G1 Y130.78
G3 X32.777 Y131.279 I-0.499
G1 X32.657
G2 X31.693 Y131.922 J1.045
G3 X30.729 Y132.565 I-0.964 J-0.402
G1 X14.348
G3 X13.438 Y131.655 J-0.91
G1 Y129.666
G3 X14.348 Y128.755 I0.91
G1 X33.652
G3 X34.562 Y129.666 J0.91
G1 Y131.655
G3 X33.652 Y132.565 I-0.91
G1 X30.729
G2 X29.07 Y133.671 J1.797
G3 X27.411 Y134.777 I-1.659 J-0.691
G1 X12.136
G3 X11.226 Y133.866 J-0.91
G1 Y127.454
G3 X12.136 Y126.544 I0.91
G1 X35.864
G3 X36.774 Y127.454 J0.91
G1 X36.773 Y133.866
G3 X35.863 Y134.777 I-0.91
G1 X27.411
G2 X25.742 Y135.89 J1.808
G3 X24.072 Y137.002 I-1.669 J-0.696
G1 X9.011
X9.005 Y137.001
X9 Y136.96
Y124.31
X9.741 Y124.318
X9.748
X38.683
G2 X38.699 J-0.75
G1 X39 Y124.312
X38.999 Y136.986
X38.996 Y137.001
X38.989 Y137.003
X24.072 Y137.002
G3 X24.018 Y136.713 J-0.15
G1 X33.78 Y132.938
G3 X33.922 Y133.199 I0.054 J0.14
X32.259 Y130.885 Z-9.656 I-0.831 J-1.157
X33.922 Y133.199 Z-9.813 I0.831 J1.157
X32.259 Y130.885 Z-9.969 I-0.831 J-1.157
X33.09 Y130.617 Z-10 I0.831 J1.157
G1 X33.195
G3 X33.566 Y130.988 J0.371
G1 Y131.199
G3 X33.195 Y131.569 I-0.371
G1 X14.804
G3 X14.433 Y131.198 J-0.371
G1 Y130.988
G3 X14.804 Y130.617 I0.371
G1 X33.09
G2 X33.687 Y130.162 J-0.618
G3 X34.429 Y130.058 I0.394 J0.108
X34.562 Y130.532 I-0.777 J0.473
G1 Y131.655
G3 X33.652 Y132.565 I-0.91
G1 X14.336
G3 X13.438 Y131.666 J-0.899
G1 Y130.532
G3 X14.348 Y129.621 I0.91
G1 X33.652
G3 X34.429 Y130.058 J0.91
G2 X35.786 Y131.242 I2.548 J-1.552
G3 X36.773 Y132.748 I-0.656 J1.506
G1 Y133.866
G3 X35.863 Y134.777 I-0.91
G1 X12.125
G3 X11.226 Y133.878 J-0.899
G1 Y128.32
G3 X12.136 Y127.41 I0.91
G1 X35.864
G3 X36.774 Y128.32 J0.91
G1 X36.773 Y132.748
G2 X37.886 Y134.417 I1.808
G3 X38.999 Y136.087 I-0.696 J1.669
G1 Y136.986
X38.996 Y137.001
X38.989 Y137.003
X9.011 Y137.002
X9.005 Y137.001
X9 Y136.96
Y125.176
X9.741 Y125.184
X9.748
X38.683
G2 X38.699 J-0.75
G1 X39 Y125.178
X38.999 Y136.087
G3 X38.775 Y136.218 I-0.15
G1 X32.028 Y132.401
G3 X31.98 Y132.358 I0.074 J-0.131
X32.282 Y130.386 Z-10.077 I1.157 J-0.831
X33.992 Y132.666 Z-10.233 I0.855 J1.14
X32.282 Y130.386 Z-10.39 I-0.855 J-1.14
X34.562 Y131.526 Z-10.5 I0.855 J1.14
G1 Y131.655
G3 X33.652 Y132.565 I-0.91
G1 X14.336
G3 X13.438 Y131.666 J-0.899
G1 Y131.398
G3 X14.348 Y130.487 I0.91
G1 X33.652
G3 X34.562 Y131.398 J0.91
G1 Y131.526
G2 X35.559 Y133.017 I1.613
G3 X35.209 Y134.777 I-0.349 J0.845
G1 X12.125
G3 X11.226 Y133.878 J-0.899
G1 Y129.186
G3 X12.136 Y128.276 I0.91
G1 X35.864
G3 X36.774 Y129.186 J0.91
G1 X36.773 Y133.867
G3 X35.863 Y134.777 I-0.91
G1 X35.209
G2 X33.54 Y135.89 J1.808
G3 X31.871 Y137.003 I-1.669 J-0.696
G1 X9.011 Y137.002
X9.005 Y137.001
X9 Y136.96
Y126.042
X9.741 Y126.05
X9.748
X38.683
G2 X38.699 J-0.75
G1 X39 Y126.044
X38.999 Y136.986
X38.996 Y137.001
X38.989 Y137.003
X31.871
G3 X31.724 Y136.823 J-0.15
G1 X33.065 Y130.075
G3 X33.125 Y129.983 I0.147 J0.029
X34.788 Y132.297 Z-10.656 I0.831 J1.157
X33.125 Y129.983 Z-10.813 I-0.831 J-1.157
X34.788 Y132.297 Z-10.969 I0.831 J1.157
X33.956 Y132.565 Z-11 I-0.831 J-1.157
G1 X13.937
G3 X13.438 Y132.066 J-0.499
G1 Y131.853
G3 X13.937 Y131.353 I0.499
G1 X34.063
G3 X34.562 Y131.853 J0.499
G1 Y132.066
G3 X34.063 Y132.565 I-0.499
G1 X33.956
G2 X32.298 Y133.671 J1.797
G3 X30.639 Y134.777 I-1.659 J-0.691
G1 X12.125
G3 X11.226 Y133.878 J-0.899
G1 Y130.052
G3 X12.136 Y129.142 I0.91
G1 X35.864
G3 X36.774 Y130.052 J0.91
G1 X36.773 Y133.867
G3 X35.863 Y134.777 I-0.91
G1 X30.639
G2 X28.969 Y135.89 J1.808
G3 X27.3 Y137.002 I-1.669 J-0.696
G1 X9.011
X9.005 Y137.001
X9 Y136.96
Y126.908
X9.741 Y126.916
X9.748
X38.683
G2 X38.699 J-0.75
G1 X39 Y126.91
X38.999 Y136.986
X38.996 Y137.001
X38.989 Y137.003
X27.3 Y137.002
G3 X27.221 Y136.725 J-0.15
G1 X32.541 Y133.439
G2 X32.584 Y133.224 I-0.079 J-0.128
G3 X34.899 Y131.561 Z-11.156 I1.157 J-0.831
X32.584 Y133.224 Z-11.313 I-1.157 J0.831
X34.899 Y131.561 Z-11.469 I1.157 J-0.831
X35.167 Y132.392 Z-11.5 I-1.157 J0.831
G1 X35.166 Y132.499
G3 X34.496 Y133.17 I-0.671
G1 X13.61
G3 X12.833 Y132.392 J-0.777
X13.61 Y131.615 I0.777
G1 X34.496
G3 X35.167 Y132.286 J0.671
G1 Y132.392
G2 X36.046 Y133.366 I0.979
G3 X36.332 Y134.646 I-0.07 J0.688
X35.863 Y134.777 I-0.469 J-0.78
G1 X12.125
G3 X11.226 Y133.878 J-0.899
G1 Y130.918
G3 X12.136 Y130.008 I0.91
G1 X35.864
G3 X36.774 Y130.918 J0.91
G1 X36.773 Y133.867
G3 X36.332 Y134.646 I-0.91
G2 X35.139 Y136.009 I1.53 J2.543
G3 X33.625 Y137.003 I-1.514 J-0.657
G1 X9.011 Y137.002
X9.005 Y137.001
X9 Y136.96
Y127.774
X9.741 Y127.782
X9.748
X38.683
G2 X38.699 J-0.75
G1 X39 Y127.776
X38.999 Y136.986
X38.996 Y137.001
X38.989 Y137.003
X33.625
G3 X33.476 Y136.841 J-0.15
G1 X33.929 Y130.988
G3 X33.991 Y130.877 I0.15 J0.012
X35.654 Y133.192 Z-11.656 I0.831 J1.157
X33.991 Y130.877 Z-11.813 I-0.831 J-1.157
X35.654 Y133.192 Z-11.969 I0.831 J1.157
X34.822 Y133.46 Z-12 I-0.831 J-1.157
G1 X13.042
G3 X12.543 Y132.96 J-0.499
G1 Y132.69
G3 X13.042 Y132.191 I0.499
G1 X34.957
G3 X35.457 Y132.69 J0.499
G1 Y132.96
G3 X34.957 Y133.46 I-0.499
G1 X34.822
G2 X33.834 Y134.118 J1.07
G3 X32.847 Y134.777 I-0.988 J-0.412
G1 X12.125
G3 X11.226 Y133.878 J-0.899
G1 Y131.784
G3 X12.136 Y130.874 I0.91
G1 X35.864
G3 X36.774 Y131.784 J0.91
G1 X36.773 Y133.867
G3 X35.863 Y134.777 I-0.91
G1 X32.847
G2 X31.177 Y135.89 J1.808
G3 X29.508 Y137.002 I-1.669 J-0.696
G1 X9.011
X9.005 Y137.001
X9 Y136.96
Y128.64
X9.741 Y128.648
X9.748
X38.683
G2 X38.699 J-0.75
G1 X39 Y128.642
X38.999 Y136.986
X38.996 Y137.001
X38.989 Y137.003
X29.508 Y137.002
G3 X29.472 Y136.707 J-0.15
G1 X35.963 Y135.082
G3 X36.087 Y135.349 I0.036 J0.146
X34.424 Y133.035 Z-12.156 I-0.831 J-1.157
X36.087 Y135.349 Z-12.313 I0.831 J1.157
X34.424 Y133.035 Z-12.469 I-0.831 J-1.157
X35.255 Y132.767 Z-12.5 I0.831 J1.157
G1 X35.376
G3 X35.747 Y133.138 J0.371
G1 Y133.379
G3 X35.376 Y133.75 I-0.371
G1 X12.624
G3 X12.253 Y133.379 J-0.371
G1 Y133.138
G3 X12.624 Y132.767 I0.371
G1 X35.255
G2 X35.871 Y132.29 J-0.636
G3 X36.641 Y132.177 I0.409 J0.106
X36.774 Y132.65 I-0.777 J0.473
G1 X36.773 Y133.867
G3 X35.863 Y134.777 I-0.91
G1 X12.125
G3 X11.226 Y133.878 J-0.899
G1 Y132.65
G3 X12.136 Y131.74 I0.91
G1 X35.864
G3 X36.641 Y132.177 J0.91
G2 X38.006 Y133.368 I2.563 J-1.56
G3 X38.999 Y134.883 I-0.66 J1.515
G1 Y136.986
X38.996 Y137.001
X38.989 Y137.003
X9.011 Y137.002
X9.005 Y137.001
X9 Y136.96
Y129.506
X9.741 Y129.514
X9.748
X38.683
G2 X38.699 J-0.75
G1 X39 Y129.508
X38.999 Y134.883
G3 X38.834 Y135.032 I-0.15
G1 X34.298 Y134.584
G3 X34.191 Y134.523 I0.015 J-0.149
X36.506 Y132.86 Z-12.656 I1.157 J-0.831
X34.191 Y134.523 Z-12.813 I-1.157 J0.831
X36.506 Y132.86 Z-12.969 I1.157 J-0.831
X36.774 Y133.692 Z-13 I-1.157 J0.831
G1 Y133.867
G3 X35.863 Y134.777 I-0.91
G1 X12.125
G3 X11.226 Y133.878 J-0.899
G1 Y133.516
G3 X12.136 Y132.606 I0.91
G1 X35.864
G3 X36.774 Y133.516 J0.91
G1 Y133.692
G2 X37.721 Y135.238 I1.736
G3 X37.298 Y137.003 I-0.424 J0.831
G1 X9.011 Y137.002
X9.005 Y137.001
X9 Y136.96
Y130.372
X9.741 Y130.38
X9.748
X38.683
G2 X38.699 J-0.75
G1 X39 Y130.374
X38.999 Y136.986
X38.996 Y137.001
X38.989 Y137.003
X37.298
G3 X37.16 Y136.911 J-0.15
G1 X35.239 Y132.375
G3 X35.29 Y132.194 I0.138 J-0.058
X37.261 Y132.497 Z-13.077 I0.831 J1.157
X36.121 Y134.777 Z-13.187 I-1.14 J0.855
Y131.927 Z-13.344 J-1.425
X37.261 Y132.497 Z-13.39 J1.425
X36.121 Y134.777 Z-13.5 I-1.14 J0.855
G1 X11.725
G3 X11.226 Y134.277 J-0.499
G1 Y133.971
G3 X11.725 Y133.472 I0.499
G1 X36.274
G3 X36.774 Y133.971 J0.499
G1 Y134.277
G3 X36.274 Y134.777 I-0.499
G1 X36.121
G2 X34.452 Y135.89 J1.808
G3 X32.783 Y137.003 I-1.669 J-0.696
G1 X9.011 Y137.002
X9.005 Y137.001
X9 Y136.96
Y131.238
X9.741 Y131.246
X9.748
X38.683
G2 X38.699 J-0.75
G1 X39 Y131.24
X38.999 Y136.986
X38.996 Y137.001
X38.989 Y137.003
X32.783
G3 X32.762 Y136.704 J-0.15
G1 X37.278 Y136.077
G3 X37.386 Y136.347 I0.021 J0.149
X35.723 Y134.032 Z-13.656 I-0.831 J-1.157
X36.554 Y133.765 Z-13.687 I0.831 J1.157
Y136.615 Z-13.844 J1.425
X35.414 Y136.045 Z-13.89 J-1.425
X36.554 Y133.765 Z-14 I1.14 J-0.855
G1 X36.676
G3 X37.347 Y134.435 J0.671
G1 Y134.68
G3 X36.676 Y135.35 I-0.671
G1 X11.323
G3 X10.653 Y134.679 J-0.671
G1 Y134.435
G3 X11.323 Y133.765 I0.671
G1 X36.554
G2 X37.697 Y133.065 J-1.283
G3 X39 Y133.378 I0.614 J0.313
G1 X38.999 Y136.986
X38.996 Y137.001
X38.989 Y137.003
X9.011 Y137.002
X9.005 Y137.001
X9 Y136.96
Y132.105
X9.741 Y132.112
X9.748
X38.683
G2 X38.699 J-0.75
G1 X39 Y132.106
Y133.378
G3 X38.982 Y133.45 I-0.15
G1 X37.863 Y135.516
G3 X37.819 Y135.566 I-0.132 J-0.071
X36.156 Y133.252 Z-14.156 I-0.831 J-1.157
X37.819 Y135.566 Z-14.313 I0.831 J1.157
X36.156 Y133.252 Z-14.469 I-0.831 J-1.157
X36.987 Y132.984 Z-14.5 I0.831 J1.157
Y135.64 J1.328
G1 X10.862
G3 X10.363 Y135.141 J-0.499
G1 Y134.84
G3 X10.862 Y134.341 I0.499
G1 X37.138
G3 X37.637 Y134.84 J0.499
G1 Y135.141
G3 X37.138 Y135.64 I-0.499
G1 X36.987
G2 X35.965 Y136.321 J1.107
G3 X34.944 Y137.003 I-1.022 J-0.426
G1 X9.011 Y137.002
X9.005 Y137.001
X9 Y136.96
Y132.971
X9.741 Y132.978
X9.748
X38.683
G2 X38.699 J-0.75
G1 X39 Y132.972
X38.999 Y136.986
X38.996 Y137.001
X38.989 Y137.003
X34.944
G3 X34.919 Y136.705 J-0.15
G1 X38.139 Y136.167
G3 X38.252 Y136.437 I0.025 J0.148
X36.589 Y134.123 Z-14.656 I-0.831 J-1.157
X37.42 Y133.855 Z-14.687 I0.831 J1.157
Y136.705 Z-14.844 J1.425
X36.28 Y136.135 Z-14.89 J-1.425
X37.42 Y133.855 Z-15 I1.14 J-0.855
X38.458 Y134.893 J1.038
X37.42 Y135.93 I-1.038
G1 X10.572
G3 X10.072 Y135.431 J-0.499
G1 Y135.416
G3 X10.572 Y134.917 I0.499
G1 X37.428
G3 X37.927 Y135.416 J0.499
G1 Y135.431
G3 X37.428 Y135.93 I-0.499
G1 X37.42
G2 X36.616 Y136.466 J0.871
G3 X35.812 Y137.003 I-0.804 J-0.335
G1 X9.011 Y137.002
X9.005 Y137.001
X9 Y136.96
Y133.837
X9.741 Y133.844
X9.748
X38.683
G2 X38.699 J-0.75
G1 X39 Y133.838
X38.999 Y136.986
X38.996 Y137.001
X38.989 Y137.003
X35.812
G3 X35.773 Y136.997 J-0.15
G1 X28.368 Y135.005
G3 X28.407 Y134.71 I0.039 J-0.145
G1 X38.683 Z-15.359
G2 X38.699 J-0.75
G1 X39 Y134.704 Z-15.37
X38.999 Y136.986 Z-15.45
X38.996 Y137.001
X38.989 Y137.003
X37.568 Z-15.5
X9.011 Y137.002
X9.005 Y137.001
X9 Y136.96
Y134.703
X9.741 Y134.71
X9.748
X38.683
G2 X38.699 J-0.75
G1 X39 Y134.704
X38.999 Y136.986
X38.996 Y137.001
X38.989 Y137.003
X37.568
G3 X37.477 Y136.988 Z-15.485 J-0.3
X37.402 Y136.952 Z-15.443 I0.091 J-0.286
X37.351 Y136.91 Z-15.376 I0.166 J-0.25
X37.324 Y136.877 Z-15.293 I0.217 J-0.207
X37.316 Y136.865 Z-15.2 I0.244 J-0.174
G0 Z5
X10.006 Y137.002
G1 Z-14.675 F600
G18 G3 X9.709 Z-14.975 I-0.3
G1 X9.011 Z-14.981
X9.005 Y137.001
X9 Y136.96
Y135.569 Z-14.992
X9.741 Y135.576 Z-14.998
X9.748
X38.683 Z-15.228
G17 G2 X38.699 J-0.75
G1 X39 Y135.57 Z-15.231
X38.999 Y136.986 Z-15.242
X38.996 Y137.001
X38.989 Y137.003
X9.011 Y137.002 Z-15.481
X9.005 Y137.001
X9 Y136.96
Y135.569 Z-15.492
X9.741 Y135.576 Z-15.498
X9.748
X38.683 Z-15.728
G2 X38.699 J-0.75
G1 X39 Y135.57 Z-15.731
X38.999 Y136.986 Z-15.742
X38.996 Y137.001
X38.989 Y137.003
X9.011 Y137.002 Z-15.981
X9.005 Y137.001
X9 Y136.96
Y135.569 Z-15.992
X9.741 Y135.576 Z-15.998
X9.748
X10.006 Z-16
X38.683
G2 X38.699 J-0.75
G1 X39 Y135.57
X38.999 Y136.986
X38.996 Y137.001
X38.989 Y137.003
X9.011 Y137.002
X9.005 Y137.001
X9 Y136.96
Y135.569
X9.741 Y135.576
X9.748
X10.006
X22.199 Y136.703
G3 X22.185 Y137.002 I-0.014 J0.149
G1 X9.011 Z-16.46
X9.005 Y137.001
X9 Y136.96 Z-16.462
Y136.435 Z-16.48
X9.571 Y136.441 Z-16.5
X9.741 Y136.442
X9.748
X38.683
G2 X38.699 J-0.75
G1 X38.999 Y136.436
Y136.986
X38.996 Y137.001
X38.989 Y137.003
X9.011 Y137.002
X9.005 Y137.001
X9 Y136.96
Y136.435
X9.571 Y136.441
X9.63 Z-16.494
X9.688 Y136.442 Z-16.476
X9.741 Z-16.447
X9.748 Z-16.442
G18 G2 X9.871 Z-16.2 I-0.178 K0.242
G0 Z15
G17
M9
G28 G91 Z0
G28 X0 Y0
M30
%
