%
(1)
(T1  D=3 CR=0 - ZMIN=-20 - flat end mill)
G90 G94
G17
G21
G28 G91 Z0
G90

(2D Contour1)
M9
T1 M6
S17507 M3
G54
M8
G0 X41.4 Y137.305
Z15
Z5
G1 Z2 F600
Z-0.7
G18 G3 X41.1 Z-1 I-0.3
G1 X40.8
G17 G3 X40.5 Y137.005 J-0.3
G1 Y32.005
G3 X44 Y28.504 I3.5
G1 X47
G2 X48.5 Y27.004 J-1.5
G1 Y4.006
G2 X46.059 Y-0.002 I-4.5 J-0.006
X44 Y-0.5 I-2.059 J4.002
G1 X4
G2 X-0.5 Y4 J4.5
G1 Y27
G2 X1 Y28.5 I1.5
G1 X4
G3 X7.5 Y32 I0.001 J3.5
G1 Y106.364
Y137.005
G2 X9 Y138.505 I1.5
G1 X39
G2 X40.5 Y137.005 J-1.5
G3 X40.8 Y136.705 I0.3
G1 X41.1
G18 G2 X41.4 Z-0.7 K0.3
G1 Y137.305
Z-1.7
G3 X41.1 Z-2 I-0.3
G1 X40.8
G17 G3 X40.5 Y137.005 J-0.3
G1 Y32.005
G3 X44 Y28.504 I3.5
G1 X47
G2 X48.5 Y27.004 J-1.5
G1 Y4.006
G2 X46.059 Y-0.002 I-4.5 J-0.006
X44 Y-0.5 I-2.059 J4.002
G1 X4
G2 X-0.5 Y4 J4.5
G1 Y27
G2 X1 Y28.5 I1.5
G1 X4
G3 X7.5 Y32 I0.001 J3.5
G1 Y106.364
Y137.005
G2 X9 Y138.505 I1.5
G1 X39
G2 X40.5 Y137.005 J-1.5
G3 X40.8 Y136.705 I0.3
G1 X41.1
G18 G2 X41.4 Z-1.7 K0.3
G1 Y137.305
Z-2.7
G3 X41.1 Z-3 I-0.3
G1 X40.8
G17 G3 X40.5 Y137.005 J-0.3
G1 Y32.005
G3 X44 Y28.504 I3.5
G1 X47
G2 X48.5 Y27.004 J-1.5
G1 Y4.006
G2 X46.059 Y-0.002 I-4.5 J-0.006
X44 Y-0.5 I-2.059 J4.002
G1 X4
G2 X-0.5 Y4 J4.5
G1 Y27
G2 X1 Y28.5 I1.5
G1 X4
G3 X7.5 Y32 I0.001 J3.5
G1 Y106.364
Y137.005
G2 X9 Y138.505 I1.5
G1 X39
G2 X40.5 Y137.005 J-1.5
G3 X40.8 Y136.705 I0.3
G1 X41.1
G18 G2 X41.4 Z-2.7 K0.3
G1 Y137.305
Z-3.7
G3 X41.1 Z-4 I-0.3
G1 X40.8
G17 G3 X40.5 Y137.005 J-0.3
G1 Y32.005
G3 X44 Y28.504 I3.5
G1 X47
G2 X48.5 Y27.004 J-1.5
G1 Y4.006
G2 X46.059 Y-0.002 I-4.5 J-0.006
X44 Y-0.5 I-2.059 J4.002
G1 X4
G2 X-0.5 Y4 J4.5
G1 Y27
G2 X1 Y28.5 I1.5
G1 X4
G3 X7.5 Y32 I0.001 J3.5
G1 Y106.364
Y137.005
G2 X9 Y138.505 I1.5
G1 X39
G2 X40.5 Y137.005 J-1.5
G3 X40.8 Y136.705 I0.3
G1 X41.1
G18 G2 X41.4 Z-3.7 K0.3
G1 Y137.305
Z-4.7
G3 X41.1 Z-5 I-0.3
G1 X40.8
G17 G3 X40.5 Y137.005 J-0.3
G1 Y32.005
G3 X44 Y28.504 I3.5
G1 X47
G2 X48.5 Y27.004 J-1.5
G1 Y4.006
G2 X46.059 Y-0.002 I-4.5 J-0.006
X44 Y-0.5 I-2.059 J4.002
G1 X4
G2 X-0.5 Y4 J4.5
G1 Y27
G2 X1 Y28.5 I1.5
G1 X4
G3 X7.5 Y32 I0.001 J3.5
G1 Y106.364
Y137.005
G2 X9 Y138.505 I1.5
G1 X39
G2 X40.5 Y137.005 J-1.5
G3 X40.8 Y136.705 I0.3
G1 X41.1
G18 G2 X41.4 Z-4.7 K0.3
G1 Y137.305
Z-5.7
G3 X41.1 Z-6 I-0.3
G1 X40.8
G17 G3 X40.5 Y137.005 J-0.3
G1 Y32.005
G3 X44 Y28.504 I3.5
G1 X47
G2 X48.5 Y27.004 J-1.5
G1 Y4.006
G2 X46.059 Y-0.002 I-4.5 J-0.006
X44 Y-0.5 I-2.059 J4.002
G1 X4
G2 X-0.5 Y4 J4.5
G1 Y27
G2 X1 Y28.5 I1.5
G1 X4
G3 X7.5 Y32 I0.001 J3.5
G1 Y106.364
Y137.005
G2 X9 Y138.505 I1.5
G1 X39
G2 X40.5 Y137.005 J-1.5
G3 X40.8 Y136.705 I0.3
G1 X41.1
G18 G2 X41.4 Z-5.7 K0.3
G1 Y137.305
Z-6.7
G3 X41.1 Z-7 I-0.3
G1 X40.8
G17 G3 X40.5 Y137.005 J-0.3
G1 Y32.005
G3 X44 Y28.504 I3.5
G1 X47
G2 X48.5 Y27.004 J-1.5
G1 Y4.006
G2 X46.059 Y-0.002 I-4.5 J-0.006
X44 Y-0.5 I-2.059 J4.002
G1 X4
G2 X-0.5 Y4 J4.5
G1 Y27
G2 X1 Y28.5 I1.5
G1 X4
G3 X7.5 Y32 I0.001 J3.5
G1 Y106.364
Y137.005
G2 X9 Y138.505 I1.5
G1 X39
G2 X40.5 Y137.005 J-1.5
G3 X40.8 Y136.705 I0.3
G1 X41.1
G18 G2 X41.4 Z-6.7 K0.3
G1 Y137.305
Z-7.7
G3 X41.1 Z-8 I-0.3
G1 X40.8
G17 G3 X40.5 Y137.005 J-0.3
G1 Y32.005
G3 X44 Y28.504 I3.5
G1 X47
G2 X48.5 Y27.004 J-1.5
G1 Y4.006
G2 X46.059 Y-0.002 I-4.5 J-0.006
X44 Y-0.5 I-2.059 J4.002
G1 X4
G2 X-0.5 Y4 J4.5
G1 Y27
G2 X1 Y28.5 I1.5
G1 X4
G3 X7.5 Y32 I0.001 J3.5
G1 Y106.364
Y137.005
G2 X9 Y138.505 I1.5
G1 X39
G2 X40.5 Y137.005 J-1.5
G3 X40.8 Y136.705 I0.3
G1 X41.1
G18 G2 X41.4 Z-7.7 K0.3
G1 Y137.305
Z-8.7
G3 X41.1 Z-9 I-0.3
G1 X40.8
G17 G3 X40.5 Y137.005 J-0.3
G1 Y32.005
G3 X44 Y28.504 I3.5
G1 X47
G2 X48.5 Y27.004 J-1.5
G1 Y4.006
G2 X46.059 Y-0.002 I-4.5 J-0.006
X44 Y-0.5 I-2.059 J4.002
G1 X4
G2 X-0.5 Y4 J4.5
G1 Y27
G2 X1 Y28.5 I1.5
G1 X4
G3 X7.5 Y32 I0.001 J3.5
G1 Y106.364
Y137.005
G2 X9 Y138.505 I1.5
G1 X39
G2 X40.5 Y137.005 J-1.5
G3 X40.8 Y136.705 I0.3
G1 X41.1
G18 G2 X41.4 Z-8.7 K0.3
G1 Y137.305
Z-9.7
G3 X41.1 Z-10 I-0.3
G1 X40.8
G17 G3 X40.5 Y137.005 J-0.3
G1 Y32.005
G3 X44 Y28.504 I3.5
G1 X47
G2 X48.5 Y27.004 J-1.5
G1 Y4.006
G2 X46.059 Y-0.002 I-4.5 J-0.006
X44 Y-0.5 I-2.059 J4.002
G1 X4
G2 X-0.5 Y4 J4.5
G1 Y27
G2 X1 Y28.5 I1.5
G1 X4
G3 X7.5 Y32 I0.001 J3.5
G1 Y106.364
Y137.005
G2 X9 Y138.505 I1.5
G1 X39
G2 X40.5 Y137.005 J-1.5
G3 X40.8 Y136.705 I0.3
G1 X41.1
G18 G2 X41.4 Z-9.7 K0.3
G1 Y137.305
Z-10.7
G3 X41.1 Z-11 I-0.3
G1 X40.8
G17 G3 X40.5 Y137.005 J-0.3
G1 Y32.005
G3 X44 Y28.504 I3.5
G1 X47
G2 X48.5 Y27.004 J-1.5
G1 Y4.006
G2 X46.059 Y-0.002 I-4.5 J-0.006
X44 Y-0.5 I-2.059 J4.002
G1 X4
G2 X-0.5 Y4 J4.5
G1 Y27
G2 X1 Y28.5 I1.5
G1 X4
G3 X7.5 Y32 I0.001 J3.5
G1 Y106.364
Y137.005
G2 X9 Y138.505 I1.5
G1 X39
G2 X40.5 Y137.005 J-1.5
G3 X40.8 Y136.705 I0.3
G1 X41.1
G18 G2 X41.4 Z-10.7 K0.3
G1 Y137.305
Z-11.7
G3 X41.1 Z-12 I-0.3
G1 X40.8
G17 G3 X40.5 Y137.005 J-0.3
G1 Y32.005
G3 X44 Y28.504 I3.5
G1 X47
G2 X48.5 Y27.004 J-1.5
G1 Y4.006
G2 X46.059 Y-0.002 I-4.5 J-0.006
X44 Y-0.5 I-2.059 J4.002
G1 X4
G2 X-0.5 Y4 J4.5
G1 Y27
G2 X1 Y28.5 I1.5
G1 X4
G3 X7.5 Y32 I0.001 J3.5
G1 Y106.364
Y137.005
G2 X9 Y138.505 I1.5
G1 X39
G2 X40.5 Y137.005 J-1.5
G3 X40.8 Y136.705 I0.3
G1 X41.1
G18 G2 X41.4 Z-11.7 K0.3
G1 Y137.305
Z-12.7
G3 X41.1 Z-13 I-0.3
G1 X40.8
G17 G3 X40.5 Y137.005 J-0.3
G1 Y32.005
G3 X44 Y28.504 I3.5
G1 X47
G2 X48.5 Y27.004 J-1.5
G1 Y4.006
G2 X46.059 Y-0.002 I-4.5 J-0.006
X44 Y-0.5 I-2.059 J4.002
G1 X4
G2 X-0.5 Y4 J4.5
G1 Y27
G2 X1 Y28.5 I1.5
G1 X4
G3 X7.5 Y32 I0.001 J3.5
G1 Y106.364
Y137.005
G2 X9 Y138.505 I1.5
G1 X39
G2 X40.5 Y137.005 J-1.5
G3 X40.8 Y136.705 I0.3
G1 X41.1
G18 G2 X41.4 Z-12.7 K0.3
G1 Y137.305
Z-13.7
G3 X41.1 Z-14 I-0.3
G1 X40.8
G17 G3 X40.5 Y137.005 J-0.3
G1 Y32.005
G3 X44 Y28.504 I3.5
G1 X47
G2 X48.5 Y27.004 J-1.5
G1 Y4.006
G2 X46.059 Y-0.002 I-4.5 J-0.006
X44 Y-0.5 I-2.059 J4.002
G1 X4
G2 X-0.5 Y4 J4.5
G1 Y27
G2 X1 Y28.5 I1.5
G1 X4
G3 X7.5 Y32 I0.001 J3.5
G1 Y106.364
Y137.005
G2 X9 Y138.505 I1.5
G1 X39
G2 X40.5 Y137.005 J-1.5
G3 X40.8 Y136.705 I0.3
G1 X41.1
G18 G2 X41.4 Z-13.7 K0.3
G1 Y137.305
Z-14.7
G3 X41.1 Z-15 I-0.3
G1 X40.8
G17 G3 X40.5 Y137.005 J-0.3
G1 Y32.005
G3 X44 Y28.504 I3.5
G1 X47
G2 X48.5 Y27.004 J-1.5
G1 Y4.006
G2 X46.059 Y-0.002 I-4.5 J-0.006
X44 Y-0.5 I-2.059 J4.002
G1 X4
G2 X-0.5 Y4 J4.5
G1 Y27
G2 X1 Y28.5 I1.5
G1 X4
G3 X7.5 Y32 I0.001 J3.5
G1 Y106.364
Y137.005
G2 X9 Y138.505 I1.5
G1 X39
G2 X40.5 Y137.005 J-1.5
G3 X40.8 Y136.705 I0.3
G1 X41.1
G18 G2 X41.4 Z-14.7 K0.3
G1 Y137.305
Z-15.7
G3 X41.1 Z-16 I-0.3
G1 X40.8
G17 G3 X40.5 Y137.005 J-0.3
G1 Y32.005
G3 X44 Y28.504 I3.5
G1 X47
G2 X48.5 Y27.004 J-1.5
G1 Y4.006
G2 X46.059 Y-0.002 I-4.5 J-0.006
X44 Y-0.5 I-2.059 J4.002
G1 X4
G2 X-0.5 Y4 J4.5
G1 Y27
G2 X1 Y28.5 I1.5
G1 X4
G3 X7.5 Y32 I0.001 J3.5
G1 Y106.364
Y137.005
G2 X9 Y138.505 I1.5
G1 X39
G2 X40.5 Y137.005 J-1.5
G3 X40.8 Y136.705 I0.3
G1 X41.1
G18 G2 X41.4 Z-15.7 K0.3
G1 Y137.305
Z-16.7
G3 X41.1 Z-17 I-0.3
G1 X40.8
G17 G3 X40.5 Y137.005 J-0.3
G1 Y32.005
G3 X44 Y28.504 I3.5
G1 X47
G2 X48.5 Y27.004 J-1.5
G1 Y4.006
G2 X46.059 Y-0.002 I-4.5 J-0.006
X44 Y-0.5 I-2.059 J4.002
G1 X4
G2 X-0.5 Y4 J4.5
G1 Y27
G2 X1 Y28.5 I1.5
G1 X4
G3 X7.5 Y32 I0.001 J3.5
G1 Y106.364
Y137.005
G2 X9 Y138.505 I1.5
G1 X39
G2 X40.5 Y137.005 J-1.5
G3 X40.8 Y136.705 I0.3
G1 X41.1
G18 G2 X41.4 Z-16.7 K0.3
G1 Y137.305
Z-17.7
G3 X41.1 Z-18 I-0.3
G1 X40.8
G17 G3 X40.5 Y137.005 J-0.3
G1 Y32.005
G3 X44 Y28.504 I3.5
G1 X47
G2 X48.5 Y27.004 J-1.5
G1 Y4.006
G2 X46.059 Y-0.002 I-4.5 J-0.006
X44 Y-0.5 I-2.059 J4.002
G1 X4
G2 X-0.5 Y4 J4.5
G1 Y27
G2 X1 Y28.5 I1.5
G1 X4
G3 X7.5 Y32 I0.001 J3.5
G1 Y106.364
Y137.005
G2 X9 Y138.505 I1.5
G1 X39
G2 X40.5 Y137.005 J-1.5
G3 X40.8 Y136.705 I0.3
G1 X41.1
G18 G2 X41.4 Z-17.7 K0.3
G1 Y137.305
Z-18.7
G3 X41.1 Z-19 I-0.3
G1 X40.8
G17 G3 X40.5 Y137.005 J-0.3
G1 Y32.005
G3 X44 Y28.504 I3.5
G1 X47
G2 X48.5 Y27.004 J-1.5
G1 Y4.006
G2 X46.059 Y-0.002 I-4.5 J-0.006
X44 Y-0.5 I-2.059 J4.002
G1 X4
G2 X-0.5 Y4 J4.5
G1 Y27
G2 X1 Y28.5 I1.5
G1 X4
G3 X7.5 Y32 I0.001 J3.5
G1 Y106.364
Y137.005
G2 X9 Y138.505 I1.5
G1 X39
G2 X40.5 Y137.005 J-1.5
G3 X40.8 Y136.705 I0.3
G1 X41.1
G18 G2 X41.4 Z-18.7 K0.3
G1 Y137.305
Z-19.7
G3 X41.1 Z-20 I-0.3
G1 X40.8
G17 G3 X40.5 Y137.005 J-0.3
G1 Y32.005
G3 X44 Y28.504 I3.5
G1 X47
G2 X48.5 Y27.004 J-1.5
G1 Y4.006
G2 X46.059 Y-0.002 I-4.5 J-0.006
X44 Y-0.5 I-2.059 J4.002
G1 X4
G2 X-0.5 Y4 J4.5
G1 Y27
G2 X1 Y28.5 I1.5
G1 X4
G3 X7.5 Y32 I0.001 J3.5
G1 Y106.364
Y137.005
G2 X9 Y138.505 I1.5
G1 X39
G2 X40.5 Y137.005 J-1.5
G3 X40.8 Y136.705 I0.3
G1 X41.1
G18 G2 X41.4 Z-19.7 K0.3
G0 Z15
G17
M9
G28 G91 Z0
G28 X0 Y0
M30
%
