%
(1)
(T3  D=3.175 CR=0 - ZMIN=-20 - flat end mill)
G90 G94
G17
G21
G28 G91 Z0
G90

(Pocket2)
M9
T3 M6
S16542 M3
G54
M8
G0 X23.022 Y37.228
Z15
Z1.5
G1 Z0.842 F600
G3 X23.01 Y37.22 Z0.746 I0.83 J-1.259
X22.974 Y37.195 Z0.659 I0.842 J-1.251
X22.92 Y37.155 Z0.589 I0.878 J-1.227
X22.855 Y37.1 Z0.543 I0.932 J-1.186
X22.785 Y37.035 Z0.525 I0.997 J-1.131
X24.919 Y34.903 Z0.36 I1.067 J-1.066
X22.785 Y37.035 Z0.194 I-1.067 J1.066
X24.919 Y34.903 Z0.029 I1.067 J-1.066
X22.785 Y37.035 Z-0.137 I-1.067 J1.066
X24.919 Y34.903 Z-0.302 I1.067 J-1.066
X22.785 Y37.035 Z-0.468 I-1.067 J1.066
X22.366 Y36.227 Z-0.5 I1.067 J-1.066
X23.259 Y34.959 I1.081 J-0.188
X24.527 Y35.851 I0.188 J1.081
G1 Y35.852
G3 X24.535 Y35.942 I-0.521 J0.09
G1 X24.531 Y95.354
G3 X23.998 Y95.887 I-0.533
X23.465 Y95.354 J-0.533
G1 X23.469 Y35.912
G3 X23.477 Y35.82 I0.528
G1 X23.479 Y35.809
G3 X24.52 Y35.811 I0.52 J0.092
G1 X24.527 Y35.851
G2 X25.127 Y36.575 I0.932 J-0.162
G3 X25.663 Y37.348 I-0.29 J0.773
G1 X25.659 Y95.532
X25.54 Y96.202
X25.254 Y96.702
X24.826 Y97.061
X24.283 Y97.261
X23.717
X23.175 Y97.061
X22.746 Y96.702
X22.46 Y96.203
X22.338 Y95.497
X22.341 Y35.767
X22.459 Y35.101
X22.747 Y34.594
X23.171 Y34.238
X23.721 Y34.035
X24.279
X24.829 Y34.238
X25.254 Y34.595
X25.541 Y35.099
X25.663 Y35.8
Y37.348
G3 X25.348 Y37.379 I-0.159
G1 X25.007 Y35.678
G3 X25.316 Y35.608 I0.156 J-0.031
X22.387 Y36.329 Z-0.665 I-1.464 J0.36
X25.316 Y35.608 Z-0.831 I1.464 J-0.36
X24.161 Y37.445 Z-0.915 I-1.464 J0.36
X22.366 Y36.227 Z-1 I-0.309 J-1.476
X23.259 Y34.959 I1.081 J-0.188
X24.527 Y35.851 I0.188 J1.081
G1 Y35.852
G3 X24.535 Y35.942 I-0.521 J0.09
G1 X24.531 Y95.354
G3 X23.998 Y95.887 I-0.533
X23.465 Y95.354 J-0.533
G1 X23.469 Y35.912
G3 X23.477 Y35.82 I0.528
G1 X23.479 Y35.809
G3 X24.52 Y35.811 I0.52 J0.092
G1 X24.527 Y35.851
G2 X25.127 Y36.575 I0.932 J-0.162
G3 X25.663 Y37.348 I-0.29 J0.773
G1 X25.659 Y95.532
X25.54 Y96.202
X25.254 Y96.702
X24.826 Y97.061
X24.283 Y97.261
X23.717
X23.175 Y97.061
X22.746 Y96.702
X22.46 Y96.203
X22.338 Y95.497
X22.341 Y35.767
X22.459 Y35.101
X22.747 Y34.594
X23.171 Y34.238
X23.721 Y34.035
X24.279
X24.829 Y34.238
X25.254 Y34.595
X25.541 Y35.099
X25.663 Y35.8
Y37.348
G3 X25.348 Y37.379 I-0.159
G1 X25.007 Y35.678
G3 X25.316 Y35.608 I0.156 J-0.031
X22.387 Y36.329 Z-1.165 I-1.464 J0.36
X25.316 Y35.608 Z-1.331 I1.464 J-0.36
X24.161 Y37.445 Z-1.415 I-1.464 J0.36
X22.366 Y36.227 Z-1.5 I-0.309 J-1.476
X23.259 Y34.959 I1.081 J-0.188
X24.527 Y35.851 I0.188 J1.081
G1 Y35.852
G3 X24.535 Y35.942 I-0.521 J0.09
G1 X24.531 Y95.354
G3 X23.998 Y95.887 I-0.533
X23.465 Y95.354 J-0.533
G1 X23.469 Y35.912
G3 X23.477 Y35.82 I0.528
G1 X23.479 Y35.809
G3 X24.52 Y35.811 I0.52 J0.092
G1 X24.527 Y35.851
G2 X25.127 Y36.575 I0.932 J-0.162
G3 X25.663 Y37.348 I-0.29 J0.773
G1 X25.659 Y95.532
X25.54 Y96.202
X25.254 Y96.702
X24.826 Y97.061
X24.283 Y97.261
X23.717
X23.175 Y97.061
X22.746 Y96.702
X22.46 Y96.203
X22.338 Y95.497
X22.341 Y35.767
X22.459 Y35.101
X22.747 Y34.594
X23.171 Y34.238
X23.721 Y34.035
X24.279
X24.829 Y34.238
X25.254 Y34.595
X25.541 Y35.099
X25.663 Y35.8
Y37.348
G3 X25.348 Y37.379 I-0.159
G1 X25.007 Y35.678
G3 X25.316 Y35.608 I0.156 J-0.031
X22.387 Y36.329 Z-1.665 I-1.464 J0.36
X25.316 Y35.608 Z-1.831 I1.464 J-0.36
X24.161 Y37.445 Z-1.915 I-1.464 J0.36
X22.366 Y36.227 Z-2 I-0.309 J-1.476
X23.259 Y34.959 I1.081 J-0.188
X24.527 Y35.851 I0.188 J1.081
G1 Y35.852
G3 X24.535 Y35.942 I-0.521 J0.09
G1 X24.531 Y95.354
G3 X23.998 Y95.887 I-0.533
X23.465 Y95.354 J-0.533
G1 X23.469 Y35.912
G3 X23.477 Y35.82 I0.528
G1 X23.479 Y35.809
G3 X24.52 Y35.811 I0.52 J0.092
G1 X24.527 Y35.851
G2 X25.127 Y36.575 I0.932 J-0.162
G3 X25.663 Y37.348 I-0.29 J0.773
G1 X25.659 Y95.532
X25.54 Y96.202
X25.254 Y96.702
X24.826 Y97.061
X24.283 Y97.261
X23.717
X23.175 Y97.061
X22.746 Y96.702
X22.46 Y96.203
X22.338 Y95.497
X22.341 Y35.767
X22.459 Y35.101
X22.747 Y34.594
X23.171 Y34.238
X23.721 Y34.035
X24.279
X24.829 Y34.238
X25.254 Y34.595
X25.541 Y35.099
X25.663 Y35.8
Y37.348
G3 X25.348 Y37.379 I-0.159
G1 X25.007 Y35.678
G3 X25.316 Y35.608 I0.156 J-0.031
X22.387 Y36.329 Z-2.165 I-1.464 J0.36
X25.316 Y35.608 Z-2.331 I1.464 J-0.36
X24.161 Y37.445 Z-2.415 I-1.464 J0.36
X22.366 Y36.227 Z-2.5 I-0.309 J-1.476
X23.259 Y34.959 I1.081 J-0.188
X24.527 Y35.851 I0.188 J1.081
G1 Y35.852
G3 X24.535 Y35.942 I-0.521 J0.09
G1 X24.531 Y95.354
G3 X23.998 Y95.887 I-0.533
X23.465 Y95.354 J-0.533
G1 X23.469 Y35.912
G3 X23.477 Y35.82 I0.528
G1 X23.479 Y35.809
G3 X24.52 Y35.811 I0.52 J0.092
G1 X24.527 Y35.851
G2 X25.127 Y36.575 I0.932 J-0.162
G3 X25.663 Y37.348 I-0.29 J0.773
G1 X25.659 Y95.532
X25.54 Y96.202
X25.254 Y96.702
X24.826 Y97.061
X24.283 Y97.261
X23.717
X23.175 Y97.061
X22.746 Y96.702
X22.46 Y96.203
X22.338 Y95.497
X22.341 Y35.767
X22.459 Y35.101
X22.747 Y34.594
X23.171 Y34.238
X23.721 Y34.035
X24.279
X24.829 Y34.238
X25.254 Y34.595
X25.541 Y35.099
X25.663 Y35.8
Y37.348
G3 X25.348 Y37.379 I-0.159
G1 X25.007 Y35.678
G3 X25.316 Y35.608 I0.156 J-0.031
X22.387 Y36.329 Z-2.665 I-1.464 J0.36
X25.316 Y35.608 Z-2.831 I1.464 J-0.36
X24.161 Y37.445 Z-2.915 I-1.464 J0.36
X22.366 Y36.227 Z-3 I-0.309 J-1.476
X23.259 Y34.959 I1.081 J-0.188
X24.527 Y35.851 I0.188 J1.081
G1 Y35.852
G3 X24.535 Y35.942 I-0.521 J0.09
G1 X24.531 Y95.354
G3 X23.998 Y95.887 I-0.533
X23.465 Y95.354 J-0.533
G1 X23.469 Y35.912
G3 X23.477 Y35.82 I0.528
G1 X23.479 Y35.809
G3 X24.52 Y35.811 I0.52 J0.092
G1 X24.527 Y35.851
G2 X25.127 Y36.575 I0.932 J-0.162
G3 X25.663 Y37.348 I-0.29 J0.773
G1 X25.659 Y95.532
X25.54 Y96.202
X25.254 Y96.702
X24.826 Y97.061
X24.283 Y97.261
X23.717
X23.175 Y97.061
X22.746 Y96.702
X22.46 Y96.203
X22.338 Y95.497
X22.341 Y35.767
X22.459 Y35.101
X22.747 Y34.594
X23.171 Y34.238
X23.721 Y34.035
X24.279
X24.829 Y34.238
X25.254 Y34.595
X25.541 Y35.099
X25.663 Y35.8
Y37.348
G3 X25.348 Y37.379 I-0.159
G1 X25.007 Y35.678
G3 X25.316 Y35.608 I0.156 J-0.031
X22.387 Y36.329 Z-3.165 I-1.464 J0.36
X25.316 Y35.608 Z-3.331 I1.464 J-0.36
X24.161 Y37.445 Z-3.415 I-1.464 J0.36
X22.366 Y36.227 Z-3.5 I-0.309 J-1.476
X23.259 Y34.959 I1.081 J-0.188
X24.527 Y35.851 I0.188 J1.081
G1 Y35.852
G3 X24.535 Y35.942 I-0.521 J0.09
G1 X24.531 Y95.354
G3 X23.998 Y95.887 I-0.533
X23.465 Y95.354 J-0.533
G1 X23.469 Y35.912
G3 X23.477 Y35.82 I0.528
G1 X23.479 Y35.809
G3 X24.52 Y35.811 I0.52 J0.092
G1 X24.527 Y35.851
G2 X25.127 Y36.575 I0.932 J-0.162
G3 X25.663 Y37.348 I-0.29 J0.773
G1 X25.659 Y95.532
X25.54 Y96.202
X25.254 Y96.702
X24.826 Y97.061
X24.283 Y97.261
X23.717
X23.175 Y97.061
X22.746 Y96.702
X22.46 Y96.203
X22.338 Y95.497
X22.341 Y35.767
X22.459 Y35.101
X22.747 Y34.594
X23.171 Y34.238
X23.721 Y34.035
X24.279
X24.829 Y34.238
X25.254 Y34.595
X25.541 Y35.099
X25.663 Y35.8
Y37.348
G3 X25.348 Y37.379 I-0.159
G1 X25.007 Y35.678
G3 X25.316 Y35.608 I0.156 J-0.031
X22.387 Y36.329 Z-3.665 I-1.464 J0.36
X25.316 Y35.608 Z-3.831 I1.464 J-0.36
X24.161 Y37.445 Z-3.915 I-1.464 J0.36
X22.366 Y36.227 Z-4 I-0.309 J-1.476
X23.259 Y34.959 I1.081 J-0.188
X24.527 Y35.851 I0.188 J1.081
G1 Y35.852
G3 X24.535 Y35.942 I-0.521 J0.09
G1 X24.531 Y95.387
G3 X24.523 Y95.479 I-0.528
G1 X24.521 Y95.487
G3 X23.48 Y95.485 I-0.52 J-0.092
G1 X23.473 Y95.445
G3 X23.465 Y95.354 I0.521 J-0.09
G1 X23.469 Y35.912
G3 X23.477 Y35.82 I0.528
G1 X23.479 Y35.809
G3 X24.52 Y35.811 I0.52 J0.092
G1 X24.527 Y35.851
G2 X25.127 Y36.575 I0.932 J-0.162
G3 X25.663 Y37.348 I-0.29 J0.773
G1 X25.659 Y95.532
X25.54 Y96.202
X25.254 Y96.702
X24.826 Y97.061
X24.283 Y97.261
X23.717
X23.175 Y97.061
X22.746 Y96.702
X22.46 Y96.203
X22.338 Y95.497
X22.341 Y35.767
X22.459 Y35.101
X22.747 Y34.594
X23.171 Y34.238
X23.721 Y34.035
X24.279
X24.829 Y34.238
X25.254 Y34.595
X25.541 Y35.099
X25.663 Y35.8
Y37.348
G3 X25.348 Y37.379 I-0.159
G1 X25.007 Y35.678
G3 X25.316 Y35.608 I0.156 J-0.031
X22.387 Y36.329 Z-4.165 I-1.464 J0.36
X25.316 Y35.608 Z-4.331 I1.464 J-0.36
X24.161 Y37.445 Z-4.415 I-1.464 J0.36
X22.366 Y36.227 Z-4.5 I-0.309 J-1.476
X23.259 Y34.959 I1.081 J-0.188
X24.527 Y35.851 I0.188 J1.081
G1 Y35.852
G3 X24.535 Y35.942 I-0.521 J0.09
G1 X24.531 Y95.387
G3 X24.523 Y95.479 I-0.528
G1 X24.521 Y95.487
G3 X23.48 Y95.485 I-0.52 J-0.092
G1 X23.473 Y95.445
G3 X23.465 Y95.354 I0.521 J-0.09
G1 X23.469 Y35.912
G3 X23.477 Y35.82 I0.528
G1 X23.479 Y35.809
G3 X24.52 Y35.811 I0.52 J0.092
G1 X24.527 Y35.851
G2 X25.127 Y36.575 I0.932 J-0.162
G3 X25.663 Y37.348 I-0.29 J0.773
G1 X25.659 Y95.532
X25.54 Y96.202
X25.254 Y96.702
X24.826 Y97.061
X24.283 Y97.261
X23.717
X23.175 Y97.061
X22.746 Y96.702
X22.46 Y96.203
X22.338 Y95.497
X22.341 Y35.767
X22.459 Y35.101
X22.747 Y34.594
X23.171 Y34.238
X23.721 Y34.035
X24.279
X24.829 Y34.238
X25.254 Y34.595
X25.541 Y35.099
X25.663 Y35.8
Y37.348
G3 X25.348 Y37.379 I-0.159
G1 X25.007 Y35.678
G3 X25.316 Y35.608 I0.156 J-0.031
X22.387 Y36.329 Z-4.665 I-1.464 J0.36
X25.316 Y35.608 Z-4.831 I1.464 J-0.36
X24.161 Y37.445 Z-4.915 I-1.464 J0.36
X22.366 Y36.227 Z-5 I-0.309 J-1.476
X23.259 Y34.959 I1.081 J-0.188
X24.527 Y35.851 I0.188 J1.081
G1 Y35.852
G3 X24.535 Y35.942 I-0.521 J0.09
G1 X24.531 Y95.387
G3 X24.523 Y95.479 I-0.528
G1 X24.521 Y95.487
G3 X23.48 Y95.485 I-0.52 J-0.092
G1 X23.473 Y95.445
G3 X23.465 Y95.354 I0.521 J-0.09
G1 X23.469 Y35.912
G3 X23.477 Y35.82 I0.528
G1 X23.479 Y35.809
G3 X24.52 Y35.811 I0.52 J0.092
G1 X24.527 Y35.851
G2 X25.127 Y36.575 I0.932 J-0.162
G3 X25.663 Y37.348 I-0.29 J0.773
G1 X25.659 Y95.532
X25.54 Y96.202
X25.254 Y96.702
X24.826 Y97.061
X24.283 Y97.261
X23.717
X23.175 Y97.061
X22.746 Y96.702
X22.46 Y96.203
X22.338 Y95.497
X22.341 Y35.767
X22.459 Y35.101
X22.747 Y34.594
X23.171 Y34.238
X23.721 Y34.035
X24.279
X24.829 Y34.238
X25.254 Y34.595
X25.541 Y35.099
X25.663 Y35.8
Y37.348
G3 X25.348 Y37.379 I-0.159
G1 X25.007 Y35.678
G3 X25.316 Y35.608 I0.156 J-0.031
X22.387 Y36.329 Z-5.165 I-1.464 J0.36
X25.316 Y35.608 Z-5.331 I1.464 J-0.36
X24.161 Y37.445 Z-5.415 I-1.464 J0.36
X22.366 Y36.227 Z-5.5 I-0.309 J-1.476
X23.259 Y34.959 I1.081 J-0.188
X24.527 Y35.851 I0.188 J1.081
G1 Y35.852
G3 X24.535 Y35.942 I-0.521 J0.09
G1 X24.531 Y95.387
G3 X24.523 Y95.479 I-0.528
G1 X24.521 Y95.487
G3 X23.48 Y95.485 I-0.52 J-0.092
G1 X23.473 Y95.445
G3 X23.465 Y95.354 I0.521 J-0.09
G1 X23.469 Y35.912
G3 X23.477 Y35.82 I0.528
G1 X23.479 Y35.809
G3 X24.52 Y35.811 I0.52 J0.092
G1 X24.527 Y35.851
G2 X25.127 Y36.575 I0.932 J-0.162
G3 X25.663 Y37.348 I-0.29 J0.773
G1 X25.659 Y95.532
X25.54 Y96.202
X25.254 Y96.702
X24.826 Y97.061
X24.283 Y97.261
X23.717
X23.175 Y97.061
X22.746 Y96.702
X22.46 Y96.203
X22.338 Y95.497
X22.341 Y35.767
X22.459 Y35.101
X22.747 Y34.594
X23.171 Y34.238
X23.721 Y34.035
X24.279
X24.829 Y34.238
X25.254 Y34.595
X25.541 Y35.099
X25.663 Y35.8
Y37.348
G3 X25.348 Y37.38 I-0.159
G1 X25.04 Y35.881
G3 X25.174 Y35.692 I0.155 J-0.032
X25.354 Y35.838 I0.022 J0.157
X22.345 Y36.047 Z-5.665 I-1.505 J0.104
X25.354 Y35.838 Z-5.831 I1.505 J-0.104
X23.902 Y37.45 Z-5.915 I-1.505 J0.104
X22.341 Y35.942 Z-6 I-0.052 J-1.507
X23.438 Y34.846 I1.097
X24.535 Y35.943 J1.097
G1 X24.531 Y95.387
G3 X24.523 Y95.479 I-0.528
G1 X24.521 Y95.487
G3 X23.48 Y95.485 I-0.52 J-0.092
G1 X23.473 Y95.445
G3 X23.465 Y95.354 I0.521 J-0.09
G1 X23.469 Y35.912
G3 X23.477 Y35.82 I0.528
G1 X23.479 Y35.809
G3 X24.52 Y35.811 I0.52 J0.092
G1 X24.527 Y35.852
G3 X24.535 Y35.942 I-0.521 J0.09
G1 Y35.943
G2 X25.099 Y36.789 I0.916
G3 X25.663 Y37.634 I-0.352 J0.846
G1 X25.659 Y95.532
X25.54 Y96.202
X25.254 Y96.702
X24.826 Y97.061
X24.283 Y97.261
X23.717
X23.175 Y97.061
X22.746 Y96.702
X22.46 Y96.203
X22.338 Y95.497
X22.341 Y35.767
X22.459 Y35.101
X22.747 Y34.594
X23.171 Y34.238
X23.721 Y34.035
X24.279
X24.829 Y34.238
X25.254 Y34.595
X25.541 Y35.099
X25.663 Y35.8
Y37.634
G3 X25.347 Y37.661 I-0.159
G1 X25.006 Y35.673
G3 X25.316 Y35.608 I0.156 J-0.027
X22.387 Y36.329 Z-6.165 I-1.464 J0.36
X25.316 Y35.608 Z-6.331 I1.464 J-0.36
X24.161 Y37.445 Z-6.415 I-1.464 J0.36
X22.366 Y36.227 Z-6.5 I-0.309 J-1.476
X23.259 Y34.959 I1.081 J-0.188
X24.527 Y35.851 I0.188 J1.081
G1 Y35.852
G3 X24.535 Y35.942 I-0.521 J0.09
G1 X24.531 Y95.354
G3 X23.998 Y95.887 I-0.533
X23.465 Y95.354 J-0.533
G1 X23.469 Y35.912
G3 X23.477 Y35.82 I0.528
G1 X23.479 Y35.809
G3 X24.52 Y35.811 I0.52 J0.092
G1 X24.527 Y35.851
G2 X25.127 Y36.575 I0.932 J-0.162
G3 X25.663 Y37.348 I-0.29 J0.773
G1 X25.659 Y95.532
X25.54 Y96.202
X25.254 Y96.702
X24.826 Y97.061
X24.283 Y97.261
X23.717
X23.175 Y97.061
X22.746 Y96.702
X22.46 Y96.203
X22.338 Y95.497
X22.341 Y35.767
X22.459 Y35.101
X22.747 Y34.594
X23.171 Y34.238
X23.721 Y34.035
X24.279
X24.829 Y34.238
X25.254 Y34.595
X25.541 Y35.099
X25.663 Y35.8
Y37.348
G3 X25.348 Y37.379 I-0.159
G1 X25.007 Y35.678
G3 X25.316 Y35.608 I0.156 J-0.031
X22.387 Y36.329 Z-6.665 I-1.464 J0.36
X25.316 Y35.608 Z-6.831 I1.464 J-0.36
X24.161 Y37.445 Z-6.915 I-1.464 J0.36
X22.366 Y36.227 Z-7 I-0.309 J-1.476
X23.259 Y34.959 I1.081 J-0.188
X24.527 Y35.851 I0.188 J1.081
G1 Y35.852
G3 X24.535 Y35.942 I-0.521 J0.09
G1 X24.531 Y95.354
G3 X23.998 Y95.887 I-0.533
X23.465 Y95.354 J-0.533
G1 X23.469 Y35.912
G3 X23.477 Y35.82 I0.528
G1 X23.479 Y35.809
G3 X24.52 Y35.811 I0.52 J0.092
G1 X24.527 Y35.851
G2 X25.127 Y36.575 I0.932 J-0.162
G3 X25.663 Y37.348 I-0.29 J0.773
G1 X25.659 Y95.532
X25.54 Y96.202
X25.254 Y96.702
X24.826 Y97.061
X24.283 Y97.261
X23.717
X23.175 Y97.061
X22.746 Y96.702
X22.46 Y96.203
X22.338 Y95.497
X22.341 Y35.767
X22.459 Y35.101
X22.747 Y34.594
X23.171 Y34.238
X23.721 Y34.035
X24.279
X24.829 Y34.238
X25.254 Y34.595
X25.541 Y35.099
X25.663 Y35.8
Y37.348
G3 X25.348 Y37.379 I-0.159
G1 X25.007 Y35.678
G3 X25.316 Y35.608 I0.156 J-0.031
X22.387 Y36.329 Z-7.165 I-1.464 J0.36
X25.316 Y35.608 Z-7.331 I1.464 J-0.36
X24.161 Y37.445 Z-7.415 I-1.464 J0.36
X22.366 Y36.227 Z-7.5 I-0.309 J-1.476
X23.259 Y34.959 I1.081 J-0.188
X24.527 Y35.851 I0.188 J1.081
G1 Y35.852
G3 X24.535 Y35.942 I-0.521 J0.09
G1 X24.531 Y95.354
G3 X23.998 Y95.887 I-0.533
X23.465 Y95.354 J-0.533
G1 X23.469 Y35.912
G3 X23.477 Y35.82 I0.528
G1 X23.479 Y35.809
G3 X24.52 Y35.811 I0.52 J0.092
G1 X24.527 Y35.851
G2 X25.127 Y36.575 I0.932 J-0.162
G3 X25.663 Y37.348 I-0.29 J0.773
G1 X25.659 Y95.532
X25.54 Y96.202
X25.254 Y96.702
X24.826 Y97.061
X24.283 Y97.261
X23.717
X23.175 Y97.061
X22.746 Y96.702
X22.46 Y96.203
X22.338 Y95.497
X22.341 Y35.767
X22.459 Y35.101
X22.747 Y34.594
X23.171 Y34.238
X23.721 Y34.035
X24.279
X24.829 Y34.238
X25.254 Y34.595
X25.541 Y35.099
X25.663 Y35.8
Y37.348
G3 X25.348 Y37.38 I-0.159
G1 X25.04 Y35.881
G3 X25.174 Y35.692 I0.155 J-0.032
X25.354 Y35.838 I0.022 J0.157
X22.345 Y36.047 Z-7.665 I-1.505 J0.104
X25.354 Y35.838 Z-7.831 I1.505 J-0.104
X23.902 Y37.45 Z-7.915 I-1.505 J0.104
X22.341 Y35.942 Z-8 I-0.052 J-1.507
X23.438 Y34.846 I1.097
X24.535 Y35.943 J1.097
G1 X24.531 Y95.387
G3 X24.523 Y95.479 I-0.528
G1 X24.521 Y95.487
G3 X23.48 Y95.485 I-0.52 J-0.092
G1 X23.473 Y95.445
G3 X23.465 Y95.354 I0.521 J-0.09
G1 X23.469 Y35.912
G3 X23.477 Y35.82 I0.528
G1 X23.479 Y35.809
G3 X24.52 Y35.811 I0.52 J0.092
G1 X24.527 Y35.852
G3 X24.535 Y35.942 I-0.521 J0.09
G1 Y35.943
G2 X25.099 Y36.789 I0.916
G3 X25.663 Y37.634 I-0.352 J0.846
G1 X25.659 Y95.532
X25.54 Y96.202
X25.254 Y96.702
X24.826 Y97.061
X24.283 Y97.261
X23.717
X23.175 Y97.061
X22.746 Y96.702
X22.46 Y96.203
X22.338 Y95.497
X22.341 Y35.767
X22.459 Y35.101
X22.747 Y34.594
X23.171 Y34.238
X23.721 Y34.035
X24.279
X24.829 Y34.238
X25.254 Y34.595
X25.541 Y35.099
X25.663 Y35.8
Y37.634
G3 X25.347 Y37.661 I-0.159
G1 X25.006 Y35.673
G3 X25.316 Y35.608 I0.156 J-0.027
X22.387 Y36.329 Z-8.165 I-1.464 J0.36
X25.316 Y35.608 Z-8.331 I1.464 J-0.36
X24.161 Y37.445 Z-8.415 I-1.464 J0.36
X22.366 Y36.227 Z-8.5 I-0.309 J-1.476
X23.259 Y34.959 I1.081 J-0.188
X24.527 Y35.851 I0.188 J1.081
G1 Y35.852
G3 X24.535 Y35.942 I-0.521 J0.09
G1 X24.531 Y95.354
G3 X23.998 Y95.887 I-0.533
X23.465 Y95.354 J-0.533
G1 X23.469 Y35.912
G3 X23.477 Y35.82 I0.528
G1 X23.479 Y35.809
G3 X24.52 Y35.811 I0.52 J0.092
G1 X24.527 Y35.851
G2 X25.127 Y36.575 I0.932 J-0.162
G3 X25.663 Y37.348 I-0.29 J0.773
G1 X25.659 Y95.532
X25.54 Y96.202
X25.254 Y96.702
X24.826 Y97.061
X24.283 Y97.261
X23.717
X23.175 Y97.061
X22.746 Y96.702
X22.46 Y96.203
X22.338 Y95.497
X22.341 Y35.767
X22.459 Y35.101
X22.747 Y34.594
X23.171 Y34.238
X23.721 Y34.035
X24.279
X24.829 Y34.238
X25.254 Y34.595
X25.541 Y35.099
X25.663 Y35.8
Y37.348
G3 X25.348 Y37.379 I-0.159
G1 X25.007 Y35.678
G3 X25.316 Y35.608 I0.156 J-0.031
X22.387 Y36.329 Z-8.665 I-1.464 J0.36
X25.316 Y35.608 Z-8.831 I1.464 J-0.36
X24.161 Y37.445 Z-8.915 I-1.464 J0.36
X22.366 Y36.227 Z-9 I-0.309 J-1.476
X23.259 Y34.959 I1.081 J-0.188
X24.527 Y35.851 I0.188 J1.081
G1 Y35.852
G3 X24.535 Y35.942 I-0.521 J0.09
G1 X24.531 Y95.354
G3 X23.998 Y95.887 I-0.533
X23.465 Y95.354 J-0.533
G1 X23.469 Y35.912
G3 X23.477 Y35.82 I0.528
G1 X23.479 Y35.809
G3 X24.52 Y35.811 I0.52 J0.092
G1 X24.527 Y35.851
G2 X25.127 Y36.575 I0.932 J-0.162
G3 X25.663 Y37.348 I-0.29 J0.773
G1 X25.659 Y95.532
X25.54 Y96.202
X25.254 Y96.702
X24.826 Y97.061
X24.283 Y97.261
X23.717
X23.175 Y97.061
X22.746 Y96.702
X22.46 Y96.203
X22.338 Y95.497
X22.341 Y35.767
X22.459 Y35.101
X22.747 Y34.594
X23.171 Y34.238
X23.721 Y34.035
X24.279
X24.829 Y34.238
X25.254 Y34.595
X25.541 Y35.099
X25.663 Y35.8
Y37.348
G3 X25.348 Y37.379 I-0.159
G1 X25.007 Y35.678
G3 X25.316 Y35.608 I0.156 J-0.031
X22.387 Y36.329 Z-9.165 I-1.464 J0.36
X25.316 Y35.608 Z-9.331 I1.464 J-0.36
X24.161 Y37.445 Z-9.415 I-1.464 J0.36
X22.366 Y36.227 Z-9.5 I-0.309 J-1.476
X23.259 Y34.959 I1.081 J-0.188
X24.527 Y35.851 I0.188 J1.081
G1 Y35.852
G3 X24.535 Y35.942 I-0.521 J0.09
G1 X24.531 Y95.354
G3 X23.998 Y95.887 I-0.533
X23.465 Y95.354 J-0.533
G1 X23.469 Y35.912
G3 X23.477 Y35.82 I0.528
G1 X23.479 Y35.809
G3 X24.52 Y35.811 I0.52 J0.092
G1 X24.527 Y35.851
G2 X25.127 Y36.575 I0.932 J-0.162
G3 X25.663 Y37.348 I-0.29 J0.773
G1 X25.659 Y95.532
X25.54 Y96.202
X25.254 Y96.702
X24.826 Y97.061
X24.283 Y97.261
X23.717
X23.175 Y97.061
X22.746 Y96.702
X22.46 Y96.203
X22.338 Y95.497
X22.341 Y35.767
X22.459 Y35.101
X22.747 Y34.594
X23.171 Y34.238
X23.721 Y34.035
X24.279
X24.829 Y34.238
X25.254 Y34.595
X25.541 Y35.099
X25.663 Y35.8
Y37.348
G3 X25.348 Y37.379 I-0.159
G1 X25.007 Y35.678
G3 X25.316 Y35.608 I0.156 J-0.031
X22.387 Y36.329 Z-9.665 I-1.464 J0.36
X25.316 Y35.608 Z-9.831 I1.464 J-0.36
X24.161 Y37.445 Z-9.915 I-1.464 J0.36
X22.366 Y36.227 Z-10 I-0.309 J-1.476
X23.259 Y34.959 I1.081 J-0.188
X24.527 Y35.851 I0.188 J1.081
G1 Y35.852
G3 X24.535 Y35.942 I-0.521 J0.09
G1 X24.531 Y95.354
G3 X23.998 Y95.887 I-0.533
X23.465 Y95.354 J-0.533
G1 X23.469 Y35.912
G3 X23.477 Y35.82 I0.528
G1 X23.479 Y35.809
G3 X24.52 Y35.811 I0.52 J0.092
G1 X24.527 Y35.851
G2 X25.127 Y36.575 I0.932 J-0.162
G3 X25.663 Y37.348 I-0.29 J0.773
G1 X25.659 Y95.532
X25.54 Y96.202
X25.254 Y96.702
X24.826 Y97.061
X24.283 Y97.261
X23.717
X23.175 Y97.061
X22.746 Y96.702
X22.46 Y96.203
X22.338 Y95.497
X22.341 Y35.767
X22.459 Y35.101
X22.747 Y34.594
X23.171 Y34.238
X23.721 Y34.035
X24.279
X24.829 Y34.238
X25.254 Y34.595
X25.541 Y35.099
X25.663 Y35.8
Y37.348
G3 X25.348 Y37.379 I-0.159
G1 X25.007 Y35.678
G3 X25.316 Y35.608 I0.156 J-0.031
X22.387 Y36.329 Z-10.165 I-1.464 J0.36
X25.316 Y35.608 Z-10.331 I1.464 J-0.36
X24.161 Y37.445 Z-10.415 I-1.464 J0.36
X22.366 Y36.227 Z-10.5 I-0.309 J-1.476
X23.259 Y34.959 I1.081 J-0.188
X24.527 Y35.851 I0.188 J1.081
G1 Y35.852
G3 X24.535 Y35.942 I-0.521 J0.09
G1 X24.531 Y95.354
G3 X23.998 Y95.887 I-0.533
X23.465 Y95.354 J-0.533
G1 X23.469 Y35.912
G3 X23.477 Y35.82 I0.528
G1 X23.479 Y35.809
G3 X24.52 Y35.811 I0.52 J0.092
G1 X24.527 Y35.851
G2 X25.127 Y36.575 I0.932 J-0.162
G3 X25.663 Y37.348 I-0.29 J0.773
G1 X25.659 Y95.532
X25.54 Y96.202
X25.254 Y96.702
X24.826 Y97.061
X24.283 Y97.261
X23.717
X23.175 Y97.061
X22.746 Y96.702
X22.46 Y96.203
X22.338 Y95.497
X22.341 Y35.767
X22.459 Y35.101
X22.747 Y34.594
X23.171 Y34.238
X23.721 Y34.035
X24.279
X24.829 Y34.238
X25.254 Y34.595
X25.541 Y35.099
X25.663 Y35.8
Y37.348
G3 X25.348 Y37.379 I-0.159
G1 X25.007 Y35.678
G3 X25.316 Y35.608 I0.156 J-0.031
X22.387 Y36.329 Z-10.665 I-1.464 J0.36
X25.316 Y35.608 Z-10.831 I1.464 J-0.36
X24.161 Y37.445 Z-10.915 I-1.464 J0.36
X22.366 Y36.227 Z-11 I-0.309 J-1.476
X23.259 Y34.959 I1.081 J-0.188
X24.527 Y35.851 I0.188 J1.081
G1 Y35.852
G3 X24.535 Y35.942 I-0.521 J0.09
G1 X24.531 Y95.387
G3 X24.523 Y95.479 I-0.528
G1 X24.521 Y95.487
G3 X23.48 Y95.485 I-0.52 J-0.092
G1 X23.473 Y95.445
G3 X23.465 Y95.354 I0.521 J-0.09
G1 X23.469 Y35.912
G3 X23.477 Y35.82 I0.528
G1 X23.479 Y35.809
G3 X24.52 Y35.811 I0.52 J0.092
G1 X24.527 Y35.851
G2 X25.127 Y36.575 I0.932 J-0.162
G3 X25.663 Y37.348 I-0.29 J0.773
G1 X25.659 Y95.532
X25.54 Y96.202
X25.254 Y96.702
X24.826 Y97.061
X24.283 Y97.261
X23.717
X23.175 Y97.061
X22.746 Y96.702
X22.46 Y96.203
X22.338 Y95.497
X22.341 Y35.767
X22.459 Y35.101
X22.747 Y34.594
X23.171 Y34.238
X23.721 Y34.035
X24.279
X24.829 Y34.238
X25.254 Y34.595
X25.541 Y35.099
X25.663 Y35.8
Y37.348
G3 X25.348 Y37.379 I-0.159
G1 X25.007 Y35.678
G3 X25.316 Y35.608 I0.156 J-0.031
X22.387 Y36.329 Z-11.165 I-1.464 J0.36
X25.316 Y35.608 Z-11.331 I1.464 J-0.36
X24.161 Y37.445 Z-11.415 I-1.464 J0.36
X22.366 Y36.227 Z-11.5 I-0.309 J-1.476
X23.259 Y34.959 I1.081 J-0.188
X24.527 Y35.851 I0.188 J1.081
G1 Y35.852
G3 X24.535 Y35.942 I-0.521 J0.09
G1 X24.531 Y95.354
G3 X23.998 Y95.887 I-0.533
X23.465 Y95.354 J-0.533
G1 X23.469 Y35.912
G3 X23.477 Y35.82 I0.528
G1 X23.479 Y35.809
G3 X24.52 Y35.811 I0.52 J0.092
G1 X24.527 Y35.851
G2 X25.127 Y36.575 I0.932 J-0.162
G3 X25.663 Y37.348 I-0.29 J0.773
G1 X25.659 Y95.532
X25.54 Y96.202
X25.254 Y96.702
X24.826 Y97.061
X24.283 Y97.261
X23.717
X23.175 Y97.061
X22.746 Y96.702
X22.46 Y96.203
X22.338 Y95.497
X22.341 Y35.767
X22.459 Y35.101
X22.747 Y34.594
X23.171 Y34.238
X23.721 Y34.035
X24.279
X24.829 Y34.238
X25.254 Y34.595
X25.541 Y35.099
X25.663 Y35.8
Y37.348
G3 X25.348 Y37.379 I-0.159
G1 X25.007 Y35.678
G3 X25.316 Y35.608 I0.156 J-0.031
X22.387 Y36.329 Z-11.665 I-1.464 J0.36
X25.316 Y35.608 Z-11.831 I1.464 J-0.36
X24.161 Y37.445 Z-11.915 I-1.464 J0.36
X22.366 Y36.227 Z-12 I-0.309 J-1.476
X23.259 Y34.959 I1.081 J-0.188
X24.527 Y35.851 I0.188 J1.081
G1 Y35.852
G3 X24.535 Y35.942 I-0.521 J0.09
G1 X24.531 Y95.387
G3 X24.523 Y95.479 I-0.528
G1 X24.521 Y95.487
G3 X23.48 Y95.485 I-0.52 J-0.092
G1 X23.473 Y95.445
G3 X23.465 Y95.354 I0.521 J-0.09
G1 X23.469 Y35.912
G3 X23.477 Y35.82 I0.528
G1 X23.479 Y35.809
G3 X24.52 Y35.811 I0.52 J0.092
G1 X24.527 Y35.851
G2 X25.127 Y36.575 I0.932 J-0.162
G3 X25.663 Y37.348 I-0.29 J0.773
G1 X25.659 Y95.532
X25.54 Y96.202
X25.254 Y96.702
X24.826 Y97.061
X24.283 Y97.261
X23.717
X23.175 Y97.061
X22.746 Y96.702
X22.46 Y96.203
X22.338 Y95.497
X22.341 Y35.767
X22.459 Y35.101
X22.747 Y34.594
X23.171 Y34.238
X23.721 Y34.035
X24.279
X24.829 Y34.238
X25.254 Y34.595
X25.541 Y35.099
X25.663 Y35.8
Y37.348
G3 X25.348 Y37.379 I-0.159
G1 X25.007 Y35.678
G3 X25.316 Y35.608 I0.156 J-0.031
X22.387 Y36.329 Z-12.165 I-1.464 J0.36
X25.316 Y35.608 Z-12.331 I1.464 J-0.36
X24.161 Y37.445 Z-12.415 I-1.464 J0.36
X22.366 Y36.227 Z-12.5 I-0.309 J-1.476
X23.259 Y34.959 I1.081 J-0.188
X24.527 Y35.851 I0.188 J1.081
G1 Y35.852
G3 X24.535 Y35.942 I-0.521 J0.09
G1 X24.531 Y95.387
G3 X24.523 Y95.479 I-0.528
G1 X24.521 Y95.487
G3 X23.48 Y95.485 I-0.52 J-0.092
G1 X23.473 Y95.445
G3 X23.465 Y95.354 I0.521 J-0.09
G1 X23.469 Y35.912
G3 X23.477 Y35.82 I0.528
G1 X23.479 Y35.809
G3 X24.52 Y35.811 I0.52 J0.092
G1 X24.527 Y35.851
G2 X25.127 Y36.575 I0.932 J-0.162
G3 X25.663 Y37.348 I-0.29 J0.773
G1 X25.659 Y95.532
X25.54 Y96.202
X25.254 Y96.702
X24.826 Y97.061
X24.283 Y97.261
X23.717
X23.175 Y97.061
X22.746 Y96.702
X22.46 Y96.203
X22.338 Y95.497
X22.341 Y35.767
X22.459 Y35.101
X22.747 Y34.594
X23.171 Y34.238
X23.721 Y34.035
X24.279
X24.829 Y34.238
X25.254 Y34.595
X25.541 Y35.099
X25.663 Y35.8
Y37.348
G3 X25.348 Y37.38 I-0.159
G1 X25.04 Y35.881
G3 X25.174 Y35.692 I0.155 J-0.032
X25.354 Y35.838 I0.022 J0.157
X22.345 Y36.047 Z-12.665 I-1.505 J0.104
X25.354 Y35.838 Z-12.831 I1.505 J-0.104
X23.902 Y37.45 Z-12.915 I-1.505 J0.104
X22.341 Y35.942 Z-13 I-0.052 J-1.507
X23.438 Y34.846 I1.097
X24.535 Y35.943 J1.097
G1 X24.531 Y95.387
G3 X24.523 Y95.479 I-0.528
G1 X24.521 Y95.487
G3 X23.48 Y95.485 I-0.52 J-0.092
G1 X23.473 Y95.445
G3 X23.465 Y95.354 I0.521 J-0.09
G1 X23.469 Y35.912
G3 X23.477 Y35.82 I0.528
G1 X23.479 Y35.809
G3 X24.52 Y35.811 I0.52 J0.092
G1 X24.527 Y35.852
G3 X24.535 Y35.942 I-0.521 J0.09
G1 Y35.943
G2 X25.099 Y36.789 I0.916
G3 X25.663 Y37.634 I-0.352 J0.846
G1 X25.659 Y95.532
X25.54 Y96.202
X25.254 Y96.702
X24.826 Y97.061
X24.283 Y97.261
X23.717
X23.175 Y97.061
X22.746 Y96.702
X22.46 Y96.203
X22.338 Y95.497
X22.341 Y35.767
X22.459 Y35.101
X22.747 Y34.594
X23.171 Y34.238
X23.721 Y34.035
X24.279
X24.829 Y34.238
X25.254 Y34.595
X25.541 Y35.099
X25.663 Y35.8
Y37.634
G3 X25.347 Y37.661 I-0.159
G1 X25.006 Y35.673
G3 X25.316 Y35.608 I0.156 J-0.027
X22.387 Y36.329 Z-13.165 I-1.464 J0.36
X25.316 Y35.608 Z-13.331 I1.464 J-0.36
X24.161 Y37.445 Z-13.415 I-1.464 J0.36
X22.366 Y36.227 Z-13.5 I-0.309 J-1.476
X23.259 Y34.959 I1.081 J-0.188
X24.527 Y35.851 I0.188 J1.081
G1 Y35.852
G3 X24.535 Y35.942 I-0.521 J0.09
G1 X24.531 Y95.354
G3 X23.998 Y95.887 I-0.533
X23.465 Y95.354 J-0.533
G1 X23.469 Y35.912
G3 X23.477 Y35.82 I0.528
G1 X23.479 Y35.809
G3 X24.52 Y35.811 I0.52 J0.092
G1 X24.527 Y35.851
G2 X25.127 Y36.575 I0.932 J-0.162
G3 X25.663 Y37.348 I-0.29 J0.773
G1 X25.659 Y95.532
X25.54 Y96.202
X25.254 Y96.702
X24.826 Y97.061
X24.283 Y97.261
X23.717
X23.175 Y97.061
X22.746 Y96.702
X22.46 Y96.203
X22.338 Y95.497
X22.341 Y35.767
X22.459 Y35.101
X22.747 Y34.594
X23.171 Y34.238
X23.721 Y34.035
X24.279
X24.829 Y34.238
X25.254 Y34.595
X25.541 Y35.099
X25.663 Y35.8
Y37.348
G3 X25.348 Y37.379 I-0.159
G1 X25.007 Y35.678
G3 X25.316 Y35.608 I0.156 J-0.031
X22.387 Y36.329 Z-13.665 I-1.464 J0.36
X25.316 Y35.608 Z-13.831 I1.464 J-0.36
X24.161 Y37.445 Z-13.915 I-1.464 J0.36
X22.366 Y36.227 Z-14 I-0.309 J-1.476
X23.259 Y34.959 I1.081 J-0.188
X24.527 Y35.851 I0.188 J1.081
G1 Y35.852
G3 X24.535 Y35.942 I-0.521 J0.09
G1 X24.531 Y95.387
G3 X24.523 Y95.479 I-0.528
G1 X24.521 Y95.487
G3 X23.48 Y95.485 I-0.52 J-0.092
G1 X23.473 Y95.445
G3 X23.465 Y95.354 I0.521 J-0.09
G1 X23.469 Y35.912
G3 X23.477 Y35.82 I0.528
G1 X23.479 Y35.809
G3 X24.52 Y35.811 I0.52 J0.092
G1 X24.527 Y35.851
G2 X25.127 Y36.575 I0.932 J-0.162
G3 X25.663 Y37.348 I-0.29 J0.773
G1 X25.659 Y95.532
X25.54 Y96.202
X25.254 Y96.702
X24.826 Y97.061
X24.283 Y97.261
X23.717
X23.175 Y97.061
X22.746 Y96.702
X22.46 Y96.203
X22.338 Y95.497
X22.341 Y35.767
X22.459 Y35.101
X22.747 Y34.594
X23.171 Y34.238
X23.721 Y34.035
X24.279
X24.829 Y34.238
X25.254 Y34.595
X25.541 Y35.099
X25.663 Y35.8
Y37.348
G3 X25.348 Y37.379 I-0.159
G1 X25.007 Y35.678
G3 X25.316 Y35.608 I0.156 J-0.031
X22.387 Y36.329 Z-14.165 I-1.464 J0.36
X25.316 Y35.608 Z-14.331 I1.464 J-0.36
X24.161 Y37.445 Z-14.415 I-1.464 J0.36
X22.366 Y36.227 Z-14.5 I-0.309 J-1.476
X23.259 Y34.959 I1.081 J-0.188
X24.527 Y35.851 I0.188 J1.081
G1 Y35.852
G3 X24.535 Y35.942 I-0.521 J0.09
G1 X24.531 Y95.354
G3 X23.998 Y95.887 I-0.533
X23.465 Y95.354 J-0.533
G1 X23.469 Y35.912
G3 X23.477 Y35.82 I0.528
G1 X23.479 Y35.809
G3 X24.52 Y35.811 I0.52 J0.092
G1 X24.527 Y35.851
G2 X25.127 Y36.575 I0.932 J-0.162
G3 X25.663 Y37.348 I-0.29 J0.773
G1 X25.659 Y95.532
X25.54 Y96.202
X25.254 Y96.702
X24.826 Y97.061
X24.283 Y97.261
X23.717
X23.175 Y97.061
X22.746 Y96.702
X22.46 Y96.203
X22.338 Y95.497
X22.341 Y35.767
X22.459 Y35.101
X22.747 Y34.594
X23.171 Y34.238
X23.721 Y34.035
X24.279
X24.829 Y34.238
X25.254 Y34.595
X25.541 Y35.099
X25.663 Y35.8
Y37.348
G3 X25.348 Y37.379 I-0.159
G1 X25.007 Y35.678
G3 X25.316 Y35.608 I0.156 J-0.031
X22.387 Y36.329 Z-14.665 I-1.464 J0.36
X25.316 Y35.608 Z-14.831 I1.464 J-0.36
X24.161 Y37.445 Z-14.915 I-1.464 J0.36
X22.366 Y36.227 Z-15 I-0.309 J-1.476
X23.259 Y34.959 I1.081 J-0.188
X24.527 Y35.851 I0.188 J1.081
G1 Y35.852
G3 X24.535 Y35.942 I-0.521 J0.09
G1 X24.531 Y95.387
G3 X24.523 Y95.479 I-0.528
G1 X24.521 Y95.487
G3 X23.48 Y95.485 I-0.52 J-0.092
G1 X23.473 Y95.445
G3 X23.465 Y95.354 I0.521 J-0.09
G1 X23.469 Y35.912
G3 X23.477 Y35.82 I0.528
G1 X23.479 Y35.809
G3 X24.52 Y35.811 I0.52 J0.092
G1 X24.527 Y35.851
G2 X25.127 Y36.575 I0.932 J-0.162
G3 X25.663 Y37.348 I-0.29 J0.773
G1 X25.659 Y95.532
X25.54 Y96.202
X25.254 Y96.702
X24.826 Y97.061
X24.283 Y97.261
X23.717
X23.175 Y97.061
X22.746 Y96.702
X22.46 Y96.203
X22.338 Y95.497
X22.341 Y35.767
X22.459 Y35.101
X22.747 Y34.594
X23.171 Y34.238
X23.721 Y34.035
X24.279
X24.829 Y34.238
X25.254 Y34.595
X25.541 Y35.099
X25.663 Y35.8
Y37.348
G3 X25.348 Y37.379 I-0.159
G1 X25.007 Y35.678
G3 X25.316 Y35.608 I0.156 J-0.031
X22.387 Y36.329 Z-15.165 I-1.464 J0.36
X25.316 Y35.608 Z-15.331 I1.464 J-0.36
X24.161 Y37.445 Z-15.415 I-1.464 J0.36
X22.366 Y36.227 Z-15.5 I-0.309 J-1.476
X23.259 Y34.959 I1.081 J-0.188
X24.527 Y35.851 I0.188 J1.081
G1 Y35.852
G3 X24.535 Y35.942 I-0.521 J0.09
G1 X24.531 Y95.354
G3 X23.998 Y95.887 I-0.533
X23.465 Y95.354 J-0.533
G1 X23.469 Y35.912
G3 X23.477 Y35.82 I0.528
G1 X23.479 Y35.809
G3 X24.52 Y35.811 I0.52 J0.092
G1 X24.527 Y35.851
G2 X25.127 Y36.575 I0.932 J-0.162
G3 X25.663 Y37.348 I-0.29 J0.773
G1 X25.659 Y95.532
X25.54 Y96.202
X25.254 Y96.702
X24.826 Y97.061
X24.283 Y97.261
X23.717
X23.175 Y97.061
X22.746 Y96.702
X22.46 Y96.203
X22.338 Y95.497
X22.341 Y35.767
X22.459 Y35.101
X22.747 Y34.594
X23.171 Y34.238
X23.721 Y34.035
X24.279
X24.829 Y34.238
X25.254 Y34.595
X25.541 Y35.099
X25.663 Y35.8
Y37.348
G3 X25.348 Y37.379 I-0.159
G1 X25.007 Y35.678
G3 X25.316 Y35.608 I0.156 J-0.031
X22.387 Y36.329 Z-15.665 I-1.464 J0.36
X25.316 Y35.608 Z-15.831 I1.464 J-0.36
X24.161 Y37.445 Z-15.915 I-1.464 J0.36
X22.366 Y36.227 Z-16 I-0.309 J-1.476
X23.259 Y34.959 I1.081 J-0.188
X24.527 Y35.851 I0.188 J1.081
G1 Y35.852
G3 X24.535 Y35.942 I-0.521 J0.09
G1 X24.531 Y95.387
G3 X24.523 Y95.479 I-0.528
G1 X24.521 Y95.487
G3 X23.48 Y95.485 I-0.52 J-0.092
G1 X23.473 Y95.445
G3 X23.465 Y95.354 I0.521 J-0.09
G1 X23.469 Y35.912
G3 X23.477 Y35.82 I0.528
G1 X23.479 Y35.809
G3 X24.52 Y35.811 I0.52 J0.092
G1 X24.527 Y35.851
G2 X25.127 Y36.575 I0.932 J-0.162
G3 X25.663 Y37.348 I-0.29 J0.773
G1 X25.659 Y95.532
X25.54 Y96.202
X25.254 Y96.702
X24.826 Y97.061
X24.283 Y97.261
X23.717
X23.175 Y97.061
X22.746 Y96.702
X22.46 Y96.203
X22.338 Y95.497
X22.341 Y35.767
X22.459 Y35.101
X22.747 Y34.594
X23.171 Y34.238
X23.721 Y34.035
X24.279
X24.829 Y34.238
X25.254 Y34.595
X25.541 Y35.099
X25.663 Y35.8
Y37.348
G3 X25.348 Y37.379 I-0.159
G1 X25.007 Y35.678
G3 X25.316 Y35.608 I0.156 J-0.031
X22.387 Y36.329 Z-16.165 I-1.464 J0.36
X25.316 Y35.608 Z-16.331 I1.464 J-0.36
X24.161 Y37.445 Z-16.415 I-1.464 J0.36
X22.366 Y36.227 Z-16.5 I-0.309 J-1.476
X23.259 Y34.959 I1.081 J-0.188
X24.527 Y35.851 I0.188 J1.081
G1 Y35.852
G3 X24.535 Y35.942 I-0.521 J0.09
G1 X24.531 Y95.354
G3 X23.998 Y95.887 I-0.533
X23.465 Y95.354 J-0.533
G1 X23.469 Y35.912
G3 X23.477 Y35.82 I0.528
G1 X23.479 Y35.809
G3 X24.52 Y35.811 I0.52 J0.092
G1 X24.527 Y35.851
G2 X25.127 Y36.575 I0.932 J-0.162
G3 X25.663 Y37.348 I-0.29 J0.773
G1 X25.659 Y95.532
X25.54 Y96.202
X25.254 Y96.702
X24.826 Y97.061
X24.283 Y97.261
X23.717
X23.175 Y97.061
X22.746 Y96.702
X22.46 Y96.203
X22.338 Y95.497
X22.341 Y35.767
X22.459 Y35.101
X22.747 Y34.594
X23.171 Y34.238
X23.721 Y34.035
X24.279
X24.829 Y34.238
X25.254 Y34.595
X25.541 Y35.099
X25.663 Y35.8
Y37.348
G3 X25.348 Y37.379 I-0.159
G1 X25.007 Y35.678
G3 X25.316 Y35.608 I0.156 J-0.031
X22.387 Y36.329 Z-16.665 I-1.464 J0.36
X25.316 Y35.608 Z-16.831 I1.464 J-0.36
X24.161 Y37.445 Z-16.915 I-1.464 J0.36
X22.366 Y36.227 Z-17 I-0.309 J-1.476
X23.259 Y34.959 I1.081 J-0.188
X24.527 Y35.851 I0.188 J1.081
G1 Y35.852
G3 X24.535 Y35.942 I-0.521 J0.09
G1 X24.531 Y95.354
G3 X23.998 Y95.887 I-0.533
X23.465 Y95.354 J-0.533
G1 X23.469 Y35.912
G3 X23.477 Y35.82 I0.528
G1 X23.479 Y35.809
G3 X24.52 Y35.811 I0.52 J0.092
G1 X24.527 Y35.851
G2 X25.127 Y36.575 I0.932 J-0.162
G3 X25.663 Y37.348 I-0.29 J0.773
G1 X25.659 Y95.532
X25.54 Y96.202
X25.254 Y96.702
X24.826 Y97.061
X24.283 Y97.261
X23.717
X23.175 Y97.061
X22.746 Y96.702
X22.46 Y96.203
X22.338 Y95.497
X22.341 Y35.767
X22.459 Y35.101
X22.747 Y34.594
X23.171 Y34.238
X23.721 Y34.035
X24.279
X24.829 Y34.238
X25.254 Y34.595
X25.541 Y35.099
X25.663 Y35.8
Y37.348
G3 X25.434 Y37.491 I-0.159
G1 X22.739 Y36.179
G3 X22.65 Y36.047 I0.069 J-0.143
X25.659 Y35.838 Z-17.165 I1.505 J-0.104
X22.65 Y36.047 Z-17.331 I-1.505 J0.104
X24.102 Y34.435 Z-17.415 I1.505 J-0.104
X25.662 Y35.943 Z-17.5 I0.052 J1.507
X23.469 I-1.097
G1 Y35.912
G3 X23.477 Y35.82 I0.528
G1 X23.479 Y35.809
G3 X24.52 Y35.811 I0.52 J0.092
G1 X24.527 Y35.852
G3 X24.535 Y35.942 I-0.521 J0.09
G1 X24.531 Y95.387
G3 X24.523 Y95.479 I-0.528
G1 X24.521 Y95.487
G3 X23.48 Y95.485 I-0.52 J-0.092
G1 X23.473 Y95.445
G3 X23.465 Y95.354 I0.521 J-0.09
G1 X23.469 Y35.943
G2 X23.038 Y35.244 I-0.782
G3 X22.943 Y34.429 I0.221 J-0.439
G1 X23.171 Y34.238
X23.721 Y34.035
X24.279
X24.829 Y34.238
X25.254 Y34.595
X25.541 Y35.099
X25.663 Y35.8
X25.659 Y95.532
X25.54 Y96.202
X25.254 Y96.702
X24.826 Y97.061
X24.283 Y97.261
X23.717
X23.175 Y97.061
X22.746 Y96.702
X22.46 Y96.203
X22.338 Y95.497
X22.341 Y35.767
X22.459 Y35.101
X22.747 Y34.594
X22.943 Y34.429
G3 X23.202 Y34.576 I0.102 J0.122
G1 X22.965 Y36.061
G3 X22.65 Y36.047 I-0.157 J-0.025
X25.659 Y35.838 Z-17.665 I1.505 J-0.104
X22.65 Y36.047 Z-17.831 I-1.505 J0.104
X24.102 Y34.435 Z-17.915 I1.505 J-0.104
X25.662 Y35.943 Z-18 I0.052 J1.507
X23.469 I-1.097
G1 Y35.912
G3 X23.477 Y35.82 I0.528
G1 X23.479 Y35.809
G3 X24.52 Y35.811 I0.52 J0.092
G1 X24.527 Y35.852
G3 X24.535 Y35.942 I-0.521 J0.09
G1 X24.531 Y95.387
G3 X24.523 Y95.479 I-0.528
G1 X24.521 Y95.487
G3 X23.48 Y95.485 I-0.52 J-0.092
G1 X23.473 Y95.445
G3 X23.465 Y95.354 I0.521 J-0.09
G1 X23.469 Y35.943
G2 X23.038 Y35.244 I-0.782
G3 X22.943 Y34.429 I0.221 J-0.439
G1 X23.171 Y34.238
X23.721 Y34.035
X24.279
X24.829 Y34.238
X25.254 Y34.595
X25.541 Y35.099
X25.663 Y35.8
X25.659 Y95.532
X25.54 Y96.202
X25.254 Y96.702
X24.826 Y97.061
X24.283 Y97.261
X23.717
X23.175 Y97.061
X22.746 Y96.702
X22.46 Y96.203
X22.338 Y95.497
X22.341 Y35.767
X22.459 Y35.101
X22.747 Y34.594
X22.943 Y34.429
G3 X23.202 Y34.576 I0.102 J0.122
G1 X22.965 Y36.061
G3 X22.65 Y36.047 I-0.157 J-0.025
X25.659 Y35.838 Z-18.165 I1.505 J-0.104
X22.65 Y36.047 Z-18.331 I-1.505 J0.104
X24.102 Y34.435 Z-18.415 I1.505 J-0.104
X25.662 Y35.943 Z-18.5 I0.052 J1.507
X23.469 I-1.097
G1 Y35.912
G3 X23.477 Y35.82 I0.528
G1 X23.479 Y35.809
G3 X24.52 Y35.811 I0.52 J0.092
G1 X24.527 Y35.852
G3 X24.535 Y35.942 I-0.521 J0.09
G1 X24.531 Y95.387
G3 X24.523 Y95.479 I-0.528
G1 X24.521 Y95.487
G3 X23.48 Y95.485 I-0.52 J-0.092
G1 X23.473 Y95.445
G3 X23.465 Y95.354 I0.521 J-0.09
G1 X23.469 Y35.943
G2 X23.038 Y35.244 I-0.782
G3 X22.943 Y34.429 I0.221 J-0.439
G1 X23.171 Y34.238
X23.721 Y34.035
X24.279
X24.829 Y34.238
X25.254 Y34.595
X25.541 Y35.099
X25.663 Y35.8
X25.659 Y95.532
X25.54 Y96.202
X25.254 Y96.702
X24.826 Y97.061
X24.283 Y97.261
X23.717
X23.175 Y97.061
X22.746 Y96.702
X22.46 Y96.203
X22.338 Y95.497
X22.341 Y35.767
X22.459 Y35.101
X22.747 Y34.594
X22.943 Y34.429
G3 X23.202 Y34.576 I0.102 J0.122
G1 X22.965 Y36.061
G3 X22.65 Y36.047 I-0.157 J-0.025
X25.659 Y35.838 Z-18.665 I1.505 J-0.104
X22.65 Y36.047 Z-18.831 I-1.505 J0.104
X24.102 Y34.435 Z-18.915 I1.505 J-0.104
X25.662 Y35.943 Z-19 I0.052 J1.507
X23.469 I-1.097
G1 Y35.912
G3 X23.477 Y35.82 I0.528
G1 X23.479 Y35.809
G3 X24.52 Y35.811 I0.52 J0.092
G1 X24.527 Y35.852
G3 X24.535 Y35.942 I-0.521 J0.09
G1 X24.531 Y95.387
G3 X24.523 Y95.479 I-0.528
G1 X24.521 Y95.487
G3 X23.48 Y95.485 I-0.52 J-0.092
G1 X23.473 Y95.445
G3 X23.465 Y95.354 I0.521 J-0.09
G1 X23.469 Y35.943
G2 X23.038 Y35.244 I-0.782
G3 X22.943 Y34.429 I0.221 J-0.439
G1 X23.171 Y34.238
X23.721 Y34.035
X24.279
X24.829 Y34.238
X25.254 Y34.595
X25.541 Y35.099
X25.663 Y35.8
X25.659 Y95.532
X25.54 Y96.202
X25.254 Y96.702
X24.826 Y97.061
X24.283 Y97.261
X23.717
X23.175 Y97.061
X22.746 Y96.702
X22.46 Y96.203
X22.338 Y95.497
X22.341 Y35.767
X22.459 Y35.101
X22.747 Y34.594
X22.943 Y34.429
G3 X23.118 Y34.41 I0.102 J0.122
G1 X25.235 Y35.505
G3 X25.316 Y35.608 I-0.073 J0.141
X22.387 Y36.329 Z-19.165 I-1.464 J0.36
X25.316 Y35.608 Z-19.331 I1.464 J-0.36
X24.161 Y37.445 Z-19.415 I-1.464 J0.36
X22.366 Y36.227 Z-19.5 I-0.309 J-1.476
X23.259 Y34.959 I1.081 J-0.188
X24.527 Y35.851 I0.188 J1.081
G1 Y35.852
G3 X24.535 Y35.942 I-0.521 J0.09
G1 X24.531 Y95.387
G3 X24.523 Y95.479 I-0.528
G1 X24.521 Y95.487
G3 X23.48 Y95.485 I-0.52 J-0.092
G1 X23.473 Y95.445
G3 X23.465 Y95.354 I0.521 J-0.09
G1 X23.469 Y35.912
G3 X23.477 Y35.82 I0.528
G1 X23.479 Y35.809
G3 X24.52 Y35.811 I0.52 J0.092
G1 X24.527 Y35.851
G2 X25.127 Y36.575 I0.932 J-0.162
G3 X25.663 Y37.348 I-0.29 J0.773
G1 X25.659 Y95.532
X25.54 Y96.202
X25.254 Y96.702
X24.826 Y97.061
X24.283 Y97.261
X23.717
X23.175 Y97.061
X22.746 Y96.702
X22.46 Y96.203
X22.338 Y95.497
X22.341 Y35.767
X22.459 Y35.101
X22.747 Y34.594
X23.171 Y34.238
X23.721 Y34.035
X24.279
X24.829 Y34.238
X25.254 Y34.595
X25.541 Y35.099
X25.663 Y35.8
Y37.348
G3 X25.434 Y37.491 I-0.159
G1 X22.739 Y36.179
G3 X22.65 Y36.047 I0.069 J-0.143
X25.659 Y35.838 Z-19.665 I1.505 J-0.104
X22.65 Y36.047 Z-19.831 I-1.505 J0.104
X24.102 Y34.435 Z-19.915 I1.505 J-0.104
X25.662 Y35.943 Z-20 I0.052 J1.507
X23.469 I-1.097
G1 Y35.912
G3 X23.477 Y35.82 I0.528
G1 X23.479 Y35.809
G3 X24.52 Y35.811 I0.52 J0.092
G1 X24.527 Y35.852
G3 X24.535 Y35.942 I-0.521 J0.09
G1 X24.531 Y95.387
G3 X24.523 Y95.479 I-0.528
G1 X24.521 Y95.487
G3 X23.48 Y95.485 I-0.52 J-0.092
G1 X23.473 Y95.445
G3 X23.465 Y95.354 I0.521 J-0.09
G1 X23.469 Y35.943
G2 X23.038 Y35.244 I-0.782
G3 X22.943 Y34.429 I0.221 J-0.439
G1 X23.171 Y34.238
X23.721 Y34.035
X24.279
X24.829 Y34.238
X25.254 Y34.595
X25.541 Y35.099
X25.663 Y35.8
X25.659 Y95.532
X25.54 Y96.202
X25.254 Y96.702
X24.826 Y97.061
X24.283 Y97.261
X23.717
X23.175 Y97.061
X22.746 Y96.702
X22.46 Y96.203
X22.338 Y95.497
X22.341 Y35.767
X22.459 Y35.101
X22.747 Y34.594
X22.943 Y34.429
G3 X23.027 Y34.378 Z-19.984 I0.204 J0.243
X23.113 Y34.357 Z-19.939 I0.12 J0.294
X23.183 Z-19.869 I0.035 J0.316
X23.227 Y34.365 Z-19.781 I-0.035 J0.316
X23.242 Y34.369 Z-19.683 I-0.079 J0.307
G0 Z5
X26.002 Y123.209
Z0.842
G3 X25.992 Y123.22 Z0.746 I-1.099 J-1.033 F600
X25.961 Y123.25 Z0.659 I-1.089 J-1.044
X25.912 Y123.297 Z0.589 I-1.058 J-1.075
X25.847 Y123.352 Z0.543 I-1.009 J-1.121
X25.771 Y123.409 Z0.525 I-0.944 J-1.176
X24.035 Y120.942 Z0.36 I-0.868 J-1.234
X25.771 Y123.409 Z0.194 I0.868 J1.234
X24.035 Y120.942 Z0.029 I-0.868 J-1.234
X25.771 Y123.409 Z-0.137 I0.868 J1.234
X24.035 Y120.942 Z-0.302 I-0.868 J-1.234
X25.771 Y123.409 Z-0.468 I0.868 J1.234
X24.903 Y123.684 Z-0.5 I-0.868 J-1.234
G1 X23.201
G3 Y122.137 J-0.774
G1 X24.967
G3 X25.677 Y122.846 J0.71
G1 Y122.974
G3 X24.967 Y123.684 I-0.71
G1 X24.903
G2 X23.702 Y124.485 J1.301
G3 X22.501 Y125.285 I-1.201 J-0.501
G1 X21.683
G3 X20.72 Y124.322 J-0.963
G1 Y121.498
G3 X21.684 Y120.535 I0.963
G1 X26.315
G3 X27.278 Y121.498 J0.963
G1 Y124.323
G3 X26.315 Y125.286 I-0.963
G1 X22.501 Y125.285
G2 X20.602 Y126.53 J2.07
G3 X18.379 Y126.067 I-1.063 J-0.463
G1 X18.38 Y119.158
G3 X19.343 Y118.195 I0.963
G1 X28.655
G3 X29.619 Y119.158 J0.963
G1 Y126.663
G3 X28.656 Y127.626 I-0.963
G1 X19.342
G3 X18.379 Y126.662 J-0.963
G1 Y126.067
G2 X17.209 Y124.312 I-1.902
G3 X16.039 Y122.556 I0.732 J-1.755
G1 X16.04 Y116.817
G3 X17.003 Y115.854 I0.963
G1 X30.996
G3 X31.959 Y116.817 J0.963
G1 Y129.004
G3 X30.996 Y129.967 I-0.963
G1 X17.001 Y129.966
G3 X16.038 Y129.003 J-0.963
G1 X16.039 Y122.556
G2 X14.869 Y120.8 I-1.902
G3 X13.699 Y119.045 I0.732 J-1.755
G1 Y114.477
G3 X14.663 Y113.513 I0.963
G1 X33.337
G3 X34.3 Y114.477 J0.963
G1 Y131.345
G3 X33.337 Y132.308 I-0.963
G1 X14.66 Y132.306
G3 X13.697 Y131.343 J-0.963
G1 X13.699 Y119.045
G2 X12.529 Y117.289 I-1.902
G3 X11.358 Y115.534 I0.732 J-1.755
G1 X11.359 Y112.136
G3 X12.322 Y111.173 I0.963
G1 X35.677
G3 X36.641 Y112.136 J0.963
G1 Y133.686
G3 X35.677 Y134.649 I-0.963
G1 X12.319 Y134.647
G3 X11.356 Y133.683 J-0.963
G1 X11.358 Y115.534
G2 X10.181 Y113.767 I-1.914
G3 X9.003 Y112 I0.736 J-1.767
G1 X9.004 Y108.814
X9.065 Y108.816
G2 X9.1 Y108.817 I0.034 J-0.793
G1 X38.9
G2 X38.934 Y108.816 J-0.794
G1 X38.996 Y108.814
Y137.001
X38.964 Y137.005
X9.009 Y137.002
X9.004 Y137.001
X9 Y136.96
X9.003 Y112
G3 X9.018 Y111.903 Z-0.484 I0.318
X9.057 Y111.824 Z-0.439 I0.302 J0.097
X9.102 Y111.77 Z-0.369 I0.264 J0.176
X9.136 Y111.741 Z-0.281 I0.219 J0.23
X9.149 Y111.733 Z-0.183 I0.184 J0.258
G0 Z5
X26.435 Y123.499
Z0.342
G3 X26.425 Y123.51 Z0.246 I-1.099 J-1.033 F600
X26.394 Y123.541 Z0.159 I-1.089 J-1.044
X26.345 Y123.587 Z0.089 I-1.058 J-1.075
X26.28 Y123.642 Z0.043 I-1.009 J-1.121
X26.204 Y123.7 Z0.025 I-0.944 J-1.176
X24.468 Y121.233 Z-0.14 I-0.868 J-1.234
X26.204 Y123.7 Z-0.306 I0.868 J1.234
X24.468 Y121.233 Z-0.471 I-0.868 J-1.234
X26.204 Y123.7 Z-0.637 I0.868 J1.234
X24.468 Y121.233 Z-0.802 I-0.868 J-1.234
X26.204 Y123.7 Z-0.968 I0.868 J1.234
X25.336 Y123.974 Z-1 I-0.868 J-1.234
G1 X22.839
G3 Y122.713 J-0.631
G1 X25.438
G3 X25.967 Y123.241 J0.528
G1 Y123.446
G3 X25.438 Y123.974 I-0.528
G1 X25.336
G2 X24.352 Y124.63 J1.065
G3 X23.369 Y125.285 I-0.983 J-0.41
G1 X21.683
G3 X20.72 Y124.322 J-0.963
G1 Y122.364
G3 X21.684 Y121.401 I0.963
G1 X26.315
G3 X27.278 Y122.364 J0.963
G1 Y124.323
G3 X26.315 Y125.286 I-0.963
G1 X23.369 Y125.285
G2 X21.613 Y126.455 J1.902
G3 X19.858 Y127.626 I-1.755 J-0.732
G1 X19.342
G3 X18.379 Y126.662 J-0.963
G1 X18.38 Y120.024
G3 X19.343 Y119.061 I0.963
G1 X28.655
G3 X29.619 Y120.024 J0.963
G1 Y126.663
G3 X28.656 Y127.626 I-0.963
G1 X19.858
G2 X18.047 Y128.657 J2.105
G3 X16.038 Y128.105 I-0.929 J-0.551
G1 X16.039 Y117.683
G3 X17.003 Y116.72 I0.963
G1 X30.996
G3 X31.959 Y117.683 J0.963
G1 Y129.004
G3 X30.996 Y129.967 I-0.963
G1 X17.001 Y129.966
G3 X16.038 Y129.003 J-0.963
G1 Y128.105
G2 X14.868 Y126.35 I-1.902
G3 X13.698 Y124.594 I0.732 J-1.755
G1 X13.699 Y115.343
G3 X14.663 Y114.379 I0.963
G1 X33.337
G3 X34.3 Y115.343 J0.963
G1 Y131.345
G3 X33.337 Y132.308 I-0.963
G1 X14.66 Y132.306
G3 X13.697 Y131.343 J-0.963
G1 X13.698 Y124.594
G2 X12.528 Y122.839 I-1.902
G3 X11.358 Y121.083 I0.732 J-1.755
G1 X11.359 Y113.002
G3 X12.322 Y112.039 I0.963
G1 X35.677
G3 X36.641 Y113.002 J0.963
G1 Y133.686
G3 X35.677 Y134.649 I-0.963
G1 X12.319 Y134.647
G3 X11.356 Y133.683 J-0.963
G1 X11.358 Y121.083
G2 X10.18 Y119.316 I-1.914
G3 X9.003 Y117.549 I0.736 J-1.767
G1 X9.004 Y109.68
X9.065 Y109.682
G2 X9.1 Y109.683 I0.034 J-0.793
G1 X38.9
G2 X38.934 Y109.682 J-0.794
G1 X38.996 Y109.68
Y137.001
X38.964 Y137.005
X9.009 Y137.002
X9.004 Y137.001
X9 Y136.96
X9.003 Y117.549
G3 X9.018 Y117.453 Z-0.984 I0.318
X9.056 Y117.373 Z-0.939 I0.302 J0.097
X9.101 Y117.32 Z-0.869 I0.264 J0.176
X9.136 Y117.291 Z-0.781 I0.219 J0.23
X9.149 Y117.282 Z-0.683 I0.184 J0.258
G0 Z5
X26.868 Y124.811
Z1.5
G1 Z-0.158 F600
G3 X26.857 Y124.821 Z-0.254 I-1.099 J-1.033
X26.827 Y124.852 Z-0.341 I-1.089 J-1.044
X26.778 Y124.898 Z-0.411 I-1.058 J-1.075
X26.713 Y124.954 Z-0.457 I-1.009 J-1.121
X26.637 Y125.011 Z-0.475 I-0.944 J-1.176
X24.901 Y122.544 Z-0.64 I-0.868 J-1.234
X26.637 Y125.011 Z-0.806 I0.868 J1.234
X24.901 Y122.544 Z-0.971 I-0.868 J-1.234
X26.637 Y125.011 Z-1.137 I0.868 J1.234
X24.901 Y122.544 Z-1.302 I-0.868 J-1.234
X26.637 Y125.011 Z-1.468 I0.868 J1.234
X25.769 Y125.286 Z-1.5 I-0.868 J-1.234
G1 X21.683 Y125.285
G3 X20.72 Y124.322 J-0.963
G1 Y123.23
G3 X21.683 Y122.267 I0.963
G1 X26.315
G3 X27.278 Y123.23 J0.963
G1 Y124.323
G3 X26.315 Y125.286 I-0.963
G1 X25.769
G2 X24.013 Y126.456 J1.902
G3 X22.258 Y127.626 I-1.755 J-0.732
G1 X19.342
G3 X18.379 Y126.662 J-0.963
G1 X18.38 Y120.89
G3 X19.343 Y119.927 I0.963
G1 X28.655
G3 X29.619 Y120.89 J0.963
G1 Y126.663
G3 X28.656 Y127.626 I-0.963
G1 X22.258
G2 X20.502 Y128.796 J1.902
G3 X18.747 Y129.966 I-1.755 J-0.732
G1 X17.001
G3 X16.038 Y129.003 J-0.963
G1 X16.039 Y118.549
G3 X17.003 Y117.586 I0.963
G1 X30.996
G3 X31.959 Y118.549 J0.963
G1 Y129.004
G3 X30.996 Y129.967 I-0.963
G1 X18.747 Y129.966
G2 X16.991 Y131.136 J1.902
G3 X15.235 Y132.306 I-1.755 J-0.732
G1 X14.66
G3 X13.697 Y131.343 J-0.963
G1 X13.699 Y116.209
G3 X14.663 Y115.245 I0.963
G1 X33.337
G3 X34.3 Y116.209 J0.963
G1 Y131.345
G3 X33.337 Y132.308 I-0.963
G1 X15.235 Y132.306
G2 X13.408 Y133.38 J2.093
G3 X11.356 Y132.846 I-0.956 J-0.534
G1 X11.359 Y113.868
G3 X12.322 Y112.905 I0.963
G1 X35.677
G3 X36.641 Y113.868 J0.963
G1 Y133.686
G3 X35.677 Y134.649 I-0.963
G1 X12.319 Y134.647
G3 X11.356 Y133.683 J-0.963
G1 Y132.846
G2 X10.179 Y131.079 I-1.914
G3 X9.001 Y129.312 I0.736 J-1.767
G1 X9.004 Y110.546
X9.065 Y110.548
G2 X9.1 Y110.549 I0.034 J-0.793
G1 X38.9
G2 X38.934 Y110.548 J-0.794
G1 X38.996 Y110.546
Y137.001
X38.964 Y137.005
X9.009 Y137.002
X9.004 Y137.001
X9 Y136.96
X9.001 Y129.312
G3 X9.016 Y129.215 Z-1.484 I0.318
X9.054 Y129.136 Z-1.439 I0.302 J0.097
X9.1 Y129.082 Z-1.369 I0.264 J0.176
X9.134 Y129.054 Z-1.281 I0.219 J0.23
X9.147 Y129.045 Z-1.183 I0.184 J0.258
G0 Z5
X27.301 Y124.811
Z-0.658
G3 X27.29 Y124.821 Z-0.754 I-1.099 J-1.033 F600
X27.26 Y124.852 Z-0.841 I-1.089 J-1.044
X27.211 Y124.898 Z-0.911 I-1.058 J-1.075
X27.146 Y124.954 Z-0.957 I-1.009 J-1.121
X27.07 Y125.011 Z-0.975 I-0.944 J-1.176
X25.334 Y122.544 Z-1.14 I-0.868 J-1.234
X27.07 Y125.011 Z-1.306 I0.868 J1.234
X25.334 Y122.544 Z-1.471 I-0.868 J-1.234
X27.07 Y125.011 Z-1.637 I0.868 J1.234
X25.334 Y122.544 Z-1.802 I-0.868 J-1.234
X27.07 Y125.011 Z-1.968 I0.868 J1.234
X26.202 Y125.286 Z-2 I-0.868 J-1.234
G1 X21.683 Y125.285
G3 X20.72 Y124.322 J-0.963
G1 Y124.096
G3 X21.683 Y123.133 I0.963
G1 X26.315
G3 X27.278 Y124.096 J0.963
G1 Y124.323
G3 X26.315 Y125.286 I-0.963
G1 X26.202
G2 X24.446 Y126.456 J1.902
G3 X22.691 Y127.626 I-1.755 J-0.732
G1 X19.342
G3 X18.379 Y126.662 J-0.963
G1 X18.38 Y121.756
G3 X19.343 Y120.793 I0.963
G1 X28.655
G3 X29.619 Y121.756 J0.963
G1 Y126.663
G3 X28.656 Y127.626 I-0.963
G1 X22.691
G2 X20.935 Y128.796 J1.902
G3 X19.18 Y129.966 I-1.755 J-0.732
G1 X17.001
G3 X16.038 Y129.003 J-0.963
G1 X16.039 Y119.415
G3 X17.003 Y118.452 I0.963
G1 X30.996
G3 X31.959 Y119.415 J0.963
G1 Y129.004
G3 X30.996 Y129.967 I-0.963
G1 X19.18 Y129.966
G2 X17.424 Y131.136 J1.902
G3 X15.668 Y132.306 I-1.755 J-0.732
G1 X14.66
G3 X13.697 Y131.343 J-0.963
G1 X13.699 Y117.075
G3 X14.663 Y116.111 I0.963
G1 X33.337
G3 X34.3 Y117.075 J0.963
G1 Y131.345
G3 X33.337 Y132.308 I-0.963
G1 X15.668 Y132.306
G2 X13.714 Y133.686 J2.074
G3 X11.356 Y133.279 I-1.144 J-0.407
G1 X11.359 Y114.734
G3 X12.322 Y113.771 I0.963
G1 X35.677
G3 X36.641 Y114.734 J0.963
G1 Y133.686
G3 X35.677 Y134.649 I-0.963
G1 X12.319 Y134.647
G3 X11.356 Y133.683 J-0.963
G1 Y133.279
G2 X10.179 Y131.512 I-1.914
G3 X9.001 Y129.745 I0.736 J-1.767
G1 X9.004 Y111.412
X9.068 Y111.414
G2 X9.1 Y111.415 I0.032 J-0.793
G1 X38.9
G2 X38.932 Y111.414 J-0.794
G1 X38.996 Y111.412
Y137.001
X38.964 Y137.005
X9.009 Y137.002
X9.004 Y137.001
X9 Y136.96
X9.001 Y129.745
G3 X9.016 Y129.649 Z-1.984 I0.318
X9.054 Y129.569 Z-1.939 I0.302 J0.097
X9.1 Y129.515 Z-1.869 I0.264 J0.176
X9.134 Y129.487 Z-1.781 I0.219 J0.23
X9.147 Y129.478 Z-1.683 I0.184 J0.258
G0 Z5
X27.732 Y124.811
Z-1.158
G3 X27.721 Y124.821 Z-1.254 I-1.099 J-1.033 F600
X27.691 Y124.852 Z-1.341 I-1.089 J-1.044
X27.642 Y124.898 Z-1.411 I-1.058 J-1.075
X27.577 Y124.954 Z-1.457 I-1.009 J-1.121
X27.501 Y125.011 Z-1.475 I-0.944 J-1.176
X25.765 Y122.544 Z-1.64 I-0.868 J-1.234
X27.501 Y125.011 Z-1.806 I0.868 J1.234
X25.765 Y122.544 Z-1.971 I-0.868 J-1.234
X27.501 Y125.011 Z-2.137 I0.868 J1.234
X25.765 Y122.544 Z-2.302 I-0.868 J-1.234
X27.501 Y125.011 Z-2.468 I0.868 J1.234
X26.633 Y125.286 Z-2.5 I-0.868 J-1.234
G1 X21.536 Y125.285
G3 Y123.995 J-0.645
G1 X26.75
G3 X27.278 Y124.523 J0.528
G1 Y124.757
G3 X26.75 Y125.286 I-0.528
G1 X26.633
G2 X24.877 Y126.456 J1.902
G3 X23.122 Y127.626 I-1.755 J-0.732
G1 X19.342
G3 X18.379 Y126.662 J-0.963
G1 X18.38 Y122.618
G3 X19.343 Y121.654 I0.963
G1 X28.655
G3 X29.619 Y122.618 J0.963
G1 Y126.663
G3 X28.656 Y127.626 I-0.963
G1 X23.122
G2 X21.366 Y128.796 J1.902
G3 X19.61 Y129.966 I-1.755 J-0.732
G1 X17.001
G3 X16.038 Y129.003 J-0.963
G1 X16.039 Y120.277
G3 X17.003 Y119.314 I0.963
G1 X30.996
G3 X31.959 Y120.277 J0.963
G1 Y129.004
G3 X30.996 Y129.967 I-0.963
G1 X19.61 Y129.966
G2 X17.855 Y131.136 J1.902
G3 X16.099 Y132.307 I-1.755 J-0.732
G1 X14.66 Y132.306
G3 X13.697 Y131.343 J-0.963
G1 X13.699 Y117.936
G3 X14.662 Y116.973 I0.963
G1 X33.337
G3 X34.3 Y117.936 J0.963
G1 Y131.345
G3 X33.337 Y132.308 I-0.963
G1 X16.099 Y132.307
G2 X14.344 Y133.477 J1.902
G3 X12.588 Y134.647 I-1.755 J-0.732
G1 X12.319
G3 X11.356 Y133.683 J-0.963
G1 X11.359 Y115.596
G3 X12.322 Y114.633 I0.963
G1 X35.677
G3 X36.641 Y115.596 J0.963
G1 Y133.686
G3 X35.677 Y134.649 I-0.963
G1 X12.588 Y134.647
G2 X10.821 Y135.824 J1.914
G3 X9.054 Y137.002 I-1.767 J-0.736
G1 X9.009
X9.004 Y137.001
X9 Y136.96
X9.004 Y112.277
X38.996
Y137.001
X38.964 Y137.005
X9.054 Y137.002
X9.009 Z-2.497
X9.004 Y137.001 Z-2.496
X9 Y136.96 Z-2.486
Y136.898 Z-2.46
Y136.842 Z-2.421
Y136.797 Z-2.372
Y136.763 Z-2.314
Y136.741 Z-2.25
Y136.734 Z-2.183
G0 Z5
X28.166 Y125.432
Z-1.658
G3 X28.156 Y125.443 Z-1.754 I-1.099 J-1.033 F600
X28.126 Y125.473 Z-1.841 I-1.089 J-1.044
X28.077 Y125.52 Z-1.911 I-1.058 J-1.075
X28.012 Y125.575 Z-1.957 I-1.009 J-1.121
X27.935 Y125.632 Z-1.975 I-0.944 J-1.176
X26.2 Y123.165 Z-2.14 I-0.868 J-1.233
X27.935 Y125.632 Z-2.306 I0.868 J1.233
X26.2 Y123.165 Z-2.471 I-0.868 J-1.233
X27.935 Y125.632 Z-2.637 I0.868 J1.233
X26.2 Y123.165 Z-2.802 I-0.868 J-1.234
X27.935 Y125.632 Z-2.968 I0.868 J1.234
X27.067 Y125.907 Z-3 I-0.868 J-1.234
G1 X21.005 Y125.906
G3 Y124.243 J-0.832
G1 X27.19
G3 X27.899 Y124.953 J0.71
G1 Y125.197
G3 X27.19 Y125.907 I-0.71
G1 X27.067
G2 X25.778 Y126.766 J1.397
G3 X24.488 Y127.626 I-1.289 J-0.537
G1 X19.342
G3 X18.379 Y126.662 J-0.963
G1 X18.38 Y123.487
G3 X19.343 Y122.524 I0.963
G1 X28.655
G3 X29.619 Y123.487 J0.963
G1 Y126.663
G3 X28.656 Y127.626 I-0.963
G1 X24.488
G2 X22.733 Y128.796 J1.902
G3 X20.977 Y129.966 I-1.755 J-0.732
G1 X17.001
G3 X16.038 Y129.003 J-0.963
G1 X16.039 Y121.147
G3 X17.003 Y120.183 I0.963
G1 X30.996
G3 X31.959 Y121.147 J0.963
G1 Y129.004
G3 X30.996 Y129.967 I-0.963
G1 X20.977 Y129.966
G2 X19.222 Y131.136 J1.902
G3 X17.466 Y132.307 I-1.755 J-0.732
G1 X14.66 Y132.306
G3 X13.697 Y131.343 J-0.963
G1 X13.699 Y118.806
G3 X14.662 Y117.843 I0.963
G1 X33.337
G3 X34.3 Y118.806 J0.963
G1 Y131.345
G3 X33.337 Y132.308 I-0.963
G1 X17.466 Y132.307
G2 X15.71 Y133.477 J1.902
G3 X13.955 Y134.647 I-1.755 J-0.732
G1 X12.319
G3 X11.356 Y133.683 J-0.963
G1 X11.359 Y116.465
G3 X12.322 Y115.502 I0.963
G1 X35.677
G3 X36.641 Y116.465 J0.963
G1 Y133.686
G3 X35.677 Y134.649 I-0.963
G1 X13.955 Y134.647
G2 X12.188 Y135.825 J1.914
G3 X10.421 Y137.002 I-1.767 J-0.736
G1 X9.009
X9.004 Y137.001
X9 Y136.96
X9.004 Y113.146
X38.996
Y137.001
X38.964 Y137.005
X10.421 Y137.002
G3 X10.325 Y136.987 Z-2.984 J-0.318
X10.245 Y136.949 Z-2.939 I0.097 J-0.302
X10.191 Y136.904 Z-2.869 I0.176 J-0.264
X10.163 Y136.869 Z-2.781 I0.23 J-0.219
X10.154 Y136.856 Z-2.683 I0.258 J-0.184
G0 Z5
X28.6 Y125.722
Z-2.158
G3 X28.59 Y125.733 Z-2.254 I-1.099 J-1.033 F600
X28.559 Y125.764 Z-2.341 I-1.089 J-1.044
X28.51 Y125.81 Z-2.411 I-1.058 J-1.075
X28.445 Y125.865 Z-2.457 I-1.009 J-1.121
X28.369 Y125.923 Z-2.475 I-0.944 J-1.176
X26.633 Y123.456 Z-2.64 I-0.868 J-1.233
X28.369 Y125.923 Z-2.806 I0.868 J1.233
X26.633 Y123.456 Z-2.971 I-0.868 J-1.233
X28.369 Y125.923 Z-3.137 I0.868 J1.233
X26.633 Y123.456 Z-3.302 I-0.868 J-1.234
X28.369 Y125.923 Z-3.468 I0.868 J1.234
X27.501 Y126.197 Z-3.5 I-0.868 J-1.234
G1 X20.645
G3 X19.956 Y125.508 J-0.688
X20.645 Y124.82 I0.688
G1 X27.661
G3 X28.19 Y125.348 J0.528
G1 Y125.669
G3 X27.661 Y126.197 I-0.528
G1 X27.501
G2 X26.429 Y126.912 J1.161
G3 X25.357 Y127.626 I-1.072 J-0.447
G1 X19.33
G3 X18.379 Y126.674 J-0.951
G1 X18.38 Y124.354
G3 X19.343 Y123.391 I0.963
G1 X28.655
G3 X29.619 Y124.354 J0.963
G1 Y126.663
G3 X28.656 Y127.626 I-0.963
G1 X25.357
G2 X23.602 Y128.796 J1.902
G3 X21.846 Y129.966 I-1.755 J-0.732
G1 X16.989
G3 X16.038 Y129.015 J-0.951
G1 X16.039 Y122.013
G3 X17.003 Y121.05 I0.963
G1 X30.996
G3 X31.959 Y122.013 J0.963
G1 Y129.004
G3 X30.996 Y129.967 I-0.963
G1 X21.846 Y129.966
G2 X20.09 Y131.137 J1.902
G3 X18.335 Y132.307 I-1.755 J-0.732
G1 X14.648 Y132.306
G3 X13.697 Y131.355 J-0.951
G1 X13.699 Y119.673
G3 X14.662 Y118.709 I0.963
G1 X33.337
G3 X34.3 Y119.673 J0.963
G1 Y131.345
G3 X33.337 Y132.308 I-0.963
G1 X18.335 Y132.307
G2 X16.579 Y133.477 J1.902
G3 X14.824 Y134.647 I-1.755 J-0.732
G1 X12.307
G3 X11.356 Y133.695 J-0.951
G1 X11.359 Y117.332
G3 X12.322 Y116.369 I0.963
G1 X35.677
G3 X36.641 Y117.332 J0.963
G1 Y133.686
G3 X35.677 Y134.649 I-0.963
G1 X14.824 Y134.647
G2 X13.057 Y135.825 J1.914
G3 X11.29 Y137.002 I-1.767 J-0.736
G1 X9.009
X9.004 Y137.001
X9 Y136.96
X9.004 Y114.01
X9.065 Y114.012
G2 X9.1 Y114.013 I0.034 J-0.793
G1 X38.9
G2 X38.934 Y114.012 J-0.794
G1 X38.996 Y114.01
Y137.001
X38.964 Y137.005
X11.29 Y137.002
G3 X11.193 Y136.987 Z-3.484 J-0.318
X11.114 Y136.949 Z-3.439 I0.097 J-0.302
X11.06 Y136.904 Z-3.369 I0.176 J-0.264
X11.032 Y136.869 Z-3.281 I0.23 J-0.219
X11.023 Y136.856 Z-3.183 I0.258 J-0.184
G0 Z5
X29.033 Y126.012
Z-2.658
G3 X29.023 Y126.023 Z-2.754 I-1.099 J-1.033 F600
X28.992 Y126.054 Z-2.841 I-1.089 J-1.044
X28.943 Y126.1 Z-2.911 I-1.058 J-1.075
X28.878 Y126.155 Z-2.957 I-1.009 J-1.121
X28.802 Y126.213 Z-2.975 I-0.944 J-1.176
X27.066 Y123.746 Z-3.14 I-0.868 J-1.234
X28.802 Y126.213 Z-3.306 I0.868 J1.234
X27.066 Y123.746 Z-3.471 I-0.868 J-1.234
X28.802 Y126.213 Z-3.637 I0.868 J1.234
X27.066 Y123.746 Z-3.802 I-0.868 J-1.234
X28.802 Y126.213 Z-3.968 I0.868 J1.234
X27.934 Y126.487 Z-4 I-0.868 J-1.234
G1 X20.279
G3 Y125.396 J-0.546
G1 X27.951
G3 X28.48 Y125.924 J0.528
G1 Y125.959
G3 X27.951 Y126.487 I-0.528
G1 X27.934
G2 X27.08 Y127.057 J0.925
G3 X26.225 Y127.626 I-0.854 J-0.356
G1 X19.342
G3 X18.379 Y126.662 J-0.963
G1 Y125.22
G3 X19.343 Y124.257 I0.963
G1 X28.655
G3 X29.619 Y125.22 J0.963
G1 Y126.663
G3 X28.656 Y127.626 I-0.963
G1 X26.225
G2 X24.47 Y128.796 J1.902
G3 X22.714 Y129.967 I-1.755 J-0.732
G1 X17.001 Y129.966
G3 X16.038 Y129.003 J-0.963
G1 X16.039 Y122.879
G3 X17.003 Y121.916 I0.963
G1 X30.996
G3 X31.959 Y122.879 J0.963
G1 Y129.004
G3 X30.996 Y129.967 I-0.963
G1 X22.714
G2 X20.959 Y131.137 J1.902
G3 X19.203 Y132.307 I-1.755 J-0.732
G1 X14.66 Y132.306
G3 X13.697 Y131.343 J-0.963
G1 X13.699 Y120.539
G3 X14.662 Y119.576 I0.963
G1 X33.337
G3 X34.3 Y120.539 J0.963
G1 Y131.345
G3 X33.337 Y132.308 I-0.963
G1 X19.203 Y132.307
G2 X17.448 Y133.477 J1.902
G3 X15.692 Y134.647 I-1.755 J-0.732
G1 X12.319
G3 X11.356 Y133.683 J-0.963
G1 X11.359 Y118.198
G3 X12.322 Y117.235 I0.963
G1 X35.677
G3 X36.641 Y118.198 J0.963
G1 Y133.686
G3 X35.677 Y134.649 I-0.963
G1 X15.692 Y134.647
G2 X13.925 Y135.825 J1.914
G3 X12.158 Y137.002 I-1.767 J-0.736
G1 X9.009
X9.004 Y137.001
X9 Y136.96
X9.004 Y114.876
X9.065 Y114.878
G2 X9.1 Y114.879 I0.034 J-0.793
G1 X38.9
G2 X38.934 Y114.878 J-0.794
G1 X38.996 Y114.876
Y137.001
X38.964 Y137.005
X12.158 Y137.002
G3 X12.062 Y136.987 Z-3.984 J-0.317
X11.982 Y136.949 Z-3.939 I0.097 J-0.302
X11.928 Y136.904 Z-3.869 I0.176 J-0.264
X11.9 Y136.869 Z-3.781 I0.23 J-0.219
X11.891 Y136.856 Z-3.683 I0.258 J-0.184
G0 Z5
X29.466 Y127.151
Z-3.158
G3 X29.455 Y127.162 Z-3.254 I-1.099 J-1.033 F600
X29.425 Y127.193 Z-3.341 I-1.089 J-1.044
X29.376 Y127.239 Z-3.411 I-1.058 J-1.075
X29.311 Y127.294 Z-3.457 I-1.009 J-1.121
X29.235 Y127.352 Z-3.475 I-0.944 J-1.176
X27.499 Y124.885 Z-3.64 I-0.868 J-1.234
X29.235 Y127.352 Z-3.806 I0.868 J1.234
X27.499 Y124.885 Z-3.971 I-0.868 J-1.234
X29.235 Y127.352 Z-4.137 I0.868 J1.234
X27.499 Y124.885 Z-4.302 I-0.868 J-1.234
X29.235 Y127.352 Z-4.468 I0.868 J1.234
X28.367 Y127.626 Z-4.5 I-0.868 J-1.234
G1 X19.342
G3 X18.379 Y126.662 J-0.963
G1 Y126.086
G3 X19.343 Y125.123 I0.963
G1 X28.655
G3 X29.619 Y126.086 J0.963
G1 Y126.663
G3 X28.656 Y127.626 I-0.963
G1 X28.367
G2 X26.611 Y128.797 J1.902
G3 X24.856 Y129.967 I-1.755 J-0.732
G1 X17.001 Y129.966
G3 X16.038 Y129.003 J-0.963
G1 X16.039 Y123.745
G3 X17.003 Y122.782 I0.963
G1 X30.996
G3 X31.959 Y123.745 J0.963
G1 Y129.004
G3 X30.996 Y129.967 I-0.963
G1 X24.856
G2 X23.1 Y131.137 J1.902
G3 X21.345 Y132.307 I-1.755 J-0.732
G1 X14.66 Y132.306
G3 X13.697 Y131.343 J-0.963
G1 X13.699 Y121.405
G3 X14.662 Y120.442 I0.963
G1 X33.337
G3 X34.3 Y121.405 J0.963
G1 Y131.345
G3 X33.337 Y132.308 I-0.963
G1 X21.345 Y132.307
G2 X19.589 Y133.477 J1.902
G3 X17.833 Y134.647 I-1.755 J-0.732
G1 X12.319
G3 X11.356 Y133.683 J-0.963
G1 X11.359 Y119.064
G3 X12.322 Y118.101 I0.963
G1 X35.677
G3 X36.641 Y119.064 J0.963
G1 Y133.686
G3 X35.677 Y134.649 I-0.963
G1 X17.833 Y134.647
G2 X16.067 Y135.825 J1.914
G3 X14.3 Y137.003 I-1.767 J-0.736
G1 X9.009 Y137.002
X9.004 Y137.001
X9 Y136.96
X9.004 Y115.742
X9.065 Y115.745
G2 X9.1 I0.034 J-0.793
G1 X38.9
G2 X38.934 J-0.794
G1 X38.996 Y115.742
Y137.001
X38.964 Y137.005
X14.3 Y137.003
G3 X14.203 Y136.988 Z-4.484 J-0.317
X14.124 Y136.949 Z-4.439 I0.097 J-0.302
X14.07 Y136.904 Z-4.369 I0.176 J-0.264
X14.041 Y136.87 Z-4.281 I0.23 J-0.219
X14.032 Y136.857 Z-4.183 I0.258 J-0.184
G0 Z5
X29.144 Y125.709
Z-3.658
G3 X29.154 Y125.719 Z-3.754 I-1.033 J1.099 F600
X29.185 Y125.749 Z-3.841 I-1.044 J1.089
X29.231 Y125.798 Z-3.911 I-1.074 J1.058
X29.287 Y125.864 Z-3.957 I-1.121 J1.009
X29.344 Y125.94 Z-3.975 I-1.176 J0.944
X26.877 Y127.675 Z-4.14 I-1.233 J0.868
X29.344 Y125.94 Z-4.306 I1.233 J-0.868
X26.877 Y127.675 Z-4.471 I-1.233 J0.868
X29.344 Y125.94 Z-4.637 I1.233 J-0.868
X26.877 Y127.675 Z-4.802 I-1.233 J0.868
X29.344 Y125.94 Z-4.968 I1.233 J-0.868
X29.619 Y126.808 Z-5 I-1.233 J0.868
G1 Y126.917
G3 X28.909 Y127.626 I-0.71
G1 X19.28
G3 Y125.989 J-0.818
G1 X28.909
G3 X29.619 Y126.698 J0.71
G1 Y126.808
G2 X30.476 Y128.303 I1.734
G3 X30.024 Y129.967 I-0.451 J0.771
G1 X17.001 Y129.966
G3 X16.038 Y129.003 J-0.963
G1 X16.039 Y124.611
G3 X17.003 Y123.648 I0.963
G1 X30.996
G3 X31.959 Y124.611 J0.963
G1 Y129.004
G3 X30.996 Y129.967 I-0.963
G1 X30.024
G2 X28.269 Y131.137 J1.902
G3 X26.513 Y132.307 I-1.755 J-0.732
G1 X14.66 Y132.306
G3 X13.697 Y131.343 J-0.963
G1 X13.699 Y122.271
G3 X14.662 Y121.308 I0.963
G1 X33.337
G3 X34.3 Y122.271 J0.963
G1 Y131.345
G3 X33.337 Y132.308 I-0.963
G1 X26.513 Y132.307
G2 X24.758 Y133.478 J1.902
G3 X23.002 Y134.648 I-1.755 J-0.732
G1 X12.319 Y134.647
G3 X11.356 Y133.683 J-0.963
G1 X11.359 Y119.93
G3 X12.322 Y118.967 I0.963
G1 X35.677
G3 X36.641 Y119.93 J0.963
G1 Y133.686
G3 X35.677 Y134.649 I-0.963
G1 X23.002 Y134.648
G2 X21.235 Y135.825 J1.914
G3 X19.468 Y137.003 I-1.767 J-0.736
G1 X9.009 Y137.002
X9.004 Y137.001
X9 Y136.96
X9.004 Y116.608
X9.065 Y116.611
G2 X9.1 I0.034 J-0.793
G1 X38.9
G2 X38.934 J-0.794
G1 X38.996 Y116.608
Y137.001
X38.964 Y137.005
X19.468 Y137.003
G3 X19.372 Y136.988 Z-4.984 J-0.318
X19.292 Y136.95 Z-4.939 I0.097 J-0.302
X19.239 Y136.905 Z-4.869 I0.176 J-0.264
X19.21 Y136.87 Z-4.781 I0.23 J-0.219
X19.201 Y136.857 Z-4.683 I0.258 J-0.184
G0 Z5
X30.334 Y127.152
Z-4.158
G3 X30.323 Y127.162 Z-4.254 I-1.099 J-1.033 F600
X30.293 Y127.193 Z-4.341 I-1.089 J-1.044
X30.244 Y127.239 Z-4.411 I-1.058 J-1.075
X30.179 Y127.295 Z-4.457 I-1.009 J-1.121
X30.103 Y127.352 Z-4.475 I-0.944 J-1.176
X28.367 Y124.885 Z-4.64 I-0.868 J-1.234
X30.103 Y127.352 Z-4.806 I0.868 J1.234
X28.367 Y124.885 Z-4.971 I-0.868 J-1.234
X30.103 Y127.352 Z-5.137 I0.868 J1.234
X28.367 Y124.885 Z-5.302 I-0.868 J-1.234
X30.103 Y127.352 Z-5.468 I0.868 J1.234
X29.235 Y127.627 Z-5.5 I-0.868 J-1.234
G1 X19.031 Y127.626
G3 X18.646 Y127.24 J-0.386
X19.031 Y126.855 I0.386
G1 X29.33
G3 X29.621 Y127.145 J0.291
G1 Y127.336
G3 X29.33 Y127.627 I-0.291
G1 X29.235
G2 X27.479 Y128.797 J1.902
G3 X25.724 Y129.967 I-1.755 J-0.732
G1 X17 Y129.966
G3 X16.037 Y129.003 J-0.963
G1 Y125.477
G3 X17 Y124.514 I0.963
G1 X30.999
G3 X31.962 Y125.477 J0.963
G1 X31.961 Y129.004
G3 X30.998 Y129.967 I-0.963
G1 X25.724
G2 X23.968 Y131.137 J1.902
G3 X22.213 Y132.307 I-1.755 J-0.732
G1 X14.66 Y132.306
G3 X13.696 Y131.343 J-0.963
G1 X13.697 Y123.137
G3 X14.66 Y122.173 I0.963
G1 X33.34
G3 X34.303 Y123.137 J0.963
G1 X34.301 Y131.345
G3 X33.338 Y132.308 I-0.963
G1 X22.213 Y132.307
G2 X20.457 Y133.477 J1.902
G3 X18.702 Y134.647 I-1.755 J-0.732
G1 X12.319
G3 X11.356 Y133.683 J-0.963
G1 Y120.796
G3 X12.319 Y119.833 I0.963
G1 X35.681
G3 X36.644 Y120.796 J0.963
G1 X36.641 Y133.686
G3 X35.678 Y134.649 I-0.963
G1 X18.702 Y134.647
G2 X16.935 Y135.825 J1.914
G3 X15.168 Y137.003 I-1.767 J-0.736
G1 X9.009 Y137.002
X9.004 Y137.001
X9 Y136.96
Y117.474
X9.065 Y117.477
G2 X9.1 I0.034 J-0.793
G1 X38.9
G2 X38.934 J-0.794
G1 X39 Y117.474
X38.996 Y137.001
X38.964 Y137.005
X15.168 Y137.003
G3 X15.071 Y136.988 Z-5.484 J-0.318
X14.992 Y136.949 Z-5.439 I0.097 J-0.302
X14.938 Y136.904 Z-5.369 I0.176 J-0.264
X14.909 Y136.87 Z-5.281 I0.23 J-0.219
X14.901 Y136.857 Z-5.183 I0.258 J-0.184
G0 Z5
X30.767 Y127.945
Z-4.658
G3 X30.756 Y127.956 Z-4.754 I-1.099 J-1.033 F600
X30.726 Y127.987 Z-4.841 I-1.089 J-1.044
X30.677 Y128.033 Z-4.911 I-1.058 J-1.075
X30.612 Y128.089 Z-4.957 I-1.009 J-1.121
X30.535 Y128.146 Z-4.975 I-0.944 J-1.176
X29.668 Y128.42 Z-5.007 I-0.868 J-1.234
Y125.404 Z-5.173 J-1.508
Y128.42 Z-5.338 J1.508
Y125.404 Z-5.504 J-1.508
Y128.42 Z-5.669 J1.508
Y125.404 Z-5.835 J-1.508
Y128.42 Z-6 J1.508
G1 X18.452 Y128.419
G3 Y126.927 J-0.746
G1 X29.705
G3 X30.415 Y127.637 J0.71
G1 X30.414 Y127.711
G3 X29.705 Y128.42 I-0.71
G1 X29.668
G2 X28.507 Y129.194 J1.257
G3 X27.347 Y129.967 I-1.16 J-0.484
G1 X17.001 Y129.966
G3 X16.037 Y129.003 J-0.963
G1 X16.038 Y126.343
G3 X17.001 Y125.38 I0.963
G1 X30.999
G3 X31.962 Y126.343 J0.963
G1 X31.961 Y129.004
G3 X30.998 Y129.967 I-0.963
G1 X27.347
G2 X25.592 Y131.137 J1.902
G3 X23.836 Y132.307 I-1.755 J-0.732
G1 X14.66 Y132.306
G3 X13.697 Y131.343 J-0.963
G1 Y124.003
G3 X14.661 Y123.039 I0.963
G1 X33.34
G3 X34.303 Y124.003 J0.963
G1 X34.301 Y131.345
G3 X33.338 Y132.308 I-0.963
G1 X23.836 Y132.307
G2 X22.081 Y133.477 J1.902
G3 X20.325 Y134.648 I-1.755 J-0.732
G1 X12.319 Y134.647
G3 X11.356 Y133.683 J-0.963
G1 X11.357 Y121.662
G3 X12.32 Y120.699 I0.963
G1 X35.681
G3 X36.644 Y121.662 J0.963
G1 X36.641 Y133.686
G3 X35.678 Y134.649 I-0.963
G1 X20.325 Y134.648
G2 X18.558 Y135.825 J1.914
G3 X16.791 Y137.003 I-1.767 J-0.736
G1 X9.009 Y137.002
X9.004 Y137.001
X9 Y136.96
X9.001 Y118.34
X9.065 Y118.343
G2 X9.1 I0.034 J-0.793
G1 X38.9
G2 X38.934 J-0.794
G1 X39 Y118.34
X38.996 Y137.001
X38.964 Y137.005
X16.791 Y137.003
G3 X16.728 Y136.698 J-0.159
G1 X30.279 Y130.819
G2 X30.205 Y130.515 I-0.063 J-0.146
G3 X29.996 Y127.506 Z-6.165 I-0.104 J-1.505
X30.205 Y130.515 Z-6.331 I0.104 J1.505
X28.593 Y129.063 Z-6.415 I-0.104 J-1.505
X30.101 Y127.503 Z-6.5 I1.507 J-0.052
G1 X30.176
G3 X30.705 Y128.031 J0.528
G1 Y128.182
G3 X30.176 Y128.711 I-0.528
G1 X18.089 Y128.71
G3 X17.485 Y128.106 J-0.603
X18.089 Y127.503 I0.603
G1 X30.101
G2 X30.857 Y126.881 J-0.771
G3 X31.822 Y126.709 I0.515 J0.101
X31.962 Y127.209 I-0.823 J0.5
G1 X31.961 Y129.004
G3 X30.998 Y129.967 I-0.963
G1 X17.001 Y129.966
G3 X16.038 Y129.003 J-0.963
G1 X16.039 Y127.209
G3 X17.002 Y126.246 I0.963
G1 X30.999
G3 X31.822 Y126.709 J0.963
G2 X33.257 Y127.963 I2.692 J-1.634
G3 X34.302 Y129.557 I-0.693 J1.593
G1 X34.301 Y131.345
G3 X33.338 Y132.308 I-0.963
G1 X14.66 Y132.306
G3 X13.697 Y131.343 J-0.963
G1 X13.699 Y124.869
G3 X14.662 Y123.906 I0.963
G1 X33.34
G3 X34.303 Y124.869 J0.963
G1 X34.302 Y129.557
G2 X35.472 Y131.312 I1.902
G3 X36.641 Y133.068 I-0.732 J1.755
G1 Y133.686
G3 X35.678 Y134.649 I-0.963
G1 X12.319 Y134.647
G3 X11.356 Y133.684 J-0.963
G1 X11.358 Y122.528
G3 X12.322 Y121.565 I0.963
G1 X35.681
G3 X36.644 Y122.528 J0.963
G1 X36.641 Y133.068
G2 X37.819 Y134.835 I1.914
G3 X38.996 Y136.602 I-0.736 J1.767
G1 Y137.001
X38.964 Y137.005
X9.009 Y137.002
X9.004 Y137.001
X9 Y136.96
X9.003 Y119.206
X9.065 Y119.209
G2 X9.1 I0.034 J-0.793
G1 X38.9
G2 X38.934 J-0.794
G1 X39 Y119.206
X38.996 Y136.602
G3 X38.719 Y136.707 I-0.159
G1 X30.32 Y127.218
G3 X30.428 Y126.955 I0.119 J-0.105
X30.636 Y129.964 Z-6.665 I0.104 J1.505
X30.428 Y126.955 Z-6.831 I-0.104 J-1.505
X32.039 Y128.407 Z-6.915 I0.104 J1.505
X30.532 Y129.967 Z-7 I-1.507 J0.052
G1 X17.002 Y129.966
G3 X16.039 Y129.003 J-0.963
G1 Y128.076
G3 X17.002 Y127.112 I0.963
G1 X30.996
G3 X31.959 Y128.075 J0.963
G1 Y129.004
G3 X30.996 Y129.967 I-0.963
G1 X30.532
G2 X28.776 Y131.137 J1.902
G3 X27.021 Y132.308 I-1.755 J-0.732
G1 X14.661 Y132.306
G3 X13.698 Y131.343 J-0.963
G1 X13.699 Y125.735
G3 X14.662 Y124.772 I0.963
G1 X33.337
G3 X34.3 Y125.735 J0.963
G1 Y131.345
G3 X33.337 Y132.308 I-0.963
G1 X27.021
G2 X25.265 Y133.478 J1.902
G3 X23.509 Y134.648 I-1.755 J-0.732
G1 X12.32 Y134.647
G3 X11.357 Y133.683 J-0.963
G1 X11.359 Y123.394
G3 X12.322 Y122.431 I0.963
G1 X35.677
G3 X36.641 Y123.394 J0.963
G1 Y133.686
G3 X35.677 Y134.649 I-0.963
G1 X23.509 Y134.648
G2 X21.743 Y135.825 J1.914
G3 X19.976 Y137.003 I-1.767 J-0.736
G1 X9.009 Y137.002
X9.004 Y137.001
X9 Y136.96
X9.003 Y120.072
X9.065 Y120.075
G2 X9.1 I0.034 J-0.793
G1 X38.9
G2 X38.934 J-0.794
G1 X38.996 Y120.072
Y137.001
X38.964 Y137.005
X19.976 Y137.003
G3 X19.87 Y136.726 J-0.159
G1 X30.766 Y126.995
G3 X30.861 Y126.955 I0.106 J0.118
X31.069 Y129.964 Z-7.165 I0.104 J1.505
X30.861 Y126.955 Z-7.331 I-0.104 J-1.505
X32.472 Y128.407 Z-7.415 I0.104 J1.505
X30.965 Y129.967 Z-7.5 I-1.507 J0.052
G1 X17.002 Y129.966
G3 X16.039 Y129.003 J-0.963
G1 Y128.942
G3 X17.002 Y127.978 I0.963
G1 X30.996
G3 X31.959 Y128.941 J0.963
G1 Y129.004
G3 X30.996 Y129.967 I-0.963
G1 X30.965
G2 X29.209 Y131.137 J1.902
G3 X27.454 Y132.308 I-1.755 J-0.732
G1 X14.661 Y132.306
G3 X13.698 Y131.343 J-0.963
G1 X13.699 Y126.601
G3 X14.662 Y125.638 I0.963
G1 X33.337
G3 X34.3 Y126.601 J0.963
G1 Y131.345
G3 X33.337 Y132.308 I-0.963
G1 X27.454
G2 X25.698 Y133.478 J1.902
G3 X23.943 Y134.648 I-1.755 J-0.732
G1 X12.32 Y134.647
G3 X11.357 Y133.683 J-0.963
G1 X11.358 Y124.26
G3 X12.322 Y123.297 I0.963
G1 X35.677
G3 X36.641 Y124.26 J0.963
G1 Y133.686
G3 X35.677 Y134.649 I-0.963
G1 X23.943 Y134.648
G2 X22.176 Y135.826 J1.914
G3 X20.409 Y137.003 I-1.767 J-0.736
G1 X9.009 Y137.002
X9.004 Y137.001
X9 Y136.96
X9.003 Y120.938
X9.065 Y120.941
G2 X9.1 I0.034 J-0.793
G1 X38.9
G2 X38.934 J-0.794
G1 X38.996 Y120.938
Y137.001
X38.964 Y137.005
X20.409 Y137.003
G3 X20.308 Y136.722 J-0.159
G1 X28.889 Y129.644
G2 X28.947 Y129.51 I-0.101 J-0.122
G3 X29.546 Y128.199 Z-7.552 I1.505 J-0.104
X31.356 Y130.612 Z-7.718 I0.905 J1.207
X29.546 Y128.199 Z-7.883 I-0.905 J-1.207
X31.959 Y129.406 Z-8 I0.905 J1.207
G1 Y129.439
G3 X31.431 Y129.967 I-0.528
G1 X16.808 Y129.966
G3 X16.247 Y129.405 J-0.561
X16.808 Y128.844 I0.561
G1 X31.431
G3 X31.959 Y129.373 J0.528
G1 Y129.406
G2 X32.635 Y130.826 I1.831
G3 X32.108 Y132.308 I-0.527 J0.647
G1 X14.661 Y132.306
G3 X13.698 Y131.343 J-0.963
G1 Y127.467
G3 X14.662 Y126.504 I0.963
G1 X33.337
G3 X34.3 Y127.467 J0.963
G1 Y131.345
G3 X33.337 Y132.308 I-0.963
G1 X32.108
G2 X30.352 Y133.478 J1.902
G3 X28.597 Y134.648 I-1.755 J-0.732
G1 X12.32 Y134.647
G3 X11.357 Y133.683 J-0.963
G1 X11.358 Y125.126
G3 X12.322 Y124.163 I0.963
G1 X35.677
G3 X36.641 Y125.126 J0.963
G1 Y133.686
G3 X35.677 Y134.649 I-0.963
G1 X28.597 Y134.648
G2 X26.83 Y135.826 J1.914
G3 X25.063 Y137.004 I-1.767 J-0.736
G1 X9.009 Y137.002
X9.004 Y137.001
X9 Y136.96
X9.003 Y121.804
X9.065 Y121.807
G2 X9.1 I0.034 J-0.793
G1 X38.9
G2 X38.934 J-0.794
G1 X38.996 Y121.804
Y137.001
X38.964 Y137.005
X25.063 Y137.004
G3 X24.979 Y136.71 J-0.159
G1 X32.03 Y132.34
G2 X31.935 Y132.047 I-0.084 J-0.135
G3 X31.727 Y129.038 Z-8.165 I-0.104 J-1.505
X31.935 Y132.047 Z-8.331 I0.104 J1.505
X30.324 Y130.594 Z-8.415 I-0.104 J-1.505
X31.831 Y129.034 Z-8.5 I1.507 J-0.052
G1 X31.926
G3 X32.636 Y129.744 J0.71
G1 Y129.934
G3 X31.926 Y130.644 I-0.71
G1 X16.256 Y130.642
G3 X15.452 Y129.838 J-0.804
X16.256 Y129.034 I0.804
G1 X31.831
G2 X32.839 Y128.129 J-1.014
G3 X34.162 Y127.836 I0.711 J0.076
X34.3 Y128.333 I-0.825 J0.497
G1 Y131.345
G3 X33.337 Y132.308 I-0.963
G1 X14.661 Y132.306
G3 X13.698 Y131.343 J-0.963
G1 Y128.333
G3 X14.662 Y127.37 I0.964
G1 X33.337
G3 X34.162 Y127.836 J0.963
G2 X35.595 Y129.09 I2.678 J-1.613
G3 X36.641 Y130.683 I-0.691 J1.593
G1 Y133.686
G3 X35.677 Y134.649 I-0.963
G1 X12.32 Y134.647
G3 X11.357 Y133.683 J-0.963
G1 X11.358 Y125.992
G3 X12.322 Y125.029 I0.964
G1 X35.677
G3 X36.641 Y125.992 J0.963
G1 Y130.683
G2 X37.818 Y132.45 I1.914
G3 X38.996 Y134.217 I-0.736 J1.767
G1 Y137.001
X38.964 Y137.005
X9.009 Y137.002
X9.004 Y137.001
X9 Y136.96
X9.003 Y122.67
X9.065 Y122.673
G2 X9.1 I0.034 J-0.793
G1 X38.9
G2 X38.934 J-0.794
G1 X38.996 Y122.67
Y134.217
G3 X38.73 Y134.334 I-0.159
G1 X32.063 Y128.196
G3 X32.16 Y127.921 I0.108 J-0.117
X33.771 Y129.374 Z-8.585 I0.104 J1.505
X32.264 Y130.934 Z-8.669 I-1.507 J0.052
Y127.917 Z-8.835 J-1.508
Y130.934 Z-9 J1.508
G1 X15.896 Y130.932
G3 X15.235 Y130.271 J-0.661
X15.896 Y129.61 I0.661
G1 X32.397
G3 X32.926 Y130.139 J0.528
G1 Y130.405
G3 X32.397 Y130.934 I-0.528
G1 X32.264
G2 X31.233 Y131.621 J1.117
G3 X30.202 Y132.308 I-1.031 J-0.43
G1 X14.661 Y132.306
G3 X13.698 Y131.343 J-0.963
G1 Y129.199
G3 X14.662 Y128.236 I0.964
G1 X33.337
G3 X34.3 Y129.199 J0.963
G1 Y131.345
G3 X33.337 Y132.308 I-0.963
G1 X30.202
G2 X28.447 Y133.478 J1.902
G3 X26.691 Y134.648 I-1.755 J-0.732
G1 X12.32 Y134.647
G3 X11.357 Y133.683 J-0.963
G1 X11.358 Y126.858
G3 X12.322 Y125.895 I0.964
G1 X35.677
G3 X36.641 Y126.858 J0.963
G1 Y133.686
G3 X35.677 Y134.649 I-0.963
G1 X26.691 Y134.648
G2 X24.924 Y135.826 J1.914
G3 X23.157 Y137.003 I-1.767 J-0.736
G1 X9.009 Y137.002
X9.004 Y137.001
X9 Y136.96
X9.003 Y123.536
X9.065 Y123.539
G2 X9.1 I0.034 J-0.793
G1 X38.9
G2 X38.934 J-0.794
G1 X38.996 Y123.536
Y137.001
X38.964 Y137.005
X23.157 Y137.003
G3 X22.599 Y134.094 Z-9.139 J-1.508
G1 X32.139 Y130.293 Z-9.481
G3 X32.697 Y130.186 Z-9.5 I0.558 J1.401
G1 X32.823
G3 X33.216 Y130.579 J0.393
G1 Y130.831
G3 X32.823 Y131.224 I-0.393
G1 X15.526 Y131.222
G3 X15.008 Y130.704 J-0.518
X15.526 Y130.186 I0.518
G1 X32.697
G2 X33.347 Y129.684 J-0.672
G3 X34.16 Y129.564 I0.432 J0.112
X34.3 Y130.065 I-0.823 J0.501
G1 Y131.345
G3 X33.337 Y132.308 I-0.963
G1 X14.661 Y132.306
G3 X13.698 Y131.343 J-0.963
G1 Y130.065
G3 X14.662 Y129.102 I0.964
G1 X33.337
G3 X34.16 Y129.564 J0.963
G2 X35.596 Y130.817 I2.695 J-1.64
G3 X36.641 Y132.411 I-0.694 J1.594
G1 Y133.686
G3 X35.677 Y134.649 I-0.963
G1 X12.32 Y134.647
G3 X11.357 Y133.684 J-0.963
G1 X11.358 Y127.724
G3 X12.322 Y126.761 I0.964
G1 X35.677
G3 X36.641 Y127.724 J0.963
G1 Y132.411
G2 X37.818 Y134.177 I1.914
G3 X38.996 Y135.944 I-0.736 J1.767
G1 Y137.001
X38.964 Y137.005
X9.009 Y137.002
X9.004 Y137.001
X9 Y136.96
X9.003 Y124.402
X9.065 Y124.405
G2 X9.1 I0.034 J-0.793
G1 X38.9
G2 X38.934 J-0.794
G1 X38.996 Y124.402
Y135.944
G3 X38.759 Y136.082 I-0.159
G1 X33.323 Y133.001
G2 X33.234 Y132.98 I-0.078 J0.138
G3 X33.026 Y129.971 Z-9.665 I-0.104 J-1.505
X33.234 Y132.98 Z-9.831 I0.104 J1.505
X31.623 Y131.528 Z-9.915 I-0.104 J-1.505
X33.13 Y129.968 Z-10 I1.507 J-0.052
G1 X33.337
G3 X34.3 Y130.931 J0.963
G1 Y131.345
G3 X33.337 Y132.308 I-0.963
G1 X14.661 Y132.306
G3 X13.698 Y131.343 J-0.963
G1 Y130.931
G3 X14.662 Y129.968 I0.964
G1 X33.13
G2 X34.728 Y128.862 J-1.709
G3 X36.641 Y129.211 I0.924 J0.349
G1 Y133.686
G3 X35.677 Y134.649 I-0.963
G1 X12.32 Y134.647
G3 X11.357 Y133.684 J-0.963
G1 X11.358 Y128.59
G3 X12.322 Y127.627 I0.964
G1 X35.677
G3 X36.641 Y128.59 J0.963
G1 Y129.211
G2 X37.818 Y130.978 I1.914
G3 X38.996 Y132.744 I-0.736 J1.767
G1 Y137.001
X38.964 Y137.005
X9.009 Y137.002
X9.004 Y137.001
X9 Y136.96
X9.003 Y125.268
X9.065 Y125.271
G2 X9.1 Y125.272 I0.034 J-0.793
G1 X38.9
G2 X38.934 Y125.271 J-0.794
G1 X38.996 Y125.268
Y132.744
G3 X38.866 Y132.901 I-0.159
G1 X33.667 Y133.846
G3 X33.459 Y130.837 Z-10.165 I-0.104 J-1.505
X33.667 Y133.846 Z-10.331 I0.104 J1.505
X32.056 Y132.394 Z-10.415 I-0.104 J-1.505
X33.563 Y130.834 Z-10.5 I1.507 J-0.052
G1 X33.591
G3 X34.3 Y131.543 J0.71
G1 Y131.599
G3 X33.591 Y132.308 I-0.71
G1 X14.56 Y132.307
G3 Y130.834 J-0.737
G1 X33.563
G2 X35.035 Y130.034 J-1.755
G3 X36.641 Y130.51 I0.733 J0.475
G1 Y133.686
G3 X35.678 Y134.649 I-0.963
G1 X12.32 Y134.647
G3 X11.357 Y133.684 J-0.963
G1 X11.358 Y129.456
G3 X12.321 Y128.493 I0.964
G1 X35.678
G3 X36.641 Y129.456 J0.963
G1 Y130.51
G2 X37.819 Y132.276 I1.914
G3 X38.996 Y134.043 I-0.736 J1.767
G1 Y137.001
X38.964 Y137.005
X9.009 Y137.002
X9.004 Y137.001
X9 Y136.96
X9.003 Y126.132
X10.877 Y126.138
X38.9
G2 X38.923 Y126.137 J-0.794
G1 X38.996 Y126.135
Y134.043
G3 X38.854 Y134.201 I-0.159
G1 X34.099 Y134.71
G3 X33.891 Y131.701 Z-10.665 I-0.104 J-1.505
X34.099 Y134.71 Z-10.831 I0.104 J1.505
X32.488 Y133.258 Z-10.915 I-0.104 J-1.505
X33.995 Y131.697 Z-11 I1.507 J-0.052
G1 X34.023
G3 X34.301 Y131.975 J0.278
G1 Y132.031
G3 X34.023 Y132.309 I-0.278
G1 X14.27 Y132.307
G3 X14.271 Y131.697 J-0.305
G1 X33.995
G2 X35.219 Y130.911 J-1.346
G3 X36.641 Y131.22 I0.677 J0.309
G1 Y133.686
G3 X35.677 Y134.649 I-0.963
G1 X12.32 Y134.647
G3 X11.357 Y133.684 J-0.963
G1 X11.358 Y130.321
G3 X12.321 Y129.358 I0.964
G1 X35.677
G3 X36.641 Y130.321 J0.963
G1 Y131.22
G2 X37.818 Y132.987 I1.914
G3 X38.996 Y134.754 I-0.736 J1.767
G1 Y137.001
X38.964 Y137.005
X9.009 Y137.002
X9.004 Y137.001
X9 Y136.96
X9.003 Y127.002
X38.996
Y134.754
G3 X38.831 Y134.912 I-0.159
G1 X34.533 Y134.73
G3 X33.222 Y134.13 Z-11.052 I-0.104 J-1.505
X35.635 Y132.32 Z-11.218 I1.207 J-0.905
X33.222 Y134.13 Z-11.383 I-1.207 J0.905
X34.429 Y131.717 Z-11.5 I1.207 J-0.905
G1 X34.439
G3 X35.149 Y132.427 J0.71
G1 Y132.447
G3 X34.439 Y133.157 I-0.71
G1 X13.702 Y133.155
G3 X13.703 Y131.717 J-0.719
G1 X34.429
G2 X35.33 Y130.932 J-0.91
G3 X36.502 Y130.69 I0.628 J0.087
X36.641 Y131.188 I-0.824 J0.498
G1 Y133.686
G3 X35.677 Y134.649 I-0.963
G1 X12.32 Y134.647
G3 X11.357 Y133.684 J-0.963
G1 X11.358 Y131.189
G3 X12.321 Y130.225 I0.964
G1 X35.677
G3 X36.502 Y130.69 J0.963
G2 X37.945 Y131.952 I2.699 J-1.631
G3 X38.996 Y133.555 I-0.696 J1.603
G1 Y137.001
X38.964 Y137.005
X9.009 Y137.002
X9.004 Y137.001
X9 Y136.96
X9.003 Y127.866
X9.065 Y127.869
G2 X9.1 Y127.87 I0.034 J-0.793
G1 X38.9
G2 X38.934 Y127.869 J-0.794
G1 X38.996 Y127.866
Y133.555
G3 X36.698 Y134.839 Z-11.607 I-1.508
G1 X34.072 Y133.223 Z-11.71
G3 X35.652 Y130.654 Z-11.869 I0.79 J-1.284
X34.862 Y133.447 Z-12 I-0.79 J1.284
G1 X13.337 Y133.445
G3 Y132.293 J-0.576
G1 X34.91
G3 X35.439 Y132.822 J0.528
G1 Y132.919
G3 X34.91 Y133.447 I-0.528
G1 X34.862
G2 X33.96 Y134.048 J0.977
G3 X33.059 Y134.649 I-0.901 J-0.376
G1 X12.32 Y134.647
G3 X11.357 Y133.684 J-0.963
G1 X11.358 Y132.055
G3 X12.321 Y131.091 I0.964
G1 X35.677
G3 X36.641 Y132.054 J0.963
G1 Y133.686
G3 X35.677 Y134.649 I-0.963
G1 X33.059
G2 X31.292 Y135.826 J1.914
G3 X29.525 Y137.004 I-1.767 J-0.736
G1 X9.009 Y137.002
X9.004 Y137.001
X9 Y136.96
X9.003 Y128.732
X9.065 Y128.735
G2 X9.1 Y128.736 I0.034 J-0.793
G1 X38.9
G2 X38.934 Y128.735 J-0.794
G1 X38.996 Y128.732
Y137.001
X38.964 Y137.005
X29.525 Y137.004
G3 X29.428 Y136.719 J-0.159
G1 X33.566 Y133.544
G2 X33.628 Y133.407 I-0.097 J-0.126
G3 X34.228 Y132.097 Z-12.052 I1.505 J-0.104
X36.037 Y134.51 Z-12.218 I0.905 J1.207
X34.228 Y132.097 Z-12.383 I-0.905 J-1.207
X36.641 Y133.303 Z-12.5 I0.905 J1.207
G1 Y133.686
G3 X35.677 Y134.649 I-0.963
G1 X12.32 Y134.647
G3 X11.357 Y133.684 J-0.963
G1 Y132.921
G3 X12.321 Y131.957 I0.964
G1 X35.677
G3 X36.641 Y132.92 J0.963
G1 Y133.303
G2 X37.818 Y135.07 I1.914
G3 X38.996 Y136.836 I-0.736 J1.767
G1 Y137.001
X38.964 Y137.005
X9.009 Y137.002
X9.004 Y137.001
X9 Y136.96
X9.003 Y129.598
X9.065 Y129.601
G2 X9.1 Y129.602 I0.034 J-0.793
G1 X38.9
G2 X38.934 Y129.601 J-0.794
G1 X38.996 Y129.598
Y136.836
G3 X38.703 Y136.922 I-0.159
G1 X35.501 Y131.88
G3 X35.624 Y131.636 I0.134 J-0.085
X35.832 Y134.645 Z-12.665 I0.104 J1.505
X35.624 Y131.636 Z-12.831 I-0.104 J-1.505
X37.235 Y133.089 Z-12.915 I0.104 J1.505
X35.728 Y134.649 Z-13 I-1.507 J0.052
G1 X12.298 Y134.647
G3 X12.299 Y132.823 J-0.912
G1 X35.931
G3 X36.641 Y133.533 J0.71
G1 Y133.939
G3 X35.931 Y134.649 I-0.71
G1 X35.728
G2 X33.961 Y135.827 J1.914
G3 X32.194 Y137.004 I-1.767 J-0.736
G1 X9.009 Y137.002
X9.004 Y137.001
X9 Y136.96
X9.003 Y130.464
X9.065 Y130.467
G2 X9.1 Y130.468 I0.034 J-0.793
G1 X38.9
G2 X38.934 Y130.467 J-0.794
G1 X38.996 Y130.464
Y137.001
X38.964 Y137.005
X32.194 Y137.004
G3 X32.061 Y136.759 J-0.159
G1 X33.605 Y134.369
G2 X33.63 Y134.272 I-0.133 J-0.086
G3 X34.23 Y132.962 Z-13.052 I1.505 J-0.103
X36.038 Y135.376 Z-13.218 I0.904 J1.207
X34.23 Y132.962 Z-13.383 I-0.904 J-1.207
X36.642 Y134.169 Z-13.5 I0.904 J1.207
G1 Y134.257
G3 X36.25 Y134.649 I-0.393
G1 X12.075 Y134.647
G3 X11.597 Y134.168 J-0.479
X12.075 Y133.689 I0.479
G1 X36.25
G3 X36.642 Y134.082 J0.393
G1 Y134.169
G2 X37.466 Y135.489 I1.468 J0.001
G3 X37.116 Y137.005 I-0.35 J0.717
G1 X9.009 Y137.002
X9.004 Y137.001
X9 Y136.96
Y131.33
X9.065 Y131.333
G2 X9.1 Y131.334 I0.034 J-0.793
G1 X38.9
G2 X38.934 Y131.333 J-0.794
G1 X38.999 Y131.33
X38.996 Y137.001
X38.964 Y137.005
X37.116
G3 X36.959 Y136.868 J-0.159
G1 X36.345 Y132.548
G3 X36.491 Y132.367 I0.157 J-0.022
X36.7 Y135.376 Z-13.665 I0.104 J1.505
X36.491 Y132.367 Z-13.831 I-0.104 J-1.505
X38.103 Y133.82 Z-13.915 I0.104 J1.505
X36.595 Y135.38 Z-14 I-1.507 J0.052
G1 X11.506 Y135.378
G3 Y133.824 J-0.777
G1 X36.663
G3 X37.373 Y134.535 J0.71
G1 Y134.671
G3 X36.663 Y135.38 I-0.71
G1 X36.595
G2 X35.377 Y136.192 J1.32
G3 X34.158 Y137.004 I-1.219 J-0.508
G1 X9.009 Y137.002
X9.004 Y137.001
X9 Y136.96
X9.001 Y132.196
X9.065 Y132.199
G2 X9.1 Y132.2 I0.034 J-0.793
G1 X38.9
G2 X38.934 Y132.199 J-0.794
G1 X38.999 Y132.196
X38.996 Y137.001
X38.964 Y137.005
X34.158 Y137.004
G3 X34.01 Y136.787 J-0.159
G1 X34.639 Y135.207
G2 X34.65 Y135.138 I-0.147 J-0.059
G3 X37.66 Y134.931 Z-14.165 I1.505 J-0.103
X34.65 Y135.138 Z-14.331 I-1.505 J0.103
X36.104 Y133.527 Z-14.415 I1.505 J-0.103
X37.663 Y135.036 Z-14.5 I0.051 J1.507
G1 Y135.142
G3 X37.134 Y135.67 I-0.528
G1 X11.146 Y135.668
G3 X10.513 Y135.034 J-0.634
X11.147 Y134.4 I0.634
G1 X37.135
G3 X37.663 Y134.929 J0.528
G1 Y135.036
G2 X38.218 Y135.959 I1.045 J0.001
G3 X37.958 Y137.005 I-0.26 J0.49
G1 X9.009 Y137.002
X9.004 Y137.001
X9 Y136.96
X9.002 Y133.062
X9.065 Y133.065
G2 X9.1 Y133.066 I0.034 J-0.793
G1 X38.9
G2 X38.934 Y133.065 J-0.794
G1 X38.999 Y133.062
X38.996 Y137.001
X38.964 Y137.005
X37.958
G3 X37.803 Y136.88 J-0.159
G1 X37.211 Y134.185
G3 X37.356 Y133.992 I0.155 J-0.034
X38.967 Y135.445 Z-14.585 I0.104 J1.505
X37.46 Y137.005 Z-14.669 I-1.507 J0.052
Y133.989 Z-14.835 J-1.508
Y137.005 Z-15 J1.508
G1 X9.009 Y137.002
X9.004 Y137.001
X9 Y136.96
X9.003 Y133.928
X9.065 Y133.931
G2 X9.1 Y133.932 I0.034 J-0.793
G1 X38.9
G2 X38.934 Y133.931 J-0.794
G1 X38.996 Y133.928
Y137.001
X38.964 Y137.005
X37.46
G3 X37.428 Y137.002 J-0.159
G1 X28.258 Y135.112
G3 X28.29 Y134.798 I0.032 J-0.155
G1 X38.9 Z-15.371
G2 X38.934 Y134.797 Z-15.372 J-0.794
G1 X38.996 Y134.794 Z-15.374
Y137.001 Z-15.451
X38.964 Y137.005 Z-15.452
X37.591 Z-15.5
X9.009 Y137.002
X9.004 Y137.001
X9 Y136.96
X9.002 Y134.794
X9.065 Y134.797
G2 X9.1 Y134.798 I0.034 J-0.793
G1 X38.9
G2 X38.934 Y134.797 J-0.794
G1 X38.996 Y134.794
Y137.001
X38.964 Y137.005
X37.591
X26.976 Y135.981
G3 X26.991 Y135.664 I0.015 J-0.158
G1 X38.9 Z-15.916
G2 X38.934 Y135.663 Z-15.917 J-0.794
G1 X38.996 Y135.66 Z-15.919
Y137.001 Z-15.966
X38.964 Y137.005 Z-15.967
X38.024 Z-16
X9.009 Y137.002
X9.004 Y137.001
X9 Y136.96
X9.002 Y135.66
X9.065 Y135.663
G2 X9.1 Y135.664 I0.034 J-0.793
G1 X38.9
G2 X38.934 Y135.663 J-0.794
G1 X38.996 Y135.66
Y137.001
X38.964 Y137.005
X38.024
X25.69 Y136.847
G3 X25.692 Y136.53 I0.002 J-0.159
G1 X38.9 Z-16.461
G2 X38.934 Y136.529 Z-16.462 J-0.794
G1 X38.996 Y136.526 Z-16.465
Y137.001 Z-16.481
X38.964 Y137.005 Z-16.482
X38.457 Z-16.5
X9.009 Y137.002
X9.004 Y137.001
X9 Y136.96
X9.001 Y136.526
X9.065 Y136.529
G2 X9.1 Y136.53 I0.034 J-0.793
G1 X38.9
G2 X38.934 Y136.529 J-0.794
G1 X38.996 Y136.526
Y137.001
X38.964 Y137.005
X38.457
X38.386 Z-16.492
X38.319 Z-16.469
X38.259 Z-16.431
X38.209 Z-16.38
X38.171 Z-16.32
X38.148 Z-16.253
X38.14 Z-16.183
G0 Z15
M9
G28 G91 Z0
G28 X0 Y0
M30
%
