%
(1)
(T1  D=3 CR=0 - ZMIN=-19.5 - flat end mill)
G90 G94
G17
G21
G28 G91 Z0
G90

(Pocket2)
M9
T1 M6
S17507 M3
G54
M8
G0 X24.75 Y89.154
Z15
Z2
G1 Z1.35 F600
G19 G3 Y89.451 Z1.05 J0.3
G1 Y95.453 Z1.002
X24.676 Y95.887 Z0.998
X24.552 Y96.107 Z0.996
X24.364 Y96.266 Z0.994
X24.123 Y96.355 Z0.992
X23.87 Y96.354 Z0.99
X23.637 Y96.267 Z0.988
X23.45 Y96.109 Z0.986
X23.324 Y95.887 Z0.984
X23.25 Y95.453 Z0.981
Y35.841 Z0.502
X23.326 Y35.399 Z0.498
X23.362 Y35.337
X23.454 Y35.183 Z0.496
X23.648 Y35.022 Z0.494
X23.864 Y34.944 Z0.492
X24.136 Z0.49
X24.352 Y35.022 Z0.488
X24.546 Y35.183 Z0.486
X24.638 Y35.337 Z0.485
X24.674 Y35.399 Z0.484
X24.75 Y35.841 Z0.481
Y95.453 Z0.002
X24.676 Y95.887 Z-0.002
X24.552 Y96.107 Z-0.004
X24.364 Y96.266 Z-0.006
X24.123 Y96.355 Z-0.008
X23.87 Y96.354 Z-0.01
X23.637 Y96.267 Z-0.012
X23.45 Y96.109 Z-0.014
X23.324 Y95.887 Z-0.016
X23.25 Y95.453 Z-0.019
Y35.841 Z-0.498
X23.288 Y35.623 Z-0.5
X23.326 Y35.399
X23.362 Y35.337
X23.454 Y35.183
X23.648 Y35.022
X23.864 Y34.944
X24.136
X24.352 Y35.022
X24.546 Y35.183
X24.638 Y35.337
X24.674 Y35.399
X24.75 Y35.841
Y95.453
X24.676 Y95.887
X24.552 Y96.107
X24.364 Y96.266
X24.123 Y96.355
X23.87 Y96.354
X23.637 Y96.267
X23.45 Y96.109
X23.324 Y95.887
X23.25 Y95.453
Y35.841
X23.288 Y35.623
G17 G3 X23.317 Y35.536 Z-0.485 I0.296 J0.051
X23.365 Y35.468 Z-0.443 I0.266 J0.138
X23.416 Y35.425 Z-0.376 I0.218 J0.206
X23.453 Y35.404 Z-0.293 I0.167 J0.249
X23.466 Y35.398 Z-0.2 I0.13 J0.27
G0 Z5
X23.25 Y42.142
Z0.85
G19 G2 Y41.845 Z0.55 J-0.3 F600
G1 Y35.841 Z0.502
X23.326 Y35.399 Z0.498
X23.362 Y35.337
X23.454 Y35.183 Z0.496
X23.648 Y35.022 Z0.494
X23.864 Y34.944 Z0.492
X24.136 Z0.49
X24.352 Y35.022 Z0.488
X24.546 Y35.183 Z0.486
X24.638 Y35.337 Z0.485
X24.674 Y35.399 Z0.484
X24.75 Y35.841 Z0.481
Y95.453 Z0.002
X24.676 Y95.887 Z-0.002
X24.552 Y96.107 Z-0.004
X24.364 Y96.266 Z-0.006
X24.123 Y96.355 Z-0.008
X23.87 Y96.354 Z-0.01
X23.637 Y96.267 Z-0.012
X23.45 Y96.109 Z-0.014
X23.324 Y95.887 Z-0.016
X23.25 Y95.453 Z-0.019
Y35.841 Z-0.498
X23.326 Y35.399 Z-0.502
X23.362 Y35.337
X23.454 Y35.183 Z-0.504
X23.648 Y35.022 Z-0.506
X23.864 Y34.944 Z-0.508
X24.136 Z-0.51
X24.352 Y35.022 Z-0.512
X24.546 Y35.183 Z-0.514
X24.638 Y35.337 Z-0.515
X24.674 Y35.399 Z-0.516
X24.75 Y35.841 Z-0.519
Y95.453 Z-0.998
X24.676 Y95.887 Z-1.002
X24.552 Y96.107 Z-1.004
X24.364 Y96.266 Z-1.006
X24.123 Y96.355 Z-1.008
X23.87 Y96.354 Z-1.01
X23.637 Y96.267 Z-1.012
X23.45 Y96.109 Z-1.014
X23.324 Y95.887 Z-1.016
X23.25 Y95.453 Z-1.019
Y35.841 Z-1.498
X23.288 Y35.623 Z-1.5
X23.326 Y35.399
X23.362 Y35.337
X23.454 Y35.183
X23.648 Y35.022
X23.864 Y34.944
X24.136
X24.352 Y35.022
X24.546 Y35.183
X24.638 Y35.337
X24.674 Y35.399
X24.75 Y35.841
Y95.453
X24.676 Y95.887
X24.552 Y96.107
X24.364 Y96.266
X24.123 Y96.355
X23.87 Y96.354
X23.637 Y96.267
X23.45 Y96.109
X23.324 Y95.887
X23.25 Y95.453
Y35.841
X23.288 Y35.623
G17 G3 X23.317 Y35.536 Z-1.485 I0.296 J0.051
X23.365 Y35.468 Z-1.443 I0.266 J0.138
X23.416 Y35.425 Z-1.376 I0.218 J0.206
X23.453 Y35.404 Z-1.293 I0.167 J0.249
X23.466 Y35.398 Z-1.2 I0.13 J0.27
G0 Z5
X23.25 Y42.142
Z2
G1 Z-0.15 F600
G19 G2 Y41.845 Z-0.45 J-0.3
G1 Y35.841 Z-0.498
X23.326 Y35.399 Z-0.502
X23.362 Y35.337
X23.454 Y35.183 Z-0.504
X23.648 Y35.022 Z-0.506
X23.864 Y34.944 Z-0.508
X24.136 Z-0.51
X24.352 Y35.022 Z-0.512
X24.546 Y35.183 Z-0.514
X24.638 Y35.337 Z-0.515
X24.674 Y35.399 Z-0.516
X24.75 Y35.841 Z-0.519
Y95.453 Z-0.998
X24.676 Y95.887 Z-1.002
X24.552 Y96.107 Z-1.004
X24.364 Y96.266 Z-1.006
X24.123 Y96.355 Z-1.008
X23.87 Y96.354 Z-1.01
X23.637 Y96.267 Z-1.012
X23.45 Y96.109 Z-1.014
X23.324 Y95.887 Z-1.016
X23.25 Y95.453 Z-1.019
Y35.841 Z-1.498
X23.326 Y35.399 Z-1.502
X23.362 Y35.337
X23.454 Y35.183 Z-1.504
X23.648 Y35.022 Z-1.506
X23.864 Y34.944 Z-1.508
X24.136 Z-1.51
X24.352 Y35.022 Z-1.512
X24.546 Y35.183 Z-1.514
X24.638 Y35.337 Z-1.515
X24.674 Y35.399 Z-1.516
X24.75 Y35.841 Z-1.519
Y95.453 Z-1.998
X24.676 Y95.887 Z-2.002
X24.552 Y96.107 Z-2.004
X24.364 Y96.266 Z-2.006
X24.123 Y96.355 Z-2.008
X23.87 Y96.354 Z-2.01
X23.637 Y96.267 Z-2.012
X23.45 Y96.109 Z-2.014
X23.324 Y95.887 Z-2.016
X23.25 Y95.453 Z-2.019
Y35.841 Z-2.498
X23.288 Y35.623 Z-2.5
X23.326 Y35.399
X23.362 Y35.337
X23.454 Y35.183
X23.648 Y35.022
X23.864 Y34.944
X24.136
X24.352 Y35.022
X24.546 Y35.183
X24.638 Y35.337
X24.674 Y35.399
X24.75 Y35.841
Y95.453
X24.676 Y95.887
X24.552 Y96.107
X24.364 Y96.266
X24.123 Y96.355
X23.87 Y96.354
X23.637 Y96.267
X23.45 Y96.109
X23.324 Y95.887
X23.25 Y95.453
Y35.841
X23.288 Y35.623
G17 G3 X23.317 Y35.536 Z-2.485 I0.296 J0.051
X23.365 Y35.468 Z-2.443 I0.266 J0.138
X23.416 Y35.425 Z-2.376 I0.218 J0.206
X23.453 Y35.404 Z-2.293 I0.167 J0.249
X23.466 Y35.398 Z-2.2 I0.13 J0.27
G0 Z5
X23.25 Y42.142
G1 Z-1.15 F600
G19 G2 Y41.845 Z-1.45 J-0.3
G1 Y35.841 Z-1.498
X23.326 Y35.399 Z-1.502
X23.362 Y35.337
X23.454 Y35.183 Z-1.504
X23.648 Y35.022 Z-1.506
X23.864 Y34.944 Z-1.508
X24.136 Z-1.51
X24.352 Y35.022 Z-1.512
X24.546 Y35.183 Z-1.514
X24.638 Y35.337 Z-1.515
X24.674 Y35.399 Z-1.516
X24.75 Y35.841 Z-1.519
Y95.453 Z-1.998
X24.676 Y95.887 Z-2.002
X24.552 Y96.107 Z-2.004
X24.364 Y96.266 Z-2.006
X24.123 Y96.355 Z-2.008
X23.87 Y96.354 Z-2.01
X23.637 Y96.267 Z-2.012
X23.45 Y96.109 Z-2.014
X23.324 Y95.887 Z-2.016
X23.25 Y95.453 Z-2.019
Y35.841 Z-2.498
X23.326 Y35.399 Z-2.502
X23.362 Y35.337
X23.454 Y35.183 Z-2.504
X23.648 Y35.022 Z-2.506
X23.864 Y34.944 Z-2.508
X24.136 Z-2.51
X24.352 Y35.022 Z-2.512
X24.546 Y35.183 Z-2.514
X24.638 Y35.337 Z-2.515
X24.674 Y35.399 Z-2.516
X24.75 Y35.841 Z-2.519
Y95.453 Z-2.998
X24.676 Y95.887 Z-3.002
X24.552 Y96.107 Z-3.004
X24.364 Y96.266 Z-3.006
X24.123 Y96.355 Z-3.008
X23.87 Y96.354 Z-3.01
X23.637 Y96.267 Z-3.012
X23.45 Y96.109 Z-3.014
X23.324 Y95.887 Z-3.016
X23.25 Y95.453 Z-3.019
Y35.841 Z-3.498
X23.288 Y35.623 Z-3.5
X23.326 Y35.399
X23.362 Y35.337
X23.454 Y35.183
X23.648 Y35.022
X23.864 Y34.944
X24.136
X24.352 Y35.022
X24.546 Y35.183
X24.638 Y35.337
X24.674 Y35.399
X24.75 Y35.841
Y95.453
X24.676 Y95.887
X24.552 Y96.107
X24.364 Y96.266
X24.123 Y96.355
X23.87 Y96.354
X23.637 Y96.267
X23.45 Y96.109
X23.324 Y95.887
X23.25 Y95.453
Y35.841
X23.288 Y35.623
G17 G3 X23.317 Y35.536 Z-3.485 I0.296 J0.051
X23.365 Y35.468 Z-3.443 I0.266 J0.138
X23.416 Y35.425 Z-3.376 I0.218 J0.206
X23.453 Y35.404 Z-3.293 I0.167 J0.249
X23.466 Y35.398 Z-3.2 I0.13 J0.27
G0 Z5
X23.25 Y42.142
G1 Z-2.15 F600
G19 G2 Y41.845 Z-2.45 J-0.3
G1 Y35.841 Z-2.498
X23.326 Y35.399 Z-2.502
X23.362 Y35.337
X23.454 Y35.183 Z-2.504
X23.648 Y35.022 Z-2.506
X23.864 Y34.944 Z-2.508
X24.136 Z-2.51
X24.352 Y35.022 Z-2.512
X24.546 Y35.183 Z-2.514
X24.638 Y35.337 Z-2.515
X24.674 Y35.399 Z-2.516
X24.75 Y35.841 Z-2.519
Y95.453 Z-2.998
X24.676 Y95.887 Z-3.002
X24.552 Y96.107 Z-3.004
X24.364 Y96.266 Z-3.006
X24.123 Y96.355 Z-3.008
X23.87 Y96.354 Z-3.01
X23.637 Y96.267 Z-3.012
X23.45 Y96.109 Z-3.014
X23.324 Y95.887 Z-3.016
X23.25 Y95.453 Z-3.019
Y35.841 Z-3.498
X23.326 Y35.399 Z-3.502
X23.362 Y35.337
X23.454 Y35.183 Z-3.504
X23.648 Y35.022 Z-3.506
X23.864 Y34.944 Z-3.508
X24.136 Z-3.51
X24.352 Y35.022 Z-3.512
X24.546 Y35.183 Z-3.514
X24.638 Y35.337 Z-3.515
X24.674 Y35.399 Z-3.516
X24.75 Y35.841 Z-3.519
Y95.453 Z-3.998
X24.676 Y95.887 Z-4.002
X24.552 Y96.107 Z-4.004
X24.364 Y96.266 Z-4.006
X24.123 Y96.355 Z-4.008
X23.87 Y96.354 Z-4.01
X23.637 Y96.267 Z-4.012
X23.45 Y96.109 Z-4.014
X23.324 Y95.887 Z-4.016
X23.25 Y95.453 Z-4.019
Y35.841 Z-4.498
X23.288 Y35.623 Z-4.5
X23.326 Y35.399
X23.362 Y35.337
X23.454 Y35.183
X23.648 Y35.022
X23.864 Y34.944
X24.136
X24.352 Y35.022
X24.546 Y35.183
X24.638 Y35.337
X24.674 Y35.399
X24.75 Y35.841
Y95.453
X24.676 Y95.887
X24.552 Y96.107
X24.364 Y96.266
X24.123 Y96.355
X23.87 Y96.354
X23.637 Y96.267
X23.45 Y96.109
X23.324 Y95.887
X23.25 Y95.453
Y35.841
X23.288 Y35.623
G17 G3 X23.317 Y35.536 Z-4.485 I0.296 J0.051
X23.365 Y35.468 Z-4.443 I0.266 J0.138
X23.416 Y35.425 Z-4.376 I0.218 J0.206
X23.453 Y35.404 Z-4.293 I0.167 J0.249
X23.466 Y35.398 Z-4.2 I0.13 J0.27
G0 Z5
X23.25 Y42.142
G1 Z-3.15 F600
G19 G2 Y41.845 Z-3.45 J-0.3
G1 Y35.841 Z-3.498
X23.326 Y35.399 Z-3.502
X23.362 Y35.337
X23.454 Y35.183 Z-3.504
X23.648 Y35.022 Z-3.506
X23.864 Y34.944 Z-3.508
X24.136 Z-3.51
X24.352 Y35.022 Z-3.512
X24.546 Y35.183 Z-3.514
X24.638 Y35.337 Z-3.515
X24.674 Y35.399 Z-3.516
X24.75 Y35.841 Z-3.519
Y95.453 Z-3.998
X24.676 Y95.887 Z-4.002
X24.552 Y96.107 Z-4.004
X24.364 Y96.266 Z-4.006
X24.123 Y96.355 Z-4.008
X23.87 Y96.354 Z-4.01
X23.637 Y96.267 Z-4.012
X23.45 Y96.109 Z-4.014
X23.324 Y95.887 Z-4.016
X23.25 Y95.453 Z-4.019
Y35.841 Z-4.498
X23.326 Y35.399 Z-4.502
X23.362 Y35.337
X23.454 Y35.183 Z-4.504
X23.648 Y35.022 Z-4.506
X23.864 Y34.944 Z-4.508
X24.136 Z-4.51
X24.352 Y35.022 Z-4.512
X24.546 Y35.183 Z-4.514
X24.638 Y35.337 Z-4.515
X24.674 Y35.399 Z-4.516
X24.75 Y35.841 Z-4.519
Y95.453 Z-4.998
X24.676 Y95.887 Z-5.002
X24.552 Y96.107 Z-5.004
X24.364 Y96.266 Z-5.006
X24.123 Y96.355 Z-5.008
X23.87 Y96.354 Z-5.01
X23.637 Y96.267 Z-5.012
X23.45 Y96.109 Z-5.014
X23.324 Y95.887 Z-5.016
X23.25 Y95.453 Z-5.019
Y35.841 Z-5.498
X23.288 Y35.623 Z-5.5
X23.326 Y35.399
X23.362 Y35.337
X23.454 Y35.183
X23.648 Y35.022
X23.864 Y34.944
X24.136
X24.352 Y35.022
X24.546 Y35.183
X24.638 Y35.337
X24.674 Y35.399
X24.75 Y35.841
Y95.453
X24.676 Y95.887
X24.552 Y96.107
X24.364 Y96.266
X24.123 Y96.355
X23.87 Y96.354
X23.637 Y96.267
X23.45 Y96.109
X23.324 Y95.887
X23.25 Y95.453
Y35.841
X23.288 Y35.623
G17 G3 X23.317 Y35.536 Z-5.485 I0.296 J0.051
X23.365 Y35.468 Z-5.443 I0.266 J0.138
X23.416 Y35.425 Z-5.376 I0.218 J0.206
X23.453 Y35.404 Z-5.293 I0.167 J0.249
X23.466 Y35.398 Z-5.2 I0.13 J0.27
G0 Z5
X23.25 Y42.142
G1 Z-4.15 F600
G19 G2 Y41.845 Z-4.45 J-0.3
G1 Y35.841 Z-4.498
X23.326 Y35.399 Z-4.502
X23.362 Y35.337
X23.454 Y35.183 Z-4.504
X23.648 Y35.022 Z-4.506
X23.864 Y34.944 Z-4.508
X24.136 Z-4.51
X24.352 Y35.022 Z-4.512
X24.546 Y35.183 Z-4.514
X24.638 Y35.337 Z-4.515
X24.674 Y35.399 Z-4.516
X24.75 Y35.841 Z-4.519
Y95.453 Z-4.998
X24.676 Y95.887 Z-5.002
X24.552 Y96.107 Z-5.004
X24.364 Y96.266 Z-5.006
X24.123 Y96.355 Z-5.008
X23.87 Y96.354 Z-5.01
X23.637 Y96.267 Z-5.012
X23.45 Y96.109 Z-5.014
X23.324 Y95.887 Z-5.016
X23.25 Y95.453 Z-5.019
Y35.841 Z-5.498
X23.326 Y35.399 Z-5.502
X23.362 Y35.337
X23.454 Y35.183 Z-5.504
X23.648 Y35.022 Z-5.506
X23.864 Y34.944 Z-5.508
X24.136 Z-5.51
X24.352 Y35.022 Z-5.512
X24.546 Y35.183 Z-5.514
X24.638 Y35.337 Z-5.515
X24.674 Y35.399 Z-5.516
X24.75 Y35.841 Z-5.519
Y95.453 Z-5.998
X24.676 Y95.887 Z-6.002
X24.552 Y96.107 Z-6.004
X24.364 Y96.266 Z-6.006
X24.123 Y96.355 Z-6.008
X23.87 Y96.354 Z-6.01
X23.637 Y96.267 Z-6.012
X23.45 Y96.109 Z-6.014
X23.324 Y95.887 Z-6.016
X23.25 Y95.453 Z-6.019
Y35.841 Z-6.498
X23.288 Y35.623 Z-6.5
X23.326 Y35.399
X23.362 Y35.337
X23.454 Y35.183
X23.648 Y35.022
X23.864 Y34.944
X24.136
X24.352 Y35.022
X24.546 Y35.183
X24.638 Y35.337
X24.674 Y35.399
X24.75 Y35.841
Y95.453
X24.676 Y95.887
X24.552 Y96.107
X24.364 Y96.266
X24.123 Y96.355
X23.87 Y96.354
X23.637 Y96.267
X23.45 Y96.109
X23.324 Y95.887
X23.25 Y95.453
Y35.841
X23.288 Y35.623
G17 G3 X23.317 Y35.536 Z-6.485 I0.296 J0.051
X23.365 Y35.468 Z-6.443 I0.266 J0.138
X23.416 Y35.425 Z-6.376 I0.218 J0.206
X23.453 Y35.404 Z-6.293 I0.167 J0.249
X23.466 Y35.398 Z-6.2 I0.13 J0.27
G0 Z5
X23.25 Y42.142
G1 Z-5.15 F600
G19 G2 Y41.845 Z-5.45 J-0.3
G1 Y35.841 Z-5.498
X23.326 Y35.399 Z-5.502
X23.362 Y35.337
X23.454 Y35.183 Z-5.504
X23.648 Y35.022 Z-5.506
X23.864 Y34.944 Z-5.508
X24.136 Z-5.51
X24.352 Y35.022 Z-5.512
X24.546 Y35.183 Z-5.514
X24.638 Y35.337 Z-5.515
X24.674 Y35.399 Z-5.516
X24.75 Y35.841 Z-5.519
Y95.453 Z-5.998
X24.676 Y95.887 Z-6.002
X24.552 Y96.107 Z-6.004
X24.364 Y96.266 Z-6.006
X24.123 Y96.355 Z-6.008
X23.87 Y96.354 Z-6.01
X23.637 Y96.267 Z-6.012
X23.45 Y96.109 Z-6.014
X23.324 Y95.887 Z-6.016
X23.25 Y95.453 Z-6.019
Y35.841 Z-6.498
X23.326 Y35.399 Z-6.502
X23.362 Y35.337
X23.454 Y35.183 Z-6.504
X23.648 Y35.022 Z-6.506
X23.864 Y34.944 Z-6.508
X24.136 Z-6.51
X24.352 Y35.022 Z-6.512
X24.546 Y35.183 Z-6.514
X24.638 Y35.337 Z-6.515
X24.674 Y35.399 Z-6.516
X24.75 Y35.841 Z-6.519
Y95.453 Z-6.998
X24.676 Y95.887 Z-7.002
X24.552 Y96.107 Z-7.004
X24.364 Y96.266 Z-7.006
X24.123 Y96.355 Z-7.008
X23.87 Y96.354 Z-7.01
X23.637 Y96.267 Z-7.012
X23.45 Y96.109 Z-7.014
X23.324 Y95.887 Z-7.016
X23.25 Y95.453 Z-7.019
Y35.841 Z-7.498
X23.288 Y35.623 Z-7.5
X23.326 Y35.399
X23.362 Y35.337
X23.454 Y35.183
X23.648 Y35.022
X23.864 Y34.944
X24.136
X24.352 Y35.022
X24.546 Y35.183
X24.638 Y35.337
X24.674 Y35.399
X24.75 Y35.841
Y95.453
X24.676 Y95.887
X24.552 Y96.107
X24.364 Y96.266
X24.123 Y96.355
X23.87 Y96.354
X23.637 Y96.267
X23.45 Y96.109
X23.324 Y95.887
X23.25 Y95.453
Y35.841
X23.288 Y35.623
G17 G3 X23.317 Y35.536 Z-7.485 I0.296 J0.051
X23.365 Y35.468 Z-7.443 I0.266 J0.138
X23.416 Y35.425 Z-7.376 I0.218 J0.206
X23.453 Y35.404 Z-7.293 I0.167 J0.249
X23.466 Y35.398 Z-7.2 I0.13 J0.27
G0 Z5
X23.25 Y42.142
G1 Z-6.15 F600
G19 G2 Y41.845 Z-6.45 J-0.3
G1 Y35.841 Z-6.498
X23.326 Y35.399 Z-6.502
X23.362 Y35.337
X23.454 Y35.183 Z-6.504
X23.648 Y35.022 Z-6.506
X23.864 Y34.944 Z-6.508
X24.136 Z-6.51
X24.352 Y35.022 Z-6.512
X24.546 Y35.183 Z-6.514
X24.638 Y35.337 Z-6.515
X24.674 Y35.399 Z-6.516
X24.75 Y35.841 Z-6.519
Y95.453 Z-6.998
X24.676 Y95.887 Z-7.002
X24.552 Y96.107 Z-7.004
X24.364 Y96.266 Z-7.006
X24.123 Y96.355 Z-7.008
X23.87 Y96.354 Z-7.01
X23.637 Y96.267 Z-7.012
X23.45 Y96.109 Z-7.014
X23.324 Y95.887 Z-7.016
X23.25 Y95.453 Z-7.019
Y35.841 Z-7.498
X23.326 Y35.399 Z-7.502
X23.362 Y35.337
X23.454 Y35.183 Z-7.504
X23.648 Y35.022 Z-7.506
X23.864 Y34.944 Z-7.508
X24.136 Z-7.51
X24.352 Y35.022 Z-7.512
X24.546 Y35.183 Z-7.514
X24.638 Y35.337 Z-7.515
X24.674 Y35.399 Z-7.516
X24.75 Y35.841 Z-7.519
Y95.453 Z-7.998
X24.676 Y95.887 Z-8.002
X24.552 Y96.107 Z-8.004
X24.364 Y96.266 Z-8.006
X24.123 Y96.355 Z-8.008
X23.87 Y96.354 Z-8.01
X23.637 Y96.267 Z-8.012
X23.45 Y96.109 Z-8.014
X23.324 Y95.887 Z-8.016
X23.25 Y95.453 Z-8.019
Y35.841 Z-8.498
X23.288 Y35.623 Z-8.5
X23.326 Y35.399
X23.362 Y35.337
X23.454 Y35.183
X23.648 Y35.022
X23.864 Y34.944
X24.136
X24.352 Y35.022
X24.546 Y35.183
X24.638 Y35.337
X24.674 Y35.399
X24.75 Y35.841
Y95.453
X24.676 Y95.887
X24.552 Y96.107
X24.364 Y96.266
X24.123 Y96.355
X23.87 Y96.354
X23.637 Y96.267
X23.45 Y96.109
X23.324 Y95.887
X23.25 Y95.453
Y35.841
X23.288 Y35.623
G17 G3 X23.317 Y35.536 Z-8.485 I0.296 J0.051
X23.365 Y35.468 Z-8.443 I0.266 J0.138
X23.416 Y35.425 Z-8.376 I0.218 J0.206
X23.453 Y35.404 Z-8.293 I0.167 J0.249
X23.466 Y35.398 Z-8.2 I0.13 J0.27
G0 Z5
X23.25 Y42.142
G1 Z-7.15 F600
G19 G2 Y41.845 Z-7.45 J-0.3
G1 Y35.841 Z-7.498
X23.326 Y35.399 Z-7.502
X23.362 Y35.337
X23.454 Y35.183 Z-7.504
X23.648 Y35.022 Z-7.506
X23.864 Y34.944 Z-7.508
X24.136 Z-7.51
X24.352 Y35.022 Z-7.512
X24.546 Y35.183 Z-7.514
X24.638 Y35.337 Z-7.515
X24.674 Y35.399 Z-7.516
X24.75 Y35.841 Z-7.519
Y95.453 Z-7.998
X24.676 Y95.887 Z-8.002
X24.552 Y96.107 Z-8.004
X24.364 Y96.266 Z-8.006
X24.123 Y96.355 Z-8.008
X23.87 Y96.354 Z-8.01
X23.637 Y96.267 Z-8.012
X23.45 Y96.109 Z-8.014
X23.324 Y95.887 Z-8.016
X23.25 Y95.453 Z-8.019
Y35.841 Z-8.498
X23.326 Y35.399 Z-8.502
X23.362 Y35.337
X23.454 Y35.183 Z-8.504
X23.648 Y35.022 Z-8.506
X23.864 Y34.944 Z-8.508
X24.136 Z-8.51
X24.352 Y35.022 Z-8.512
X24.546 Y35.183 Z-8.514
X24.638 Y35.337 Z-8.515
X24.674 Y35.399 Z-8.516
X24.75 Y35.841 Z-8.519
Y95.453 Z-8.998
X24.676 Y95.887 Z-9.002
X24.552 Y96.107 Z-9.004
X24.364 Y96.266 Z-9.006
X24.123 Y96.355 Z-9.008
X23.87 Y96.354 Z-9.01
X23.637 Y96.267 Z-9.012
X23.45 Y96.109 Z-9.014
X23.324 Y95.887 Z-9.016
X23.25 Y95.453 Z-9.019
Y35.841 Z-9.498
X23.288 Y35.623 Z-9.5
X23.326 Y35.399
X23.362 Y35.337
X23.454 Y35.183
X23.648 Y35.022
X23.864 Y34.944
X24.136
X24.352 Y35.022
X24.546 Y35.183
X24.638 Y35.337
X24.674 Y35.399
X24.75 Y35.841
Y95.453
X24.676 Y95.887
X24.552 Y96.107
X24.364 Y96.266
X24.123 Y96.355
X23.87 Y96.354
X23.637 Y96.267
X23.45 Y96.109
X23.324 Y95.887
X23.25 Y95.453
Y35.841
X23.288 Y35.623
G17 G3 X23.317 Y35.536 Z-9.485 I0.296 J0.051
X23.365 Y35.468 Z-9.443 I0.266 J0.138
X23.416 Y35.425 Z-9.376 I0.218 J0.206
X23.453 Y35.404 Z-9.293 I0.167 J0.249
X23.466 Y35.398 Z-9.2 I0.13 J0.27
G0 Z5
X23.25 Y42.142
G1 Z-8.15 F600
G19 G2 Y41.845 Z-8.45 J-0.3
G1 Y35.841 Z-8.498
X23.326 Y35.399 Z-8.502
X23.362 Y35.337
X23.454 Y35.183 Z-8.504
X23.648 Y35.022 Z-8.506
X23.864 Y34.944 Z-8.508
X24.136 Z-8.51
X24.352 Y35.022 Z-8.512
X24.546 Y35.183 Z-8.514
X24.638 Y35.337 Z-8.515
X24.674 Y35.399 Z-8.516
X24.75 Y35.841 Z-8.519
Y95.453 Z-8.998
X24.676 Y95.887 Z-9.002
X24.552 Y96.107 Z-9.004
X24.364 Y96.266 Z-9.006
X24.123 Y96.355 Z-9.008
X23.87 Y96.354 Z-9.01
X23.637 Y96.267 Z-9.012
X23.45 Y96.109 Z-9.014
X23.324 Y95.887 Z-9.016
X23.25 Y95.453 Z-9.019
Y35.841 Z-9.498
X23.326 Y35.399 Z-9.502
X23.362 Y35.337
X23.454 Y35.183 Z-9.504
X23.648 Y35.022 Z-9.506
X23.864 Y34.944 Z-9.508
X24.136 Z-9.51
X24.352 Y35.022 Z-9.512
X24.546 Y35.183 Z-9.514
X24.638 Y35.337 Z-9.515
X24.674 Y35.399 Z-9.516
X24.75 Y35.841 Z-9.519
Y95.453 Z-9.998
X24.676 Y95.887 Z-10.002
X24.552 Y96.107 Z-10.004
X24.364 Y96.266 Z-10.006
X24.123 Y96.355 Z-10.008
X23.87 Y96.354 Z-10.01
X23.637 Y96.267 Z-10.012
X23.45 Y96.109 Z-10.014
X23.324 Y95.887 Z-10.016
X23.25 Y95.453 Z-10.019
Y35.841 Z-10.498
X23.288 Y35.623 Z-10.5
X23.326 Y35.399
X23.362 Y35.337
X23.454 Y35.183
X23.648 Y35.022
X23.864 Y34.944
X24.136
X24.352 Y35.022
X24.546 Y35.183
X24.638 Y35.337
X24.674 Y35.399
X24.75 Y35.841
Y95.453
X24.676 Y95.887
X24.552 Y96.107
X24.364 Y96.266
X24.123 Y96.355
X23.87 Y96.354
X23.637 Y96.267
X23.45 Y96.109
X23.324 Y95.887
X23.25 Y95.453
Y35.841
X23.288 Y35.623
G17 G3 X23.317 Y35.536 Z-10.485 I0.296 J0.051
X23.365 Y35.468 Z-10.443 I0.266 J0.138
X23.416 Y35.425 Z-10.376 I0.218 J0.206
X23.453 Y35.404 Z-10.293 I0.167 J0.249
X23.466 Y35.398 Z-10.2 I0.13 J0.27
G0 Z5
X23.25 Y42.142
G1 Z-9.15 F600
G19 G2 Y41.845 Z-9.45 J-0.3
G1 Y35.841 Z-9.498
X23.326 Y35.399 Z-9.502
X23.362 Y35.337
X23.454 Y35.183 Z-9.504
X23.648 Y35.022 Z-9.506
X23.864 Y34.944 Z-9.508
X24.136 Z-9.51
X24.352 Y35.022 Z-9.512
X24.546 Y35.183 Z-9.514
X24.638 Y35.337 Z-9.515
X24.674 Y35.399 Z-9.516
X24.75 Y35.841 Z-9.519
Y95.453 Z-9.998
X24.676 Y95.887 Z-10.002
X24.552 Y96.107 Z-10.004
X24.364 Y96.266 Z-10.006
X24.123 Y96.355 Z-10.008
X23.87 Y96.354 Z-10.01
X23.637 Y96.267 Z-10.012
X23.45 Y96.109 Z-10.014
X23.324 Y95.887 Z-10.016
X23.25 Y95.453 Z-10.019
Y35.841 Z-10.498
X23.326 Y35.399 Z-10.502
X23.362 Y35.337
X23.454 Y35.183 Z-10.504
X23.648 Y35.022 Z-10.506
X23.864 Y34.944 Z-10.508
X24.136 Z-10.51
X24.352 Y35.022 Z-10.512
X24.546 Y35.183 Z-10.514
X24.638 Y35.337 Z-10.515
X24.674 Y35.399 Z-10.516
X24.75 Y35.841 Z-10.519
Y95.453 Z-10.998
X24.676 Y95.887 Z-11.002
X24.552 Y96.107 Z-11.004
X24.364 Y96.266 Z-11.006
X24.123 Y96.355 Z-11.008
X23.87 Y96.354 Z-11.01
X23.637 Y96.267 Z-11.012
X23.45 Y96.109 Z-11.014
X23.324 Y95.887 Z-11.016
X23.25 Y95.453 Z-11.019
Y35.841 Z-11.498
X23.288 Y35.623 Z-11.5
X23.326 Y35.399
X23.362 Y35.337
X23.454 Y35.183
X23.648 Y35.022
X23.864 Y34.944
X24.136
X24.352 Y35.022
X24.546 Y35.183
X24.638 Y35.337
X24.674 Y35.399
X24.75 Y35.841
Y95.453
X24.676 Y95.887
X24.552 Y96.107
X24.364 Y96.266
X24.123 Y96.355
X23.87 Y96.354
X23.637 Y96.267
X23.45 Y96.109
X23.324 Y95.887
X23.25 Y95.453
Y35.841
X23.288 Y35.623
G17 G3 X23.317 Y35.536 Z-11.485 I0.296 J0.051
X23.365 Y35.468 Z-11.443 I0.266 J0.138
X23.416 Y35.425 Z-11.376 I0.218 J0.206
X23.453 Y35.404 Z-11.293 I0.167 J0.249
X23.466 Y35.398 Z-11.2 I0.13 J0.27
G0 Z5
X23.25 Y42.142
G1 Z-10.15 F600
G19 G2 Y41.845 Z-10.45 J-0.3
G1 Y35.841 Z-10.498
X23.326 Y35.399 Z-10.502
X23.362 Y35.337
X23.454 Y35.183 Z-10.504
X23.648 Y35.022 Z-10.506
X23.864 Y34.944 Z-10.508
X24.136 Z-10.51
X24.352 Y35.022 Z-10.512
X24.546 Y35.183 Z-10.514
X24.638 Y35.337 Z-10.515
X24.674 Y35.399 Z-10.516
X24.75 Y35.841 Z-10.519
Y95.453 Z-10.998
X24.676 Y95.887 Z-11.002
X24.552 Y96.107 Z-11.004
X24.364 Y96.266 Z-11.006
X24.123 Y96.355 Z-11.008
X23.87 Y96.354 Z-11.01
X23.637 Y96.267 Z-11.012
X23.45 Y96.109 Z-11.014
X23.324 Y95.887 Z-11.016
X23.25 Y95.453 Z-11.019
Y35.841 Z-11.498
X23.326 Y35.399 Z-11.502
X23.362 Y35.337
X23.454 Y35.183 Z-11.504
X23.648 Y35.022 Z-11.506
X23.864 Y34.944 Z-11.508
X24.136 Z-11.51
X24.352 Y35.022 Z-11.512
X24.546 Y35.183 Z-11.514
X24.638 Y35.337 Z-11.515
X24.674 Y35.399 Z-11.516
X24.75 Y35.841 Z-11.519
Y95.453 Z-11.998
X24.676 Y95.887 Z-12.002
X24.552 Y96.107 Z-12.004
X24.364 Y96.266 Z-12.006
X24.123 Y96.355 Z-12.008
X23.87 Y96.354 Z-12.01
X23.637 Y96.267 Z-12.012
X23.45 Y96.109 Z-12.014
X23.324 Y95.887 Z-12.016
X23.25 Y95.453 Z-12.019
Y35.841 Z-12.498
X23.288 Y35.623 Z-12.5
X23.326 Y35.399
X23.362 Y35.337
X23.454 Y35.183
X23.648 Y35.022
X23.864 Y34.944
X24.136
X24.352 Y35.022
X24.546 Y35.183
X24.638 Y35.337
X24.674 Y35.399
X24.75 Y35.841
Y95.453
X24.676 Y95.887
X24.552 Y96.107
X24.364 Y96.266
X24.123 Y96.355
X23.87 Y96.354
X23.637 Y96.267
X23.45 Y96.109
X23.324 Y95.887
X23.25 Y95.453
Y35.841
X23.288 Y35.623
G17 G3 X23.317 Y35.536 Z-12.485 I0.296 J0.051
X23.365 Y35.468 Z-12.443 I0.266 J0.138
X23.416 Y35.425 Z-12.376 I0.218 J0.206
X23.453 Y35.404 Z-12.293 I0.167 J0.249
X23.466 Y35.398 Z-12.2 I0.13 J0.27
G0 Z5
X23.25 Y42.142
G1 Z-11.15 F600
G19 G2 Y41.845 Z-11.45 J-0.3
G1 Y35.841 Z-11.498
X23.326 Y35.399 Z-11.502
X23.362 Y35.337
X23.454 Y35.183 Z-11.504
X23.648 Y35.022 Z-11.506
X23.864 Y34.944 Z-11.508
X24.136 Z-11.51
X24.352 Y35.022 Z-11.512
X24.546 Y35.183 Z-11.514
X24.638 Y35.337 Z-11.515
X24.674 Y35.399 Z-11.516
X24.75 Y35.841 Z-11.519
Y95.453 Z-11.998
X24.676 Y95.887 Z-12.002
X24.552 Y96.107 Z-12.004
X24.364 Y96.266 Z-12.006
X24.123 Y96.355 Z-12.008
X23.87 Y96.354 Z-12.01
X23.637 Y96.267 Z-12.012
X23.45 Y96.109 Z-12.014
X23.324 Y95.887 Z-12.016
X23.25 Y95.453 Z-12.019
Y35.841 Z-12.498
X23.326 Y35.399 Z-12.502
X23.362 Y35.337
X23.454 Y35.183 Z-12.504
X23.648 Y35.022 Z-12.506
X23.864 Y34.944 Z-12.508
X24.136 Z-12.51
X24.352 Y35.022 Z-12.512
X24.546 Y35.183 Z-12.514
X24.638 Y35.337 Z-12.515
X24.674 Y35.399 Z-12.516
X24.75 Y35.841 Z-12.519
Y95.453 Z-12.998
X24.676 Y95.887 Z-13.002
X24.552 Y96.107 Z-13.004
X24.364 Y96.266 Z-13.006
X24.123 Y96.355 Z-13.008
X23.87 Y96.354 Z-13.01
X23.637 Y96.267 Z-13.012
X23.45 Y96.109 Z-13.014
X23.324 Y95.887 Z-13.016
X23.25 Y95.453 Z-13.019
Y35.841 Z-13.498
X23.288 Y35.623 Z-13.5
X23.326 Y35.399
X23.362 Y35.337
X23.454 Y35.183
X23.648 Y35.022
X23.864 Y34.944
X24.136
X24.352 Y35.022
X24.546 Y35.183
X24.638 Y35.337
X24.674 Y35.399
X24.75 Y35.841
Y95.453
X24.676 Y95.887
X24.552 Y96.107
X24.364 Y96.266
X24.123 Y96.355
X23.87 Y96.354
X23.637 Y96.267
X23.45 Y96.109
X23.324 Y95.887
X23.25 Y95.453
Y35.841
X23.288 Y35.623
G17 G3 X23.317 Y35.536 Z-13.485 I0.296 J0.051
X23.365 Y35.468 Z-13.443 I0.266 J0.138
X23.416 Y35.425 Z-13.376 I0.218 J0.206
X23.453 Y35.404 Z-13.293 I0.167 J0.249
X23.466 Y35.398 Z-13.2 I0.13 J0.27
G0 Z5
X23.25 Y42.142
G1 Z-12.15 F600
G19 G2 Y41.845 Z-12.45 J-0.3
G1 Y35.841 Z-12.498
X23.326 Y35.399 Z-12.502
X23.362 Y35.337
X23.454 Y35.183 Z-12.504
X23.648 Y35.022 Z-12.506
X23.864 Y34.944 Z-12.508
X24.136 Z-12.51
X24.352 Y35.022 Z-12.512
X24.546 Y35.183 Z-12.514
X24.638 Y35.337 Z-12.515
X24.674 Y35.399 Z-12.516
X24.75 Y35.841 Z-12.519
Y95.453 Z-12.998
X24.676 Y95.887 Z-13.002
X24.552 Y96.107 Z-13.004
X24.364 Y96.266 Z-13.006
X24.123 Y96.355 Z-13.008
X23.87 Y96.354 Z-13.01
X23.637 Y96.267 Z-13.012
X23.45 Y96.109 Z-13.014
X23.324 Y95.887 Z-13.016
X23.25 Y95.453 Z-13.019
Y35.841 Z-13.498
X23.326 Y35.399 Z-13.502
X23.362 Y35.337
X23.454 Y35.183 Z-13.504
X23.648 Y35.022 Z-13.506
X23.864 Y34.944 Z-13.508
X24.136 Z-13.51
X24.352 Y35.022 Z-13.512
X24.546 Y35.183 Z-13.514
X24.638 Y35.337 Z-13.515
X24.674 Y35.399 Z-13.516
X24.75 Y35.841 Z-13.519
Y95.453 Z-13.998
X24.676 Y95.887 Z-14.002
X24.552 Y96.107 Z-14.004
X24.364 Y96.266 Z-14.006
X24.123 Y96.355 Z-14.008
X23.87 Y96.354 Z-14.01
X23.637 Y96.267 Z-14.012
X23.45 Y96.109 Z-14.014
X23.324 Y95.887 Z-14.016
X23.25 Y95.453 Z-14.019
Y35.841 Z-14.498
X23.288 Y35.623 Z-14.5
X23.326 Y35.399
X23.362 Y35.337
X23.454 Y35.183
X23.648 Y35.022
X23.864 Y34.944
X24.136
X24.352 Y35.022
X24.546 Y35.183
X24.638 Y35.337
X24.674 Y35.399
X24.75 Y35.841
Y95.453
X24.676 Y95.887
X24.552 Y96.107
X24.364 Y96.266
X24.123 Y96.355
X23.87 Y96.354
X23.637 Y96.267
X23.45 Y96.109
X23.324 Y95.887
X23.25 Y95.453
Y35.841
X23.288 Y35.623
G17 G3 X23.317 Y35.536 Z-14.485 I0.296 J0.051
X23.365 Y35.468 Z-14.443 I0.266 J0.138
X23.416 Y35.425 Z-14.376 I0.218 J0.206
X23.453 Y35.404 Z-14.293 I0.167 J0.249
X23.466 Y35.398 Z-14.2 I0.13 J0.27
G0 Z5
X23.25 Y42.142
G1 Z-13.15 F600
G19 G2 Y41.845 Z-13.45 J-0.3
G1 Y35.841 Z-13.498
X23.326 Y35.399 Z-13.502
X23.362 Y35.337
X23.454 Y35.183 Z-13.504
X23.648 Y35.022 Z-13.506
X23.864 Y34.944 Z-13.508
X24.136 Z-13.51
X24.352 Y35.022 Z-13.512
X24.546 Y35.183 Z-13.514
X24.638 Y35.337 Z-13.515
X24.674 Y35.399 Z-13.516
X24.75 Y35.841 Z-13.519
Y95.453 Z-13.998
X24.676 Y95.887 Z-14.002
X24.552 Y96.107 Z-14.004
X24.364 Y96.266 Z-14.006
X24.123 Y96.355 Z-14.008
X23.87 Y96.354 Z-14.01
X23.637 Y96.267 Z-14.012
X23.45 Y96.109 Z-14.014
X23.324 Y95.887 Z-14.016
X23.25 Y95.453 Z-14.019
Y35.841 Z-14.498
X23.326 Y35.399 Z-14.502
X23.362 Y35.337
X23.454 Y35.183 Z-14.504
X23.648 Y35.022 Z-14.506
X23.864 Y34.944 Z-14.508
X24.136 Z-14.51
X24.352 Y35.022 Z-14.512
X24.546 Y35.183 Z-14.514
X24.638 Y35.337 Z-14.515
X24.674 Y35.399 Z-14.516
X24.75 Y35.841 Z-14.519
Y95.453 Z-14.998
X24.676 Y95.887 Z-15.002
X24.552 Y96.107 Z-15.004
X24.364 Y96.266 Z-15.006
X24.123 Y96.355 Z-15.008
X23.87 Y96.354 Z-15.01
X23.637 Y96.267 Z-15.012
X23.45 Y96.109 Z-15.014
X23.324 Y95.887 Z-15.016
X23.25 Y95.453 Z-15.019
Y35.841 Z-15.498
X23.288 Y35.623 Z-15.5
X23.326 Y35.399
X23.362 Y35.337
X23.454 Y35.183
X23.648 Y35.022
X23.864 Y34.944
X24.136
X24.352 Y35.022
X24.546 Y35.183
X24.638 Y35.337
X24.674 Y35.399
X24.75 Y35.841
Y95.453
X24.676 Y95.887
X24.552 Y96.107
X24.364 Y96.266
X24.123 Y96.355
X23.87 Y96.354
X23.637 Y96.267
X23.45 Y96.109
X23.324 Y95.887
X23.25 Y95.453
Y35.841
X23.288 Y35.623
G17 G3 X23.317 Y35.536 Z-15.485 I0.296 J0.051
X23.365 Y35.468 Z-15.443 I0.266 J0.138
X23.416 Y35.425 Z-15.376 I0.218 J0.206
X23.453 Y35.404 Z-15.293 I0.167 J0.249
X23.466 Y35.398 Z-15.2 I0.13 J0.27
G0 Z5
X23.25 Y42.142
G1 Z-14.15 F600
G19 G2 Y41.845 Z-14.45 J-0.3
G1 Y35.841 Z-14.498
X23.326 Y35.399 Z-14.502
X23.362 Y35.337
X23.454 Y35.183 Z-14.504
X23.648 Y35.022 Z-14.506
X23.864 Y34.944 Z-14.508
X24.136 Z-14.51
X24.352 Y35.022 Z-14.512
X24.546 Y35.183 Z-14.514
X24.638 Y35.337 Z-14.515
X24.674 Y35.399 Z-14.516
X24.75 Y35.841 Z-14.519
Y95.453 Z-14.998
X24.676 Y95.887 Z-15.002
X24.552 Y96.107 Z-15.004
X24.364 Y96.266 Z-15.006
X24.123 Y96.355 Z-15.008
X23.87 Y96.354 Z-15.01
X23.637 Y96.267 Z-15.012
X23.45 Y96.109 Z-15.014
X23.324 Y95.887 Z-15.016
X23.25 Y95.453 Z-15.019
Y35.841 Z-15.498
X23.326 Y35.399 Z-15.502
X23.362 Y35.337
X23.454 Y35.183 Z-15.504
X23.648 Y35.022 Z-15.506
X23.864 Y34.944 Z-15.508
X24.136 Z-15.51
X24.352 Y35.022 Z-15.512
X24.546 Y35.183 Z-15.514
X24.638 Y35.337 Z-15.515
X24.674 Y35.399 Z-15.516
X24.75 Y35.841 Z-15.519
Y95.453 Z-15.998
X24.676 Y95.887 Z-16.002
X24.552 Y96.107 Z-16.004
X24.364 Y96.266 Z-16.006
X24.123 Y96.355 Z-16.008
X23.87 Y96.354 Z-16.01
X23.637 Y96.267 Z-16.012
X23.45 Y96.109 Z-16.014
X23.324 Y95.887 Z-16.016
X23.25 Y95.453 Z-16.019
Y35.841 Z-16.498
X23.288 Y35.623 Z-16.5
X23.326 Y35.399
X23.362 Y35.337
X23.454 Y35.183
X23.648 Y35.022
X23.864 Y34.944
X24.136
X24.352 Y35.022
X24.546 Y35.183
X24.638 Y35.337
X24.674 Y35.399
X24.75 Y35.841
Y95.453
X24.676 Y95.887
X24.552 Y96.107
X24.364 Y96.266
X24.123 Y96.355
X23.87 Y96.354
X23.637 Y96.267
X23.45 Y96.109
X23.324 Y95.887
X23.25 Y95.453
Y35.841
X23.288 Y35.623
G17 G3 X23.317 Y35.536 Z-16.485 I0.296 J0.051
X23.365 Y35.468 Z-16.443 I0.266 J0.138
X23.416 Y35.425 Z-16.376 I0.218 J0.206
X23.453 Y35.404 Z-16.293 I0.167 J0.249
X23.466 Y35.398 Z-16.2 I0.13 J0.27
G0 Z5
X23.25 Y39.38
G1 Z-15.15 F600
G19 G2 Y39.083 Z-15.45 J-0.3
G1 Y35.841 Z-15.476
X23.326 Y35.399 Z-15.48
X23.362 Y35.337
X23.454 Y35.183 Z-15.482
X23.648 Y35.022 Z-15.484
X23.864 Y34.944 Z-15.486
X24.136 Z-15.488
X24.352 Y35.022 Z-15.49
X24.546 Y35.183 Z-15.492
X24.638 Y35.337 Z-15.493
X24.674 Y35.399 Z-15.494
X24.75 Y35.841 Z-15.497
Y95.453 Z-15.976
X24.676 Y95.887 Z-15.98
X24.552 Y96.107 Z-15.982
X24.364 Y96.266 Z-15.984
X24.123 Y96.355 Z-15.986
X23.87 Y96.354 Z-15.988
X23.637 Y96.267 Z-15.99
X23.45 Y96.109 Z-15.992
X23.324 Y95.887 Z-15.994
X23.25 Y95.453 Z-15.997
Y35.841 Z-16.476
X23.326 Y35.399 Z-16.48
X23.362 Y35.337
X23.454 Y35.183 Z-16.482
X23.648 Y35.022 Z-16.484
X23.864 Y34.944 Z-16.486
X24.136 Z-16.488
X24.352 Y35.022 Z-16.49
X24.546 Y35.183 Z-16.492
X24.638 Y35.337 Z-16.493
X24.674 Y35.399 Z-16.494
X24.75 Y35.841 Z-16.497
Y95.453 Z-16.976
X24.676 Y95.887 Z-16.98
X24.552 Y96.107 Z-16.982
X24.364 Y96.266 Z-16.984
X24.123 Y96.355 Z-16.986
X23.87 Y96.354 Z-16.988
X23.637 Y96.267 Z-16.99
X23.45 Y96.109 Z-16.992
X23.324 Y95.887 Z-16.994
X23.25 Y95.453 Z-16.997
Y35.841 Z-17.476
X23.326 Y35.399 Z-17.48
X23.362 Y35.337
X23.454 Y35.183 Z-17.482
X23.648 Y35.022 Z-17.484
X23.864 Y34.944 Z-17.486
X24.136 Z-17.488
X24.352 Y35.022 Z-17.49
X24.546 Y35.183 Z-17.492
X24.638 Y35.337 Z-17.493
X24.674 Y35.399 Z-17.494
X24.75 Y35.841 Z-17.497
Y36.19 Z-17.5
Y95.453
X24.676 Y95.887
X24.552 Y96.107
X24.364 Y96.266
X24.123 Y96.355
X23.87 Y96.354
X23.637 Y96.267
X23.45 Y96.109
X23.324 Y95.887
X23.25 Y95.453
Y35.841
X23.326 Y35.399
X23.362 Y35.337
X23.454 Y35.183
X23.648 Y35.022
X23.864 Y34.944
X24.136
X24.352 Y35.022
X24.546 Y35.183
X24.638 Y35.337
X24.674 Y35.399
X24.75 Y35.841
Y36.19
G17 G3 X24.736 Y36.281 Z-17.485 I-0.3
X24.7 Y36.356 Z-17.443 I-0.286 J-0.091
X24.657 Y36.407 Z-17.376 I-0.25 J-0.166
X24.624 Y36.434 Z-17.293 I-0.207 J-0.217
X24.612 Y36.442 Z-17.2 I-0.174 J-0.244
G0 Z5
X23.25 Y42.142
G1 Z-16.15 F600
G19 G2 Y41.845 Z-16.45 J-0.3
G1 Y35.841 Z-16.498
X23.326 Y35.399 Z-16.502
X23.362 Y35.337
X23.454 Y35.183 Z-16.504
X23.648 Y35.022 Z-16.506
X23.864 Y34.944 Z-16.508
X24.136 Z-16.51
X24.352 Y35.022 Z-16.512
X24.546 Y35.183 Z-16.514
X24.638 Y35.337 Z-16.515
X24.674 Y35.399 Z-16.516
X24.75 Y35.841 Z-16.519
Y95.453 Z-16.998
X24.676 Y95.887 Z-17.002
X24.552 Y96.107 Z-17.004
X24.364 Y96.266 Z-17.006
X24.123 Y96.355 Z-17.008
X23.87 Y96.354 Z-17.01
X23.637 Y96.267 Z-17.012
X23.45 Y96.109 Z-17.014
X23.324 Y95.887 Z-17.016
X23.25 Y95.453 Z-17.019
Y35.841 Z-17.498
X23.326 Y35.399 Z-17.502
X23.362 Y35.337
X23.454 Y35.183 Z-17.504
X23.648 Y35.022 Z-17.506
X23.864 Y34.944 Z-17.508
X24.136 Z-17.51
X24.352 Y35.022 Z-17.512
X24.546 Y35.183 Z-17.514
X24.638 Y35.337 Z-17.515
X24.674 Y35.399 Z-17.516
X24.75 Y35.841 Z-17.519
Y95.453 Z-17.998
X24.676 Y95.887 Z-18.002
X24.552 Y96.107 Z-18.004
X24.364 Y96.266 Z-18.006
X24.123 Y96.355 Z-18.008
X23.87 Y96.354 Z-18.01
X23.637 Y96.267 Z-18.012
X23.45 Y96.109 Z-18.014
X23.324 Y95.887 Z-18.016
X23.25 Y95.453 Z-18.019
Y35.841 Z-18.498
X23.288 Y35.623 Z-18.5
X23.326 Y35.399
X23.362 Y35.337
X23.454 Y35.183
X23.648 Y35.022
X23.864 Y34.944
X24.136
X24.352 Y35.022
X24.546 Y35.183
X24.638 Y35.337
X24.674 Y35.399
X24.75 Y35.841
Y95.453
X24.676 Y95.887
X24.552 Y96.107
X24.364 Y96.266
X24.123 Y96.355
X23.87 Y96.354
X23.637 Y96.267
X23.45 Y96.109
X23.324 Y95.887
X23.25 Y95.453
Y35.841
X23.288 Y35.623
G17 G3 X23.317 Y35.536 Z-18.485 I0.296 J0.051
X23.365 Y35.468 Z-18.443 I0.266 J0.138
X23.416 Y35.425 Z-18.376 I0.218 J0.206
X23.453 Y35.404 Z-18.293 I0.167 J0.249
X23.466 Y35.398 Z-18.2 I0.13 J0.27
G0 Z5
X23.25 Y42.142
G1 Z-17.15 F600
G19 G2 Y41.845 Z-17.45 J-0.3
G1 Y35.841 Z-17.498
X23.326 Y35.399 Z-17.502
X23.362 Y35.337
X23.454 Y35.183 Z-17.504
X23.648 Y35.022 Z-17.506
X23.864 Y34.944 Z-17.508
X24.136 Z-17.51
X24.352 Y35.022 Z-17.512
X24.546 Y35.183 Z-17.514
X24.638 Y35.337 Z-17.515
X24.674 Y35.399 Z-17.516
X24.75 Y35.841 Z-17.519
Y95.453 Z-17.998
X24.676 Y95.887 Z-18.002
X24.552 Y96.107 Z-18.004
X24.364 Y96.266 Z-18.006
X24.123 Y96.355 Z-18.008
X23.87 Y96.354 Z-18.01
X23.637 Y96.267 Z-18.012
X23.45 Y96.109 Z-18.014
X23.324 Y95.887 Z-18.016
X23.25 Y95.453 Z-18.019
Y35.841 Z-18.498
X23.326 Y35.399 Z-18.502
X23.362 Y35.337
X23.454 Y35.183 Z-18.504
X23.648 Y35.022 Z-18.506
X23.864 Y34.944 Z-18.508
X24.136 Z-18.51
X24.352 Y35.022 Z-18.512
X24.546 Y35.183 Z-18.514
X24.638 Y35.337 Z-18.515
X24.674 Y35.399 Z-18.516
X24.75 Y35.841 Z-18.519
Y95.453 Z-18.998
X24.676 Y95.887 Z-19.002
X24.552 Y96.107 Z-19.004
X24.364 Y96.266 Z-19.006
X24.123 Y96.355 Z-19.008
X23.87 Y96.354 Z-19.01
X23.637 Y96.267 Z-19.012
X23.45 Y96.109 Z-19.014
X23.324 Y95.887 Z-19.016
X23.25 Y95.453 Z-19.019
Y35.841 Z-19.498
X23.288 Y35.623 Z-19.5
X23.326 Y35.399
X23.362 Y35.337
X23.454 Y35.183
X23.648 Y35.022
X23.864 Y34.944
X24.136
X24.352 Y35.022
X24.546 Y35.183
X24.638 Y35.337
X24.674 Y35.399
X24.75 Y35.841
Y95.453
X24.676 Y95.887
X24.552 Y96.107
X24.364 Y96.266
X24.123 Y96.355
X23.87 Y96.354
X23.637 Y96.267
X23.45 Y96.109
X23.324 Y95.887
X23.25 Y95.453
Y35.841
X23.288 Y35.623
G17 G3 X23.317 Y35.536 Z-19.485 I0.296 J0.051
X23.365 Y35.468 Z-19.443 I0.266 J0.138
X23.416 Y35.425 Z-19.376 I0.218 J0.206
X23.453 Y35.404 Z-19.293 I0.167 J0.249
X23.466 Y35.398 Z-19.2 I0.13 J0.27
G0 Z5
X25.27 Y123.717
Z1.35
G3 X25.256 Y123.716 Z1.259 I0.092 J-1.422 F600
X25.215 Y123.713 Z1.177 I0.106 J-1.421
X25.152 Y123.705 Z1.111 I0.147 J-1.417
X25.073 Y123.69 Z1.067 I0.21 J-1.409
X24.985 Y123.669 Z1.05 I0.289 J-1.395
X25.739 Y120.921 Z0.894 I0.377 J-1.374
X24.985 Y123.669 Z0.737 I-0.377 J1.374
X25.739 Y120.921 Z0.581 I0.377 J-1.374
X24.985 Y123.669 Z0.425 I-0.377 J1.374
X25.739 Y120.921 Z0.268 I0.377 J-1.374
X24.985 Y123.669 Z0.112 I-0.377 J1.374
X25.739 Y120.921 Z-0.044 I0.377 J-1.374
X24.985 Y123.669 Z-0.201 I-0.377 J1.374
X25.739 Y120.921 Z-0.357 I0.377 J-1.374
X25.362 Y123.72 Z-0.5 I-0.377 J1.374
G1 X22.898
G3 X22.544 Y123.367 J-0.353
X22.898 Y123.013 I0.353
G1 X25.441
G3 X25.715 Y123.288 J0.275
G1 Y123.446
G3 X25.441 Y123.72 I-0.275
G1 X25.362
G2 X23.703 Y124.826 J1.797
G3 X22.044 Y125.932 I-1.659 J-0.691
G1 X20.971 Y125.931
G3 X20.073 Y125.033 J-0.899
G1 Y121.712
G3 X20.983 Y120.802 I0.91
G1 X27.017
G3 X27.927 Y121.712 J0.91
G1 Y125.022
G3 X27.017 Y125.932 I-0.91
G1 X22.044
G2 X20.396 Y127.052 J1.773
G3 X18.727 Y128.142 I-1.606 J-0.636
X17.861 Y127.244 I0.033 J-0.898
G1 Y119.5
G3 X18.771 Y118.59 I0.91
G1 X29.229
G3 X30.139 Y119.5 J0.91
G1 X30.138 Y127.234
G3 X29.228 Y128.144 I-0.91
G1 X18.76 Y128.143
G3 X18.727 Y128.142 J-0.899
G2 X17.268 Y128.961 I-0.059 J1.605
G3 X15.649 Y128.538 I-0.754 J-0.423
G1 Y117.289
G3 X16.559 Y116.379 I0.91
G1 X31.44
G3 X32.351 Y117.289 J0.91
G1 X32.35 Y129.445
G3 X31.44 Y130.355 I-0.91
G1 X16.548 Y130.354
G3 X15.649 Y129.456 J-0.899
G1 Y128.538
G2 X14.543 Y126.879 I-1.797
G3 X13.438 Y125.22 I0.691 J-1.659
G1 Y115.077
G3 X14.348 Y114.167 I0.91
G1 X33.652
G3 X34.562 Y115.077 J0.91
G1 X34.561 Y131.657
G3 X33.651 Y132.567 I-0.91
G1 X14.336 Y132.566
G3 X13.438 Y131.667 J-0.899
G1 Y125.22
G2 X12.332 Y123.562 I-1.797
G3 X11.226 Y121.903 I0.691 J-1.659
G1 Y112.866
G3 X12.136 Y111.955 I0.91
G1 X35.864
G3 X36.774 Y112.866 J0.91
G1 X36.773 Y133.869
G3 X35.863 Y134.779 I-0.91
G1 X12.125 Y134.777
G3 X11.226 Y133.878 J-0.899
G1 Y121.903
G2 X10.113 Y120.234 I-1.809
G3 X9 Y118.564 I0.696 J-1.669
G1 Y109.73
X39
X38.998 Y136.987
X38.996 Y137.001
X38.954 Y137.005
X9.016 Y137.003
X9.004 Y137.001
X9 Y136.956
Y118.564
G3 X9.014 Y118.473 Z-0.485 I0.3
X9.051 Y118.398 Z-0.443 I0.286 J0.091
X9.093 Y118.347 Z-0.376 I0.25 J0.166
X9.126 Y118.32 Z-0.293 I0.207 J0.217
X9.138 Y118.312 Z-0.2 I0.174 J0.244
G0 Z5
X24.145 Y124.987
Z0.85
G3 X24.138 Y124.975 Z0.759 I1.209 J-0.755 F600
X24.117 Y124.94 Z0.677 I1.216 J-0.743
X24.086 Y124.884 Z0.611 I1.237 J-0.708
X24.051 Y124.811 Z0.567 I1.267 J-0.652
X24.017 Y124.727 Z0.55 I1.302 J-0.579
X26.69 Y123.736 Z0.394 I1.336 J-0.496
X24.017 Y124.727 Z0.237 I-1.336 J0.496
X26.69 Y123.736 Z0.081 I1.336 J-0.496
X24.017 Y124.727 Z-0.075 I-1.336 J0.496
X26.69 Y123.736 Z-0.232 I1.336 J-0.496
X24.017 Y124.727 Z-0.388 I-1.336 J0.496
X26.69 Y123.736 Z-0.544 I1.336 J-0.496
X24.017 Y124.727 Z-0.701 I-1.336 J0.496
X26.69 Y123.736 Z-0.857 I1.336 J-0.496
X24.017 Y124.727 Z-1.013 I-1.336 J0.496
X26.69 Y123.736 Z-1.17 I1.336 J-0.496
X24.017 Y124.727 Z-1.326 I-1.336 J0.496
X26.69 Y123.736 Z-1.482 I1.336 J-0.496
X26.778 Y124.232 Z-1.5 I-1.336 J0.496
G1 Y124.284
G3 X26.279 Y124.783 I-0.499
G1 X21.772
G3 Y123.68 J-0.552
G1 X26.279
G3 X26.778 Y124.18 J0.499
G1 Y124.232
G2 X27.339 Y124.923 I0.706
G3 X27.489 Y125.8 I-0.098 J0.468
X27.017 Y125.932 I-0.472 J-0.778
G1 X20.971
G3 X20.072 Y125.033 J-0.899
G1 Y123.442
G3 X20.982 Y122.532 I0.91
G1 X27.017 Y122.531
G3 X27.927 Y123.441 J0.91
G1 Y125.022
G3 X27.489 Y125.8 I-0.91
G2 X26.305 Y127.156 I1.544 J2.543
G3 X24.799 Y128.144 I-1.506 J-0.655
G1 X18.759 Y128.143
G3 X17.861 Y127.244 J-0.899
G1 Y121.231
G3 X18.771 Y120.321 I0.91
G1 X29.229 Y120.32
G3 X30.139 Y121.23 J0.91
G1 Y127.234
G3 X29.228 Y128.144 I-0.91
G1 X24.799
G2 X23.141 Y129.249 J1.797
G3 X21.482 Y130.355 I-1.659 J-0.691
G1 X16.548
G3 X15.649 Y129.456 J-0.899
G1 Y119.02
G3 X16.559 Y118.11 I0.91
G1 X31.441 Y118.108
G3 X32.351 Y119.018 J0.91
G1 X32.35 Y129.445
G3 X31.44 Y130.356 I-0.91
G1 X21.482 Y130.355
G2 X19.823 Y131.461 J1.797
G3 X18.164 Y132.566 I-1.659 J-0.691
G1 X14.336
G3 X13.438 Y131.667 J-0.899
G1 Y116.809
G3 X14.348 Y115.898 I0.91
G1 X33.652 Y115.896
G3 X34.562 Y116.806 J0.91
G1 X34.561 Y131.657
G3 X33.651 Y132.567 I-0.91
G1 X18.164 Y132.566
G2 X16.506 Y133.672 J1.797
G3 X14.847 Y134.778 I-1.659 J-0.691
G1 X12.125 Y134.777
G3 X11.226 Y133.879 J-0.899
G1 Y114.597
G3 X12.136 Y113.687 I0.91
G1 X35.864 Y113.684
G3 X36.774 Y114.594 J0.91
G1 X36.773 Y133.869
G3 X35.863 Y134.779 I-0.91
G1 X14.847 Y134.778
G2 X13.178 Y135.89 J1.808
G3 X11.508 Y137.003 I-1.669 J-0.696
G1 X9.016
X9.004 Y137.001
X9 Y136.956
Y111.462
X39 Y111.458
X38.998 Y136.987
X38.996 Y137.001
X38.954 Y137.005
X11.508 Y137.003
G3 X11.417 Y136.989 Z-1.485 J-0.3
X11.342 Y136.953 Z-1.443 I0.091 J-0.286
X11.291 Y136.91 Z-1.376 I0.166 J-0.25
X11.264 Y136.877 Z-1.293 I0.217 J-0.207
X11.256 Y136.865 Z-1.2 I0.244 J-0.174
G0 Z5
X27.849 Y126.899
Z2
G1 Z-0.15 F600
G3 X27.837 Y126.907 Z-0.241 I-0.755 J-1.208
X27.802 Y126.928 Z-0.323 I-0.743 J-1.216
X27.746 Y126.958 Z-0.389 I-0.708 J-1.237
X27.673 Y126.993 Z-0.433 I-0.652 J-1.267
X27.59 Y127.027 Z-0.45 I-0.579 J-1.302
X26.598 Y124.355 Z-0.606 I-0.496 J-1.336
X27.59 Y127.027 Z-0.763 I0.496 J1.336
X26.598 Y124.355 Z-0.919 I-0.496 J-1.336
X27.59 Y127.027 Z-1.075 I0.496 J1.336
X26.598 Y124.355 Z-1.232 I-0.496 J-1.336
X27.59 Y127.027 Z-1.388 I0.496 J1.336
X26.598 Y124.355 Z-1.544 I-0.496 J-1.336
X27.59 Y127.027 Z-1.701 I0.496 J1.336
X26.598 Y124.355 Z-1.857 I-0.496 J-1.336
X27.59 Y127.027 Z-2.013 I0.496 J1.336
X26.598 Y124.355 Z-2.17 I-0.496 J-1.336
X27.59 Y127.027 Z-2.326 I0.496 J1.336
X26.598 Y124.355 Z-2.482 I-0.496 J-1.336
X27.094 Y124.266 Z-2.5 I0.496 J1.336
G1 X27.256
G3 X27.927 Y124.937 J0.671
G1 Y125.261
G3 X27.256 Y125.932 I-0.671
G1 X20.95 Y125.931
G3 Y124.266 J-0.833
G1 X27.094
G2 X28.525 Y123.414 J-1.627
G3 X30.139 Y123.823 I0.755 J0.409
G1 X30.138 Y127.234
G3 X29.228 Y128.144 I-0.91
G1 X18.76 Y128.143
G3 X17.861 Y127.244 J-0.899
G1 Y122.964
G3 X18.771 Y122.054 I0.91
G1 X29.229
G3 X30.139 Y122.964 J0.91
G1 Y123.823
G2 X31.244 Y125.482 I1.797
G3 X32.35 Y127.141 I-0.691 J1.659
G1 Y129.445
G3 X31.44 Y130.355 I-0.91
G1 X16.548 Y130.354
G3 X15.649 Y129.456 J-0.899
G1 Y120.753
G3 X16.559 Y119.843 I0.91
G1 X31.44
G3 X32.35 Y120.753 J0.91
G1 Y127.141
G2 X33.456 Y128.8 I1.797
G3 X34.561 Y130.459 I-0.691 J1.659
G1 Y131.657
G3 X33.651 Y132.567 I-0.91
G1 X14.336 Y132.566
G3 X13.438 Y131.667 J-0.899
G1 Y118.541
G3 X14.348 Y117.631 I0.91
G1 X33.652
G3 X34.562 Y118.541 J0.91
G1 X34.561 Y130.459
G2 X35.667 Y132.117 I1.797
G3 X36.773 Y133.776 I-0.691 J1.659
G1 Y133.869
G3 X35.863 Y134.779 I-0.91
G1 X12.125 Y134.777
G3 X11.226 Y133.879 J-0.899
G1 Y116.33
G3 X12.136 Y115.419 I0.91
G1 X35.864
G3 X36.774 Y116.33 J0.91
G1 X36.773 Y133.776
G2 X37.662 Y135.299 I1.749
G3 X37.213 Y137.005 I-0.448 J0.794
G1 X9.016 Y137.003
X9.004 Y137.001
X9 Y136.956
Y113.194
X39
X38.998 Y136.987
X38.996 Y137.001
X38.954 Y137.005
X37.213
G3 X37.122 Y136.991 Z-2.485 J-0.3
X37.047 Y136.955 Z-2.443 I0.091 J-0.286
X36.996 Y136.912 Z-2.376 I0.166 J-0.25
X36.969 Y136.879 Z-2.293 I0.217 J-0.207
X36.961 Y136.867 Z-2.2 I0.244 J-0.174
G0 Z5
X28.715 Y127.889
Z-1.15
G3 X28.703 Y127.896 Z-1.241 I-0.755 J-1.208 F600
X28.668 Y127.917 Z-1.323 I-0.743 J-1.216
X28.612 Y127.948 Z-1.389 I-0.708 J-1.237
X28.539 Y127.983 Z-1.433 I-0.652 J-1.267
X28.456 Y128.017 Z-1.45 I-0.579 J-1.302
X27.464 Y125.345 Z-1.606 I-0.496 J-1.336
X28.456 Y128.017 Z-1.763 I0.496 J1.336
X27.464 Y125.345 Z-1.919 I-0.496 J-1.336
X28.456 Y128.017 Z-2.075 I0.496 J1.336
X27.464 Y125.345 Z-2.232 I-0.496 J-1.336
X28.456 Y128.017 Z-2.388 I0.496 J1.336
X27.464 Y125.345 Z-2.544 I-0.496 J-1.336
X28.456 Y128.017 Z-2.701 I0.496 J1.336
X27.464 Y125.345 Z-2.857 I-0.496 J-1.336
X28.456 Y128.017 Z-3.013 I0.496 J1.336
X27.464 Y125.345 Z-3.17 I-0.496 J-1.336
X28.456 Y128.017 Z-3.326 I0.496 J1.336
X27.464 Y125.345 Z-3.482 I-0.496 J-1.336
X27.96 Y125.256 Z-3.5 I0.496 J1.336
G1 X27.999
G3 X28.669 Y125.926 J0.671
G1 Y126.004
G3 X27.999 Y126.674 I-0.671
G1 X20.151
G3 Y125.256 J-0.709
G1 X27.96
G2 X28.849 Y124.472 J-0.896
G3 X30.008 Y124.226 I0.622 J0.078
X30.139 Y124.696 I-0.779 J0.47
G1 X30.138 Y127.234
G3 X29.228 Y128.144 I-0.91
G1 X18.771 Y128.143
G3 X17.861 Y127.233 J-0.91
G1 Y124.697
G3 X18.771 Y123.786 I0.91
G1 X29.229
G3 X30.008 Y124.226 J0.91
G2 X31.363 Y125.411 I2.534 J-1.53
G3 X32.35 Y126.917 I-0.654 J1.505
G1 Y129.445
G3 X31.44 Y130.355 I-0.91
G1 X16.559 Y130.354
G3 X15.649 Y129.444 J-0.91
G1 Y122.485
G3 X16.559 Y121.575 I0.91
G1 X31.44
G3 X32.35 Y122.485 J0.91
G1 Y126.917
G2 X33.456 Y128.575 I1.797
G3 X34.561 Y130.234 I-0.691 J1.659
G1 Y131.657
G3 X33.651 Y132.567 I-0.91
G1 X14.348 Y132.566
G3 X13.438 Y131.656 J-0.91
G1 Y120.273
G3 X14.348 Y119.363 I0.91
G1 X33.652
G3 X34.562 Y120.273 J0.91
G1 X34.561 Y130.234
G2 X35.667 Y131.893 I1.797
G3 X36.773 Y133.552 I-0.691 J1.659
G1 Y133.869
G3 X35.863 Y134.779 I-0.91
G1 X12.136 Y134.777
G3 X11.226 Y133.867 J-0.91
G1 Y118.062
G3 X12.136 Y117.152 I0.91
G1 X35.864
G3 X36.774 Y118.062 J0.91
G1 X36.773 Y133.552
G2 X37.886 Y135.221 I1.809
G3 X38.998 Y136.891 I-0.696 J1.669
G1 Y136.987
X38.996 Y137.001
X38.954 Y137.005
X9.016 Y137.003
X9.004 Y137.001
X9 Y136.956
Y114.926
X39
X38.998 Y136.891
Z-3.2
G0 Z5
X29.581 Y128.152
Z-2.15
G3 X29.569 Y128.159 Z-2.241 I-0.755 J-1.208 F600
X29.534 Y128.18 Z-2.323 I-0.743 J-1.216
X29.478 Y128.21 Z-2.389 I-0.708 J-1.237
X29.405 Y128.245 Z-2.433 I-0.652 J-1.267
X29.322 Y128.279 Z-2.45 I-0.579 J-1.302
X28.33 Y125.607 Z-2.606 I-0.496 J-1.336
X29.322 Y128.279 Z-2.763 I0.496 J1.336
X28.33 Y125.607 Z-2.919 I-0.496 J-1.336
X29.322 Y128.279 Z-3.075 I0.496 J1.336
X28.33 Y125.607 Z-3.232 I-0.496 J-1.336
X29.322 Y128.279 Z-3.388 I0.496 J1.336
X28.33 Y125.607 Z-3.544 I-0.496 J-1.336
X29.322 Y128.279 Z-3.701 I0.496 J1.336
X28.33 Y125.607 Z-3.857 I-0.496 J-1.336
X29.322 Y128.279 Z-4.013 I0.496 J1.336
X28.33 Y125.607 Z-4.17 I-0.496 J-1.336
X29.322 Y128.279 Z-4.326 I0.496 J1.336
X28.33 Y125.607 Z-4.482 I-0.496 J-1.336
X28.826 Y125.518 Z-4.5 I0.496 J1.336
G1 X29.229
G3 X30.139 Y126.429 J0.91
G1 Y127.234
G3 X29.228 Y128.144 I-0.91
G1 X18.771 Y128.143
G3 X17.861 Y127.233 J-0.91
G1 Y126.429
G3 X18.771 Y125.518 I0.91
G1 X28.826
G2 X30.512 Y124.604 J-2.011
G3 X32.35 Y125.149 I0.838 J0.545
G1 Y129.445
G3 X31.44 Y130.355 I-0.91
G1 X16.559 Y130.354
G3 X15.649 Y129.444 J-0.91
G1 Y124.217
G3 X16.559 Y123.307 I0.91
G1 X31.44
G3 X32.35 Y124.217 J0.91
G1 Y125.149
G2 X33.456 Y126.808 I1.797
G3 X34.562 Y128.467 I-0.691 J1.659
G1 X34.561 Y131.657
G3 X33.651 Y132.567 I-0.91
G1 X14.348 Y132.566
G3 X13.438 Y131.656 J-0.91
G1 Y122.005
G3 X14.348 Y121.095 I0.91
G1 X33.652
G3 X34.562 Y122.005 J0.91
G1 Y128.467
G2 X35.667 Y130.125 I1.797
G3 X36.773 Y131.784 I-0.691 J1.659
G1 Y133.869
G3 X35.863 Y134.779 I-0.91
G1 X12.136 Y134.777
G3 X11.226 Y133.867 J-0.91
G1 Y119.794
G3 X12.136 Y118.884 I0.91
G1 X35.864
G3 X36.774 Y119.794 J0.91
G1 X36.773 Y131.784
G2 X37.886 Y133.454 I1.809
G3 X38.999 Y135.123 I-0.696 J1.669
G1 X38.998 Y136.987
X38.996 Y137.001
X38.954 Y137.005
X9.016 Y137.003
X9.004 Y137.001
X9 Y136.956
Y116.658
X39
X38.999 Y135.123
G3 X38.749 Y135.235 I-0.15
G1 X29.021 Y126.601
G3 X29.168 Y126.347 I0.1 J-0.112
X28.259 Y129.047 Z-4.656 I-0.455 J1.35
X29.168 Y126.347 Z-4.813 I0.455 J-1.35
X28.259 Y129.047 Z-4.969 I-0.455 J1.35
X29.168 Y126.347 Z-5.125 I0.455 J-1.35
X28.259 Y129.047 Z-5.282 I-0.455 J1.35
X29.168 Y126.347 Z-5.438 I0.455 J-1.35
X30.139 Y127.697 Z-5.5 I-0.455 J1.35
G1 Y127.773
G3 X29.768 Y128.144 I-0.371
G1 X18.537 Y128.143
G3 Y127.25 J-0.446
G1 X29.768
G3 X30.139 Y127.621 J0.371
G1 Y127.697
G2 X30.993 Y128.9 I1.274
G3 X30.747 Y130.355 I-0.246 J0.707
G1 X16.559 Y130.354
G3 X15.649 Y129.444 J-0.91
G1 Y125.949
G3 X16.559 Y125.039 I0.91
G1 X31.44
G3 X32.35 Y125.949 J0.91
G1 Y129.445
G3 X31.44 Y130.355 I-0.91
G1 X30.747
G2 X29.088 Y131.461 J1.797
G3 X27.43 Y132.567 I-1.659 J-0.691
G1 X14.348 Y132.566
G3 X13.438 Y131.656 J-0.91
G1 Y123.737
G3 X14.348 Y122.827 I0.91
G1 X33.652
G3 X34.562 Y123.737 J0.91
G1 X34.561 Y131.657
G3 X33.651 Y132.567 I-0.91
G1 X27.43
G2 X25.771 Y133.672 J1.797
G3 X24.112 Y134.778 I-1.659 J-0.691
G1 X12.136 Y134.777
G3 X11.226 Y133.867 J-0.91
G1 Y121.526
G3 X12.136 Y120.616 I0.91
G1 X35.864
G3 X36.774 Y121.526 J0.91
G1 X36.773 Y133.869
G3 X35.863 Y134.779 I-0.91
G1 X24.112 Y134.778
G2 X22.443 Y135.891 J1.809
G3 X20.773 Y137.004 I-1.669 J-0.696
G1 X9.016 Y137.003
X9.004 Y137.001
X9 Y136.956
Y118.39
X39
X38.998 Y136.987
X38.996 Y137.001
X38.954 Y137.005
X20.773 Y137.004
G3 X20.666 Y136.749 J-0.15
G1 X30.015 Y127.25
G3 X30.17 Y127.213 I0.107 J0.105
X29.26 Y129.914 Z-5.656 I-0.455 J1.35
X30.17 Y127.213 Z-5.813 I0.455 J-1.35
X29.26 Y129.914 Z-5.969 I-0.455 J1.35
X30.17 Y127.213 Z-6.125 I0.455 J-1.35
X29.26 Y129.914 Z-6.282 I-0.455 J1.35
X30.17 Y127.213 Z-6.438 I0.455 J-1.35
X31.14 Y128.563 Z-6.5 I-0.455 J1.35
G1 Y128.646
G3 X30.64 Y129.145 I-0.499
G1 X17.615 Y129.144
G3 X17.034 Y128.563 J-0.581
X17.615 Y127.981 I0.581
G1 X30.64
G3 X31.14 Y128.481 J0.499
G1 Y128.563
G2 X31.743 Y129.292 I0.742
G3 X31.912 Y130.224 I-0.094 J0.498
X31.44 Y130.355 I-0.472 J-0.778
G1 X16.559 Y130.354
G3 X15.649 Y129.444 J-0.91
G1 Y127.681
G3 X16.559 Y126.771 I0.91
G1 X31.44
G3 X32.35 Y127.681 J0.91
G1 Y129.445
G3 X31.912 Y130.224 I-0.91
G2 X30.727 Y131.58 I1.541 J2.541
G3 X29.222 Y132.567 I-1.506 J-0.655
G1 X14.348 Y132.566
G3 X13.438 Y131.656 J-0.91
G1 Y125.469
G3 X14.348 Y124.559 I0.91
G1 X33.652
G3 X34.562 Y125.469 J0.91
G1 X34.561 Y131.657
G3 X33.651 Y132.567 I-0.91
G1 X29.222
G2 X27.563 Y133.673 J1.797
G3 X25.904 Y134.778 I-1.659 J-0.691
G1 X12.136 Y134.777
G3 X11.226 Y133.867 J-0.91
G1 Y123.258
G3 X12.136 Y122.348 I0.91
G1 X35.864
G3 X36.774 Y123.258 J0.91
G1 X36.773 Y133.869
G3 X35.863 Y134.779 I-0.91
G1 X25.904 Y134.778
G2 X24.235 Y135.891 J1.809
G3 X22.565 Y137.004 I-1.669 J-0.696
G1 X9.016 Y137.003
X9.004 Y137.001
X9 Y136.956
Y120.122
X39
X38.998 Y136.987
X38.996 Y137.001
X38.954 Y137.005
X22.565 Y137.004
G3 X22.46 Y136.747 J-0.15
G1 X31.227 Y128.114
G3 X31.38 Y128.079 I0.105 J0.107
X30.47 Y130.78 Z-6.656 I-0.455 J1.35
X31.38 Y128.079 Z-6.813 I0.455 J-1.35
X30.47 Y130.78 Z-6.969 I-0.455 J1.35
X31.38 Y128.079 Z-7.125 I0.455 J-1.35
X30.47 Y130.78 Z-7.282 I-0.455 J1.35
X31.38 Y128.079 Z-7.438 I0.455 J-1.35
X32.35 Y129.429 Z-7.5 I-0.455 J1.35
G1 Y129.445
G3 X31.44 Y130.355 I-0.91
G1 X16.56 Y130.354
G3 X15.65 Y129.444 J-0.91
G1 Y129.413
G3 X16.56 Y128.503 I0.91
G1 X31.44
G3 X32.35 Y129.413 J0.91
G1 Y129.429
G2 X33.268 Y130.887 I1.617
G3 X32.885 Y132.567 I-0.382 J0.796
G1 X14.348 Y132.566
G3 X13.438 Y131.656 J-0.91
G1 Y127.201
G3 X14.349 Y126.291 I0.91
G1 X33.652
G3 X34.562 Y127.201 J0.91
G1 Y131.657
G3 X33.651 Y132.567 I-0.91
G1 X32.885
G2 X31.227 Y133.673 J1.797
G3 X29.568 Y134.779 I-1.659 J-0.691
G1 X12.136 Y134.777
G3 X11.226 Y133.867 J-0.91
G1 X11.227 Y124.99
G3 X12.137 Y124.08 I0.91
G1 X35.864
G3 X36.774 Y124.99 J0.91
G1 X36.773 Y133.869
G3 X35.863 Y134.779 I-0.91
G1 X29.568
G2 X27.898 Y135.891 J1.809
G3 X26.229 Y137.004 I-1.669 J-0.696
G1 X9.016 Y137.003
X9.004 Y137.001
X9 Y136.956
X9.001 Y121.854
X39
X38.998 Y136.987
X38.996 Y137.001
X38.954 Y137.005
X26.229 Y137.004
G3 X26.126 Y136.745 J-0.15
G1 X33.396 Y129.908
G3 X33.64 Y130.065 I0.103 J0.109
X30.939 Y129.156 Z-7.656 I-1.35 J-0.455
X33.64 Y130.065 Z-7.813 I1.35 J0.455
X30.939 Y129.156 Z-7.969 I-1.35 J-0.455
X33.64 Y130.065 Z-8.125 I1.35 J0.455
X30.939 Y129.156 Z-8.282 I-1.35 J-0.455
X33.64 Y130.065 Z-8.438 I1.35 J0.455
X32.29 Y131.035 Z-8.5 I-1.35 J-0.455
G1 X15.804 Y131.034
G3 X15.805 Y129.555 J-0.74
G1 X32.36
G3 X33.03 Y130.226 J0.671
G1 Y130.365
G3 X32.359 Y131.035 I-0.671
G1 X32.29
G2 X31.141 Y131.801 J1.245
G3 X29.992 Y132.567 I-1.149 J-0.479
G1 X14.348 Y132.566
G3 X13.438 Y131.656 J-0.91
G1 Y128.934
G3 X14.348 Y128.023 I0.91
G1 X33.652
G3 X34.562 Y128.933 J0.91
G1 Y131.657
G3 X33.651 Y132.567 I-0.91
G1 X29.992
G2 X28.333 Y133.673 J1.797
G3 X26.675 Y134.778 I-1.659 J-0.691
G1 X12.136 Y134.777
G3 X11.226 Y133.867 J-0.91
G1 Y126.722
G3 X12.136 Y125.812 I0.91
G1 X35.864
G3 X36.774 Y126.722 J0.91
G1 X36.773 Y133.869
G3 X35.863 Y134.779 I-0.91
G1 X26.675 Y134.778
G2 X25.005 Y135.891 J1.808
G3 X23.336 Y137.004 I-1.669 J-0.696
G1 X9.016 Y137.003
X9.004 Y137.001
X9 Y136.956
Y123.586
X39
X38.998 Y136.987
X38.996 Y137.001
X38.954 Y137.005
X23.336 Y137.004
G3 X23.271 Y136.719 J-0.15
G1 X34.299 Y131.414
G3 X34.506 Y131.597 I0.065 J0.135
X31.805 Y130.687 Z-8.656 I-1.35 J-0.455
X34.506 Y131.597 Z-8.813 I1.35 J0.455
X31.805 Y130.687 Z-8.969 I-1.35 J-0.455
X34.506 Y131.597 Z-9.125 I1.35 J0.455
X31.805 Y130.687 Z-9.282 I-1.35 J-0.455
X34.506 Y131.597 Z-9.438 I1.35 J0.455
X33.156 Y132.567 Z-9.5 I-1.35 J-0.455
G1 X14.349 Y132.566
G3 X13.439 Y131.656 J-0.91
G1 Y130.666
G3 X14.35 Y129.755 I0.91
G1 X33.652
G3 X34.562 Y130.665 J0.91
G1 Y131.657
G3 X33.651 Y132.567 I-0.91
G1 X33.156
G2 X31.497 Y133.673 J1.797
G3 X29.838 Y134.779 I-1.659 J-0.691
G1 X12.137 Y134.777
G3 X11.227 Y133.867 J-0.91
G1 X11.228 Y128.454
G3 X12.139 Y127.544 I0.91
G1 X35.864
G3 X36.774 Y128.454 J0.91
G1 X36.773 Y133.869
G3 X35.863 Y134.779 I-0.91
G1 X29.838
G2 X28.169 Y135.891 J1.808
G3 X26.499 Y137.004 I-1.669 J-0.696
G1 X9.016 Y137.003
X9.004 Y137.001
X9 Y136.956
X9.003 Y125.318
X39
X38.998 Y136.987
X38.996 Y137.001
X38.954 Y137.005
X26.499 Y137.004
G3 X26.415 Y136.73 J-0.15
G1 X32.613 Y132.534
G2 X32.671 Y132.458 I-0.084 J-0.124
G3 X35.372 Y133.367 Z-9.656 I1.351 J0.455
X32.671 Y132.458 Z-9.813 I-1.351 J-0.455
X35.372 Y133.367 Z-9.969 I1.351 J0.455
X32.671 Y132.458 Z-10.125 I-1.351 J-0.455
X35.372 Y133.367 Z-10.282 I1.351 J0.455
X32.671 Y132.458 Z-10.438 I-1.351 J-0.455
X34.022 Y131.487 Z-10.5 I1.351 J0.455
G1 X34.062
G3 X34.562 Y131.987 J0.499
G1 Y132.068
G3 X34.062 Y132.567 I-0.499
G1 X14.17 Y132.566
G3 X13.631 Y132.027 J-0.539
X14.17 Y131.487 I0.539
G1 X34.022
G2 X35.367 Y130.843 J-1.725
G3 X36.773 Y131.338 I0.616 J0.495
G1 Y133.869
G3 X35.863 Y134.779 I-0.91
G1 X12.136 Y134.777
G3 X11.226 Y133.867 J-0.91
G1 Y130.186
G3 X12.136 Y129.276 I0.91
G1 X35.864
G3 X36.774 Y130.186 J0.91
G1 X36.773 Y131.338
G2 X37.886 Y133.007 I1.808
G3 X38.999 Y134.677 I-0.696 J1.669
G1 X38.998 Y136.987
X38.996 Y137.001
X38.954 Y137.005
X9.016 Y137.003
X9.004 Y137.001
X9 Y136.956
Y127.045
X9.489 Y127.05
X9.498
X39
X38.999 Y134.677
G3 X38.742 Y134.782 I-0.15
G1 X36.488 Y132.479
G2 X36.238 Y132.536 I-0.107 J0.105
G3 X33.537 Y131.626 Z-10.656 I-1.35 J-0.455
X36.238 Y132.536 Z-10.813 I1.35 J0.455
X33.537 Y131.626 Z-10.969 I-1.35 J-0.455
X36.238 Y132.536 Z-11.125 I1.35 J0.455
X33.537 Y131.626 Z-11.282 I-1.35 J-0.455
X36.238 Y132.536 Z-11.438 I1.35 J0.455
X34.888 Y133.506 Z-11.5 I-1.35 J-0.455
G1 X13.271 Y133.505
G3 Y132.281 J-0.612
G1 X35.001
G3 X35.5 Y132.78 J0.499
G1 Y133.007
G3 X35.001 Y133.506 I-0.499
G1 X34.888
G2 X33.933 Y134.142 J1.034
G3 X32.978 Y134.779 I-0.955 J-0.398
G1 X12.125 Y134.777
G3 X11.226 Y133.879 J-0.899
G1 Y131.918
G3 X12.136 Y131.008 I0.91
G1 X35.864
G3 X36.773 Y131.918 J0.91
G1 Y133.869
G3 X35.863 Y134.779 I-0.91
G1 X32.978
G2 X31.309 Y135.892 J1.808
G3 X29.64 Y137.004 I-1.669 J-0.696
G1 X9.016 Y137.003
X9.004 Y137.001
X9 Y136.956
Y128.782
X39
X38.998 Y136.987
X38.996 Y137.001
X38.954 Y137.005
X29.64 Y137.004
G3 X29.581 Y136.716 J-0.15
G1 X36.904 Y133.623
G3 X37.104 Y133.809 I0.058 J0.138
X34.403 Y132.899 Z-11.656 I-1.35 J-0.455
X37.104 Y133.809 Z-11.813 I1.35 J0.455
X34.403 Y132.899 Z-11.969 I-1.35 J-0.455
X37.104 Y133.809 Z-12.125 I1.35 J0.455
X34.403 Y132.899 Z-12.282 I-1.35 J-0.455
X37.104 Y133.809 Z-12.438 I1.35 J0.455
X35.754 Y134.779 Z-12.5 I-1.35 J-0.455
G1 X12.136 Y134.777
G3 X11.226 Y133.867 J-0.91
G1 Y133.65
G3 X12.136 Y132.74 I0.91
G1 X35.863
G3 X36.773 Y133.65 J0.91
G1 Y133.869
G3 X35.863 Y134.779 I-0.91
G1 X35.754
G2 X34.084 Y135.892 J1.808
G3 X32.415 Y137.005 I-1.669 J-0.696
G1 X9.016 Y137.003
X9.004 Y137.001
X9 Y136.956
Y130.514
X39
X38.998 Y136.987
X38.996 Y137.001
X38.954 Y137.005
X32.415
G3 X32.352 Y136.718 J-0.15
G1 X37.766 Y134.242
G3 X37.97 Y134.426 I0.062 J0.136
X35.269 Y133.517 Z-12.656 I-1.35 J-0.455
X37.97 Y134.426 Z-12.813 I1.35 J0.455
X35.269 Y133.517 Z-12.969 I-1.35 J-0.455
X37.97 Y134.426 Z-13.125 I1.35 J0.455
X35.269 Y133.517 Z-13.282 I-1.35 J-0.455
X37.97 Y134.426 Z-13.438 I1.35 J0.455
X36.62 Y135.396 Z-13.5 I-1.35 J-0.455
G1 X11.458 Y135.395
G3 Y133.855 J-0.77
G1 X36.72
G3 X37.391 Y134.525 J0.671
G1 Y134.726
G3 X36.72 Y135.396 I-0.671
G1 X36.62
G2 X35.413 Y136.201 J1.307
G3 X34.207 Y137.005 I-1.206 J-0.503
G1 X9.016 Y137.003
X9.004 Y137.001
X9 Y136.956
Y132.246
X39
X38.998 Y136.987
X38.996 Y137.001
X38.954 Y137.005
X34.207
G3 X34.178 Y136.707 J-0.15
G1 X38.666 Y135.839
G3 X38.836 Y136.034 I0.028 J0.147
X36.135 Y135.125 Z-13.656 I-1.351 J-0.455
X38.836 Y136.034 Z-13.813 I1.351 J0.455
X36.135 Y135.125 Z-13.969 I-1.351 J-0.455
X38.836 Y136.034 Z-14.125 I1.351 J0.455
X36.135 Y135.125 Z-14.282 I-1.351 J-0.455
X38.836 Y136.034 Z-14.438 I1.351 J0.455
X37.486 Y137.005 Z-14.5 I-1.351 J-0.455
Y135.006 J-0.999
G1 X37.6
G3 X37.971 Y135.377 J0.371
G1 Y135.606
G3 X37.6 Y135.977 I-0.371
G1 X10.728 Y135.975
G3 X10.244 Y135.491 J-0.484
X10.728 Y135.006 I0.484
G1 X37.486
G2 X38.195 Y134.579 J-0.802
G3 X38.999 Y134.778 I0.377 J0.199
G1 X38.998 Y136.987
X38.996 Y137.001
X38.954 Y137.005
X9.016 Y137.003
X9.004 Y137.001
X9 Y136.956
Y133.978
X38.999
Y134.778
G3 X38.985 Y134.869 Z-14.485 I-0.3
X38.949 Y134.944 Z-14.443 I-0.286 J-0.091
X38.906 Y134.995 Z-14.376 I-0.25 J-0.166
X38.873 Y135.022 Z-14.293 I-0.207 J-0.217
X38.861 Y135.03 Z-14.2 I-0.174 J-0.244
G0 Z5
X37.796 Y135.71
G1 Z-13.15 F600
G18 G2 X38.091 Z-13.45 I0.3
G1 X38.999 Z-13.465
X38.998 Y136.987 Z-13.485
X38.996 Y137.001
X38.954 Y137.005 Z-13.486
X9.016 Y137.003 Z-13.964
X9.004 Y137.001
X9 Y136.956 Z-13.965
Y135.71 Z-13.985
X38.999 Z-14.465
X38.998 Y136.987 Z-14.485
X38.996 Y137.001
X38.954 Y137.005 Z-14.486
X9.016 Y137.003 Z-14.964
X9.004 Y137.001
X9 Y136.956 Z-14.965
Y135.71 Z-14.985
X38.999 Z-15.465
X38.998 Y136.987 Z-15.485
X38.996 Y137.001
X38.954 Y137.005 Z-15.486
X38.066 Z-15.5
X9.016 Y137.003
X9.004 Y137.001
X9 Y136.956
Y135.71
X38.999
X38.998 Y136.987
X38.996 Y137.001
X38.954 Y137.005
X38.066
G17 G3 X37.975 Y136.991 Z-15.485 J-0.3
X37.9 Y136.955 Z-15.443 I0.091 J-0.286
X37.849 Y136.912 Z-15.376 I0.166 J-0.25
X37.822 Y136.879 Z-15.293 I0.217 J-0.207
X37.814 Y136.867 Z-15.2 I0.244 J-0.174
G0 Z15
M9
G28 G91 Z0
G28 X0 Y0
M30
%
