%
(1)
(T1  D=3 CR=0 - ZMIN=-20 - flat end mill)
G90 G94
G17
G21
G28 G91 Z0
G90

(2D Pocket3)
M9
T1 M6
S17507 M3
G54
M8
G0 X-3.156 Y35.169
Z15
Z5
G1 Z-0.45 F400
X-3.148 Y35.171 Z-0.517
X-3.127 Y35.177 Z-0.58
X-3.093 Y35.187 Z-0.637
X-3.047 Y35.199 Z-0.685
X-2.992 Y35.214 Z-0.72
X-2.931 Y35.231 Z-0.742
X-2.866 Y35.249 Z-0.75
X-1.387 Y35.655
G2 X-0.301 Y35.882 I2.401 J-8.747
G3 X0.023 Y36.257 I-0.055 J0.374
G1 X-0.022 Y137.005
G2 X0.301 Y139.399 I9.022
X0.494 Y139.546 I0.193 J-0.053
G1 X47.506 Y139.549
G2 X47.698 Y139.402 J-0.2
X48.022 Y137.005 I-8.698 J-2.397
G1 X47.977 Y36.261
G3 X48.301 Y35.887 I0.378
G2 X49.387 Y35.659 I-1.314 J-8.975
G1 X49.399 Y35.656
X49.463 Y35.638 Z-0.742
X49.524 Y35.622 Z-0.72
X49.579 Y35.607 Z-0.685
X49.625 Y35.594 Z-0.637
X49.659 Y35.585 Z-0.58
X49.681 Y35.579 Z-0.517
X49.688 Y35.577 Z-0.45
G0 Z5
X-3.155 Y32.573
G1 Z-0.45 F400
X-3.148 Y32.575 Z-0.517
X-3.127 Y32.583 Z-0.58
X-3.094 Y32.596 Z-0.637
X-3.05 Y32.613 Z-0.685
X-2.996 Y32.633 Z-0.72
X-2.937 Y32.656 Z-0.742
X-2.875 Y32.68 Z-0.75
X-1.397 Y33.244
G2 X1 Y33.684 I2.384 J-6.244
X1.515 Y33.668 J-8.242
G3 X2.029 Y33.651 I0.515 J8.225
X2.349 Y33.971 J0.319
G1 X2.304 Y137.005
G2 X2.743 Y139.392 I6.697
X2.93 Y139.52 I0.187 J-0.071
G1 X45.07 Y139.521
G2 X45.257 Y139.393 J-0.2
X45.697 Y137.005 I-6.257 J-2.388
G1 X45.652 Y33.975
G3 X45.971 Y33.656 I0.319
X46.486 Y33.672 J8.238
G2 X47 Y33.688 I0.514 J-8.222
X49.387 Y33.249 J-6.697
G1 X49.397 Y33.244
X49.46 Y33.221 Z-0.742
X49.519 Y33.198 Z-0.72
X49.572 Y33.178 Z-0.685
X49.617 Y33.161 Z-0.637
X49.65 Y33.148 Z-0.58
X49.671 Y33.14 Z-0.517
X49.678 Y33.138 Z-0.45
G0 Z5
X-3.151 Y29.399
G1 Z-0.45 F400
X-3.145 Y29.403 Z-0.517
X-3.126 Y29.416 Z-0.58
X-3.097 Y29.435 Z-0.637
X-3.057 Y29.462 Z-0.685
X-3.01 Y29.493 Z-0.72
X-2.957 Y29.529 Z-0.742
X-2.902 Y29.566 Z-0.75
X-1.387 Y30.576
G2 X1 Y31.3 I2.387 J-3.577
G1 X4
G3 X4.7 Y32 J0.7
G1 Y137.005
G2 X5.429 Y139.401 I4.3
X5.596 Y139.489 I0.166 J-0.111
G1 X42.411 Y139.481
G2 X42.577 Y139.392 J-0.2
X43.3 Y137.005 I-3.577 J-2.387
G1 Y32.005
G3 X44 Y31.305 I0.7
G1 X47
G2 X49.396 Y30.575 J-4.3
X49.735 Y27.313 I-1.189 J-1.773
G3 X48.5 Y24.274 I3.119 J-3.039
G1 Y4.006
G2 X44 Y-0.5 I-4.5 J-0.006
G1 X4
G2 X3.945 I-0.027 J4.5
X-0.5 Y4 I0.055 J4.5
G1 Y27
G2 X1 Y28.5 I1.5
G1 X4
G3 X7.5 Y32 I0.001 J3.5
G1 Y106.364
Y137.005
G2 X9 Y138.505 I1.5
G1 X39
G2 X40.5 Y137.005 J-1.5
G1 Y32.005
G3 X44 Y28.504 I3.5
G1 X47
G2 X48.5 Y27.004 J-1.5
G1 Y24.274
G3 X48.557 Y24.098 I0.3
G1 X49.439 Y22.884
X49.478 Y22.83 Z-0.742
X49.515 Y22.779 Z-0.72
X49.549 Y22.733 Z-0.685
X49.577 Y22.695 Z-0.637
X49.598 Y22.666 Z-0.58
X49.611 Y22.648 Z-0.517
X49.615 Y22.642 Z-0.45
G0 Z5
X-3.156 Y35.169
G1 Z-1.2 F400
X-3.148 Y35.171 Z-1.267
X-3.127 Y35.177 Z-1.33
X-3.093 Y35.187 Z-1.387
X-3.047 Y35.199 Z-1.435
X-2.992 Y35.214 Z-1.47
X-2.931 Y35.231 Z-1.492
X-2.866 Y35.249 Z-1.5
X-1.387 Y35.655
G2 X-0.301 Y35.882 I2.401 J-8.747
G3 X0.023 Y36.257 I-0.055 J0.374
G1 X-0.022 Y137.005
G2 X0.301 Y139.399 I9.022
X0.494 Y139.546 I0.193 J-0.053
G1 X47.506 Y139.549
G2 X47.698 Y139.402 J-0.2
X48.022 Y137.005 I-8.698 J-2.397
G1 X47.977 Y36.261
G3 X48.301 Y35.887 I0.378
G2 X49.387 Y35.659 I-1.314 J-8.975
G1 X49.399 Y35.656
X49.463 Y35.638 Z-1.492
X49.524 Y35.622 Z-1.47
X49.579 Y35.607 Z-1.435
X49.625 Y35.594 Z-1.387
X49.659 Y35.585 Z-1.33
X49.681 Y35.579 Z-1.267
X49.688 Y35.577 Z-1.2
G0 Z5
X-3.155 Y32.573
G1 Z-1.2 F400
X-3.148 Y32.575 Z-1.267
X-3.127 Y32.583 Z-1.33
X-3.094 Y32.596 Z-1.387
X-3.05 Y32.613 Z-1.435
X-2.996 Y32.633 Z-1.47
X-2.937 Y32.656 Z-1.492
X-2.875 Y32.68 Z-1.5
X-1.397 Y33.244
G2 X1 Y33.684 I2.384 J-6.244
X1.515 Y33.668 J-8.242
G3 X2.029 Y33.651 I0.515 J8.225
X2.349 Y33.971 J0.319
G1 X2.304 Y137.005
G2 X2.743 Y139.392 I6.697
X2.93 Y139.52 I0.187 J-0.071
G1 X45.07 Y139.521
G2 X45.257 Y139.393 J-0.2
X45.697 Y137.005 I-6.257 J-2.388
G1 X45.652 Y33.975
G3 X45.971 Y33.656 I0.319
X46.486 Y33.672 J8.238
G2 X47 Y33.688 I0.514 J-8.222
X49.387 Y33.249 J-6.697
G1 X49.397 Y33.244
X49.46 Y33.221 Z-1.492
X49.519 Y33.198 Z-1.47
X49.572 Y33.178 Z-1.435
X49.617 Y33.161 Z-1.387
X49.65 Y33.148 Z-1.33
X49.671 Y33.14 Z-1.267
X49.678 Y33.138 Z-1.2
G0 Z5
X-3.151 Y29.399
G1 Z-1.2 F400
X-3.145 Y29.403 Z-1.267
X-3.126 Y29.416 Z-1.33
X-3.097 Y29.435 Z-1.387
X-3.057 Y29.462 Z-1.435
X-3.01 Y29.493 Z-1.47
X-2.957 Y29.529 Z-1.492
X-2.902 Y29.566 Z-1.5
X-1.387 Y30.576
G2 X1 Y31.3 I2.387 J-3.577
G1 X4
G3 X4.7 Y32 J0.7
G1 Y137.005
G2 X5.429 Y139.401 I4.3
X5.596 Y139.489 I0.166 J-0.111
G1 X42.411 Y139.481
G2 X42.577 Y139.392 J-0.2
X43.3 Y137.005 I-3.577 J-2.387
G1 Y32.005
G3 X44 Y31.305 I0.7
G1 X47
G2 X49.396 Y30.575 J-4.3
X49.735 Y27.313 I-1.189 J-1.773
G3 X48.5 Y24.274 I3.119 J-3.039
G1 Y4.006
G2 X44 Y-0.5 I-4.5 J-0.006
G1 X4
G2 X3.945 I-0.027 J4.5
X-0.5 Y4 I0.055 J4.5
G1 Y27
G2 X1 Y28.5 I1.5
G1 X4
G3 X7.5 Y32 I0.001 J3.5
G1 Y106.364
Y137.005
G2 X9 Y138.505 I1.5
G1 X39
G2 X40.5 Y137.005 J-1.5
G1 Y32.005
G3 X44 Y28.504 I3.5
G1 X47
G2 X48.5 Y27.004 J-1.5
G1 Y24.274
G3 X48.557 Y24.098 I0.3
G1 X49.439 Y22.884
X49.478 Y22.83 Z-1.492
X49.515 Y22.779 Z-1.47
X49.549 Y22.733 Z-1.435
X49.577 Y22.695 Z-1.387
X49.598 Y22.666 Z-1.33
X49.611 Y22.648 Z-1.267
X49.615 Y22.642 Z-1.2
G0 Z5
X-3.156 Y35.169
G1 Z-1.95 F400
X-3.148 Y35.171 Z-2.017
X-3.127 Y35.177 Z-2.08
X-3.093 Y35.187 Z-2.137
X-3.047 Y35.199 Z-2.185
X-2.992 Y35.214 Z-2.22
X-2.931 Y35.231 Z-2.242
X-2.866 Y35.249 Z-2.25
X-1.387 Y35.655
G2 X-0.301 Y35.882 I2.401 J-8.747
G3 X0.023 Y36.257 I-0.055 J0.374
G1 X-0.022 Y137.005
G2 X0.301 Y139.399 I9.022
X0.494 Y139.546 I0.193 J-0.053
G1 X47.506 Y139.549
G2 X47.698 Y139.402 J-0.2
X48.022 Y137.005 I-8.698 J-2.397
G1 X47.977 Y36.261
G3 X48.301 Y35.887 I0.378
G2 X49.387 Y35.659 I-1.314 J-8.975
G1 X49.399 Y35.656
X49.463 Y35.638 Z-2.242
X49.524 Y35.622 Z-2.22
X49.579 Y35.607 Z-2.185
X49.625 Y35.594 Z-2.137
X49.659 Y35.585 Z-2.08
X49.681 Y35.579 Z-2.017
X49.688 Y35.577 Z-1.95
G0 Z5
X-3.155 Y32.573
G1 Z-1.95 F400
X-3.148 Y32.575 Z-2.017
X-3.127 Y32.583 Z-2.08
X-3.094 Y32.596 Z-2.137
X-3.05 Y32.613 Z-2.185
X-2.996 Y32.633 Z-2.22
X-2.937 Y32.656 Z-2.242
X-2.875 Y32.68 Z-2.25
X-1.397 Y33.244
G2 X1 Y33.684 I2.384 J-6.244
X1.515 Y33.668 J-8.242
G3 X2.029 Y33.651 I0.515 J8.225
X2.349 Y33.971 J0.319
G1 X2.304 Y137.005
G2 X2.743 Y139.392 I6.697
X2.93 Y139.52 I0.187 J-0.071
G1 X45.07 Y139.521
G2 X45.257 Y139.393 J-0.2
X45.697 Y137.005 I-6.257 J-2.388
G1 X45.652 Y33.975
G3 X45.971 Y33.656 I0.319
X46.486 Y33.672 J8.238
G2 X47 Y33.688 I0.514 J-8.222
X49.387 Y33.249 J-6.697
G1 X49.397 Y33.244
X49.46 Y33.221 Z-2.242
X49.519 Y33.198 Z-2.22
X49.572 Y33.178 Z-2.185
X49.617 Y33.161 Z-2.137
X49.65 Y33.148 Z-2.08
X49.671 Y33.14 Z-2.017
X49.678 Y33.138 Z-1.95
G0 Z5
X-3.151 Y29.399
G1 Z-1.95 F400
X-3.145 Y29.403 Z-2.017
X-3.126 Y29.416 Z-2.08
X-3.097 Y29.435 Z-2.137
X-3.057 Y29.462 Z-2.185
X-3.01 Y29.493 Z-2.22
X-2.957 Y29.529 Z-2.242
X-2.902 Y29.566 Z-2.25
X-1.387 Y30.576
G2 X1 Y31.3 I2.387 J-3.577
G1 X4
G3 X4.7 Y32 J0.7
G1 Y137.005
G2 X5.429 Y139.401 I4.3
X5.596 Y139.489 I0.166 J-0.111
G1 X42.411 Y139.481
G2 X42.577 Y139.392 J-0.2
X43.3 Y137.005 I-3.577 J-2.387
G1 Y32.005
G3 X44 Y31.305 I0.7
G1 X47
G2 X49.396 Y30.575 J-4.3
X49.735 Y27.313 I-1.189 J-1.773
G3 X48.5 Y24.274 I3.119 J-3.039
G1 Y4.006
G2 X44 Y-0.5 I-4.5 J-0.006
G1 X4
G2 X3.945 I-0.027 J4.5
X-0.5 Y4 I0.055 J4.5
G1 Y27
G2 X1 Y28.5 I1.5
G1 X4
G3 X7.5 Y32 I0.001 J3.5
G1 Y106.364
Y137.005
G2 X9 Y138.505 I1.5
G1 X39
G2 X40.5 Y137.005 J-1.5
G1 Y32.005
G3 X44 Y28.504 I3.5
G1 X47
G2 X48.5 Y27.004 J-1.5
G1 Y24.274
G3 X48.557 Y24.098 I0.3
G1 X49.439 Y22.884
X49.478 Y22.83 Z-2.242
X49.515 Y22.779 Z-2.22
X49.549 Y22.733 Z-2.185
X49.577 Y22.695 Z-2.137
X49.598 Y22.666 Z-2.08
X49.611 Y22.648 Z-2.017
X49.615 Y22.642 Z-1.95
G0 Z5
X-3.156 Y35.169
G1 Z-2.7 F400
X-3.148 Y35.171 Z-2.767
X-3.127 Y35.177 Z-2.83
X-3.093 Y35.187 Z-2.887
X-3.047 Y35.199 Z-2.935
X-2.992 Y35.214 Z-2.97
X-2.931 Y35.231 Z-2.992
X-2.866 Y35.249 Z-3
X-1.387 Y35.655
G2 X-0.301 Y35.882 I2.401 J-8.747
G3 X0.023 Y36.257 I-0.055 J0.374
G1 X-0.022 Y137.005
G2 X0.301 Y139.399 I9.022
X0.494 Y139.546 I0.193 J-0.053
G1 X47.506 Y139.549
G2 X47.698 Y139.402 J-0.2
X48.022 Y137.005 I-8.698 J-2.397
G1 X47.977 Y36.261
G3 X48.301 Y35.887 I0.378
G2 X49.387 Y35.659 I-1.314 J-8.975
G1 X49.399 Y35.656
X49.463 Y35.638 Z-2.992
X49.524 Y35.622 Z-2.97
X49.579 Y35.607 Z-2.935
X49.625 Y35.594 Z-2.887
X49.659 Y35.585 Z-2.83
X49.681 Y35.579 Z-2.767
X49.688 Y35.577 Z-2.7
G0 Z5
X-3.155 Y32.573
G1 Z-2.7 F400
X-3.148 Y32.575 Z-2.767
X-3.127 Y32.583 Z-2.83
X-3.094 Y32.596 Z-2.887
X-3.05 Y32.613 Z-2.935
X-2.996 Y32.633 Z-2.97
X-2.937 Y32.656 Z-2.992
X-2.875 Y32.68 Z-3
X-1.397 Y33.244
G2 X1 Y33.684 I2.384 J-6.244
X1.515 Y33.668 J-8.242
G3 X2.029 Y33.651 I0.515 J8.225
X2.349 Y33.971 J0.319
G1 X2.304 Y137.005
G2 X2.743 Y139.392 I6.697
X2.93 Y139.52 I0.187 J-0.071
G1 X45.07 Y139.521
G2 X45.257 Y139.393 J-0.2
X45.697 Y137.005 I-6.257 J-2.388
G1 X45.652 Y33.975
G3 X45.971 Y33.656 I0.319
X46.486 Y33.672 J8.238
G2 X47 Y33.688 I0.514 J-8.222
X49.387 Y33.249 J-6.697
G1 X49.397 Y33.244
X49.46 Y33.221 Z-2.992
X49.519 Y33.198 Z-2.97
X49.572 Y33.178 Z-2.935
X49.617 Y33.161 Z-2.887
X49.65 Y33.148 Z-2.83
X49.671 Y33.14 Z-2.767
X49.678 Y33.138 Z-2.7
G0 Z5
X-3.151 Y29.399
G1 Z-2.7 F400
X-3.145 Y29.403 Z-2.767
X-3.126 Y29.416 Z-2.83
X-3.097 Y29.435 Z-2.887
X-3.057 Y29.462 Z-2.935
X-3.01 Y29.493 Z-2.97
X-2.957 Y29.529 Z-2.992
X-2.902 Y29.566 Z-3
X-1.387 Y30.576
G2 X1 Y31.3 I2.387 J-3.577
G1 X4
G3 X4.7 Y32 J0.7
G1 Y137.005
G2 X5.429 Y139.401 I4.3
X5.596 Y139.489 I0.166 J-0.111
G1 X42.411 Y139.481
G2 X42.577 Y139.392 J-0.2
X43.3 Y137.005 I-3.577 J-2.387
G1 Y32.005
G3 X44 Y31.305 I0.7
G1 X47
G2 X49.396 Y30.575 J-4.3
X49.735 Y27.313 I-1.189 J-1.773
G3 X48.5 Y24.274 I3.119 J-3.039
G1 Y4.006
G2 X44 Y-0.5 I-4.5 J-0.006
G1 X4
G2 X3.945 I-0.027 J4.5
X-0.5 Y4 I0.055 J4.5
G1 Y27
G2 X1 Y28.5 I1.5
G1 X4
G3 X7.5 Y32 I0.001 J3.5
G1 Y106.364
Y137.005
G2 X9 Y138.505 I1.5
G1 X39
G2 X40.5 Y137.005 J-1.5
G1 Y32.005
G3 X44 Y28.504 I3.5
G1 X47
G2 X48.5 Y27.004 J-1.5
G1 Y24.274
G3 X48.557 Y24.098 I0.3
G1 X49.439 Y22.884
X49.478 Y22.83 Z-2.992
X49.515 Y22.779 Z-2.97
X49.549 Y22.733 Z-2.935
X49.577 Y22.695 Z-2.887
X49.598 Y22.666 Z-2.83
X49.611 Y22.648 Z-2.767
X49.615 Y22.642 Z-2.7
G0 Z5
X-3.156 Y35.169
G1 Z-3.45 F400
X-3.148 Y35.171 Z-3.517
X-3.127 Y35.177 Z-3.58
X-3.093 Y35.187 Z-3.637
X-3.047 Y35.199 Z-3.685
X-2.992 Y35.214 Z-3.72
X-2.931 Y35.231 Z-3.742
X-2.866 Y35.249 Z-3.75
X-1.387 Y35.655
G2 X-0.301 Y35.882 I2.401 J-8.747
G3 X0.023 Y36.257 I-0.055 J0.374
G1 X-0.022 Y137.005
G2 X0.301 Y139.399 I9.022
X0.494 Y139.546 I0.193 J-0.053
G1 X47.506 Y139.549
G2 X47.698 Y139.402 J-0.2
X48.022 Y137.005 I-8.698 J-2.397
G1 X47.977 Y36.261
G3 X48.301 Y35.887 I0.378
G2 X49.387 Y35.659 I-1.314 J-8.975
G1 X49.399 Y35.656
X49.463 Y35.638 Z-3.742
X49.524 Y35.622 Z-3.72
X49.579 Y35.607 Z-3.685
X49.625 Y35.594 Z-3.637
X49.659 Y35.585 Z-3.58
X49.681 Y35.579 Z-3.517
X49.688 Y35.577 Z-3.45
G0 Z5
X-3.155 Y32.573
G1 Z-3.45 F400
X-3.148 Y32.575 Z-3.517
X-3.127 Y32.583 Z-3.58
X-3.094 Y32.596 Z-3.637
X-3.05 Y32.613 Z-3.685
X-2.996 Y32.633 Z-3.72
X-2.937 Y32.656 Z-3.742
X-2.875 Y32.68 Z-3.75
X-1.397 Y33.244
G2 X1 Y33.684 I2.384 J-6.244
X1.515 Y33.668 J-8.242
G3 X2.029 Y33.651 I0.515 J8.225
X2.349 Y33.971 J0.319
G1 X2.304 Y137.005
G2 X2.743 Y139.392 I6.697
X2.93 Y139.52 I0.187 J-0.071
G1 X45.07 Y139.521
G2 X45.257 Y139.393 J-0.2
X45.697 Y137.005 I-6.257 J-2.388
G1 X45.652 Y33.975
G3 X45.971 Y33.656 I0.319
X46.486 Y33.672 J8.238
G2 X47 Y33.688 I0.514 J-8.222
X49.387 Y33.249 J-6.697
G1 X49.397 Y33.244
X49.46 Y33.221 Z-3.742
X49.519 Y33.198 Z-3.72
X49.572 Y33.178 Z-3.685
X49.617 Y33.161 Z-3.637
X49.65 Y33.148 Z-3.58
X49.671 Y33.14 Z-3.517
X49.678 Y33.138 Z-3.45
G0 Z5
X-3.151 Y29.399
G1 Z-3.45 F400
X-3.145 Y29.403 Z-3.517
X-3.126 Y29.416 Z-3.58
X-3.097 Y29.435 Z-3.637
X-3.057 Y29.462 Z-3.685
X-3.01 Y29.493 Z-3.72
X-2.957 Y29.529 Z-3.742
X-2.902 Y29.566 Z-3.75
X-1.387 Y30.576
G2 X1 Y31.3 I2.387 J-3.577
G1 X4
G3 X4.7 Y32 J0.7
G1 Y137.005
G2 X5.429 Y139.401 I4.3
X5.596 Y139.489 I0.166 J-0.111
G1 X42.411 Y139.481
G2 X42.577 Y139.392 J-0.2
X43.3 Y137.005 I-3.577 J-2.387
G1 Y32.005
G3 X44 Y31.305 I0.7
G1 X47
G2 X49.396 Y30.575 J-4.3
X49.735 Y27.313 I-1.189 J-1.773
G3 X48.5 Y24.274 I3.119 J-3.039
G1 Y4.006
G2 X44 Y-0.5 I-4.5 J-0.006
G1 X4
G2 X3.945 I-0.027 J4.5
X-0.5 Y4 I0.055 J4.5
G1 Y27
G2 X1 Y28.5 I1.5
G1 X4
G3 X7.5 Y32 I0.001 J3.5
G1 Y106.364
Y137.005
G2 X9 Y138.505 I1.5
G1 X39
G2 X40.5 Y137.005 J-1.5
G1 Y32.005
G3 X44 Y28.504 I3.5
G1 X47
G2 X48.5 Y27.004 J-1.5
G1 Y24.274
G3 X48.557 Y24.098 I0.3
G1 X49.439 Y22.884
X49.478 Y22.83 Z-3.742
X49.515 Y22.779 Z-3.72
X49.549 Y22.733 Z-3.685
X49.577 Y22.695 Z-3.637
X49.598 Y22.666 Z-3.58
X49.611 Y22.648 Z-3.517
X49.615 Y22.642 Z-3.45
G0 Z5
X-3.156 Y35.169
G1 Z-4.2 F400
X-3.148 Y35.171 Z-4.267
X-3.127 Y35.177 Z-4.33
X-3.093 Y35.187 Z-4.387
X-3.047 Y35.199 Z-4.435
X-2.992 Y35.214 Z-4.47
X-2.931 Y35.231 Z-4.492
X-2.866 Y35.249 Z-4.5
X-1.387 Y35.655
G2 X-0.301 Y35.882 I2.401 J-8.747
G3 X0.023 Y36.257 I-0.055 J0.374
G1 X-0.022 Y137.005
G2 X0.301 Y139.399 I9.022
X0.494 Y139.546 I0.193 J-0.053
G1 X47.506 Y139.549
G2 X47.698 Y139.402 J-0.2
X48.022 Y137.005 I-8.698 J-2.397
G1 X47.977 Y36.261
G3 X48.301 Y35.887 I0.378
G2 X49.387 Y35.659 I-1.314 J-8.975
G1 X49.399 Y35.656
X49.463 Y35.638 Z-4.492
X49.524 Y35.622 Z-4.47
X49.579 Y35.607 Z-4.435
X49.625 Y35.594 Z-4.387
X49.659 Y35.585 Z-4.33
X49.681 Y35.579 Z-4.267
X49.688 Y35.577 Z-4.2
G0 Z5
X-3.155 Y32.573
G1 Z-4.2 F400
X-3.148 Y32.575 Z-4.267
X-3.127 Y32.583 Z-4.33
X-3.094 Y32.596 Z-4.387
X-3.05 Y32.613 Z-4.435
X-2.996 Y32.633 Z-4.47
X-2.937 Y32.656 Z-4.492
X-2.875 Y32.68 Z-4.5
X-1.397 Y33.244
G2 X1 Y33.684 I2.384 J-6.244
X1.515 Y33.668 J-8.242
G3 X2.029 Y33.651 I0.515 J8.225
X2.349 Y33.971 J0.319
G1 X2.304 Y137.005
G2 X2.743 Y139.392 I6.697
X2.93 Y139.52 I0.187 J-0.071
G1 X45.07 Y139.521
G2 X45.257 Y139.393 J-0.2
X45.697 Y137.005 I-6.257 J-2.388
G1 X45.652 Y33.975
G3 X45.971 Y33.656 I0.319
X46.486 Y33.672 J8.238
G2 X47 Y33.688 I0.514 J-8.222
X49.387 Y33.249 J-6.697
G1 X49.397 Y33.244
X49.46 Y33.221 Z-4.492
X49.519 Y33.198 Z-4.47
X49.572 Y33.178 Z-4.435
X49.617 Y33.161 Z-4.387
X49.65 Y33.148 Z-4.33
X49.671 Y33.14 Z-4.267
X49.678 Y33.138 Z-4.2
G0 Z5
X-3.151 Y29.399
G1 Z-4.2 F400
X-3.145 Y29.403 Z-4.267
X-3.126 Y29.416 Z-4.33
X-3.097 Y29.435 Z-4.387
X-3.057 Y29.462 Z-4.435
X-3.01 Y29.493 Z-4.47
X-2.957 Y29.529 Z-4.492
X-2.902 Y29.566 Z-4.5
X-1.387 Y30.576
G2 X1 Y31.3 I2.387 J-3.577
G1 X4
G3 X4.7 Y32 J0.7
G1 Y137.005
G2 X5.429 Y139.401 I4.3
X5.596 Y139.489 I0.166 J-0.111
G1 X42.411 Y139.481
G2 X42.577 Y139.392 J-0.2
X43.3 Y137.005 I-3.577 J-2.387
G1 Y32.005
G3 X44 Y31.305 I0.7
G1 X47
G2 X49.396 Y30.575 J-4.3
X49.735 Y27.313 I-1.189 J-1.773
G3 X48.5 Y24.274 I3.119 J-3.039
G1 Y4.006
G2 X44 Y-0.5 I-4.5 J-0.006
G1 X4
G2 X3.945 I-0.027 J4.5
X-0.5 Y4 I0.055 J4.5
G1 Y27
G2 X1 Y28.5 I1.5
G1 X4
G3 X7.5 Y32 I0.001 J3.5
G1 Y106.364
Y137.005
G2 X9 Y138.505 I1.5
G1 X39
G2 X40.5 Y137.005 J-1.5
G1 Y32.005
G3 X44 Y28.504 I3.5
G1 X47
G2 X48.5 Y27.004 J-1.5
G1 Y24.274
G3 X48.557 Y24.098 I0.3
G1 X49.439 Y22.884
X49.478 Y22.83 Z-4.492
X49.515 Y22.779 Z-4.47
X49.549 Y22.733 Z-4.435
X49.577 Y22.695 Z-4.387
X49.598 Y22.666 Z-4.33
X49.611 Y22.648 Z-4.267
X49.615 Y22.642 Z-4.2
G0 Z5
X-3.156 Y35.169
G1 Z-4.95 F400
X-3.148 Y35.171 Z-5.017
X-3.127 Y35.177 Z-5.08
X-3.093 Y35.187 Z-5.137
X-3.047 Y35.199 Z-5.185
X-2.992 Y35.214 Z-5.22
X-2.931 Y35.231 Z-5.242
X-2.866 Y35.249 Z-5.25
X-1.387 Y35.655
G2 X-0.301 Y35.882 I2.401 J-8.747
G3 X0.023 Y36.257 I-0.055 J0.374
G1 X-0.022 Y137.005
G2 X0.301 Y139.399 I9.022
X0.494 Y139.546 I0.193 J-0.053
G1 X47.506 Y139.549
G2 X47.698 Y139.402 J-0.2
X48.022 Y137.005 I-8.698 J-2.397
G1 X47.977 Y36.261
G3 X48.301 Y35.887 I0.378
G2 X49.387 Y35.659 I-1.314 J-8.975
G1 X49.399 Y35.656
X49.463 Y35.638 Z-5.242
X49.524 Y35.622 Z-5.22
X49.579 Y35.607 Z-5.185
X49.625 Y35.594 Z-5.137
X49.659 Y35.585 Z-5.08
X49.681 Y35.579 Z-5.017
X49.688 Y35.577 Z-4.95
G0 Z5
X-3.155 Y32.573
G1 Z-4.95 F400
X-3.148 Y32.575 Z-5.017
X-3.127 Y32.583 Z-5.08
X-3.094 Y32.596 Z-5.137
X-3.05 Y32.613 Z-5.185
X-2.996 Y32.633 Z-5.22
X-2.937 Y32.656 Z-5.242
X-2.875 Y32.68 Z-5.25
X-1.397 Y33.244
G2 X1 Y33.684 I2.384 J-6.244
X1.515 Y33.668 J-8.242
G3 X2.029 Y33.651 I0.515 J8.225
X2.349 Y33.971 J0.319
G1 X2.304 Y137.005
G2 X2.743 Y139.392 I6.697
X2.93 Y139.52 I0.187 J-0.071
G1 X45.07 Y139.521
G2 X45.257 Y139.393 J-0.2
X45.697 Y137.005 I-6.257 J-2.388
G1 X45.652 Y33.975
G3 X45.971 Y33.656 I0.319
X46.486 Y33.672 J8.238
G2 X47 Y33.688 I0.514 J-8.222
X49.387 Y33.249 J-6.697
G1 X49.397 Y33.244
X49.46 Y33.221 Z-5.242
X49.519 Y33.198 Z-5.22
X49.572 Y33.178 Z-5.185
X49.617 Y33.161 Z-5.137
X49.65 Y33.148 Z-5.08
X49.671 Y33.14 Z-5.017
X49.678 Y33.138 Z-4.95
G0 Z5
X-3.151 Y29.399
G1 Z-4.95 F400
X-3.145 Y29.403 Z-5.017
X-3.126 Y29.416 Z-5.08
X-3.097 Y29.435 Z-5.137
X-3.057 Y29.462 Z-5.185
X-3.01 Y29.493 Z-5.22
X-2.957 Y29.529 Z-5.242
X-2.902 Y29.566 Z-5.25
X-1.387 Y30.576
G2 X1 Y31.3 I2.387 J-3.577
G1 X4
G3 X4.7 Y32 J0.7
G1 Y137.005
G2 X5.429 Y139.401 I4.3
X5.596 Y139.489 I0.166 J-0.111
G1 X42.411 Y139.481
G2 X42.577 Y139.392 J-0.2
X43.3 Y137.005 I-3.577 J-2.387
G1 Y32.005
G3 X44 Y31.305 I0.7
G1 X47
G2 X49.396 Y30.575 J-4.3
X49.735 Y27.313 I-1.189 J-1.773
G3 X48.5 Y24.274 I3.119 J-3.039
G1 Y4.006
G2 X44 Y-0.5 I-4.5 J-0.006
G1 X4
G2 X3.945 I-0.027 J4.5
X-0.5 Y4 I0.055 J4.5
G1 Y27
G2 X1 Y28.5 I1.5
G1 X4
G3 X7.5 Y32 I0.001 J3.5
G1 Y106.364
Y137.005
G2 X9 Y138.505 I1.5
G1 X39
G2 X40.5 Y137.005 J-1.5
G1 Y32.005
G3 X44 Y28.504 I3.5
G1 X47
G2 X48.5 Y27.004 J-1.5
G1 Y24.274
G3 X48.557 Y24.098 I0.3
G1 X49.439 Y22.884
X49.478 Y22.83 Z-5.242
X49.515 Y22.779 Z-5.22
X49.549 Y22.733 Z-5.185
X49.577 Y22.695 Z-5.137
X49.598 Y22.666 Z-5.08
X49.611 Y22.648 Z-5.017
X49.615 Y22.642 Z-4.95
G0 Z5
X-3.156 Y35.169
G1 Z-5.7 F400
X-3.148 Y35.171 Z-5.767
X-3.127 Y35.177 Z-5.83
X-3.093 Y35.187 Z-5.887
X-3.047 Y35.199 Z-5.935
X-2.992 Y35.214 Z-5.97
X-2.931 Y35.231 Z-5.992
X-2.866 Y35.249 Z-6
X-1.387 Y35.655
G2 X-0.301 Y35.882 I2.401 J-8.747
G3 X0.023 Y36.257 I-0.055 J0.374
G1 X-0.022 Y137.005
G2 X0.301 Y139.399 I9.022
X0.494 Y139.546 I0.193 J-0.053
G1 X47.506 Y139.549
G2 X47.698 Y139.402 J-0.2
X48.022 Y137.005 I-8.698 J-2.397
G1 X47.977 Y36.261
G3 X48.301 Y35.887 I0.378
G2 X49.387 Y35.659 I-1.314 J-8.975
G1 X49.399 Y35.656
X49.463 Y35.638 Z-5.992
X49.524 Y35.622 Z-5.97
X49.579 Y35.607 Z-5.935
X49.625 Y35.594 Z-5.887
X49.659 Y35.585 Z-5.83
X49.681 Y35.579 Z-5.767
X49.688 Y35.577 Z-5.7
G0 Z5
X-3.155 Y32.573
G1 Z-5.7 F400
X-3.148 Y32.575 Z-5.767
X-3.127 Y32.583 Z-5.83
X-3.094 Y32.596 Z-5.887
X-3.05 Y32.613 Z-5.935
X-2.996 Y32.633 Z-5.97
X-2.937 Y32.656 Z-5.992
X-2.875 Y32.68 Z-6
X-1.397 Y33.244
G2 X1 Y33.684 I2.384 J-6.244
X1.515 Y33.668 J-8.242
G3 X2.029 Y33.651 I0.515 J8.225
X2.349 Y33.971 J0.319
G1 X2.304 Y137.005
G2 X2.743 Y139.392 I6.697
X2.93 Y139.52 I0.187 J-0.071
G1 X45.07 Y139.521
G2 X45.257 Y139.393 J-0.2
X45.697 Y137.005 I-6.257 J-2.388
G1 X45.652 Y33.975
G3 X45.971 Y33.656 I0.319
X46.486 Y33.672 J8.238
G2 X47 Y33.688 I0.514 J-8.222
X49.387 Y33.249 J-6.697
G1 X49.397 Y33.244
X49.46 Y33.221 Z-5.992
X49.519 Y33.198 Z-5.97
X49.572 Y33.178 Z-5.935
X49.617 Y33.161 Z-5.887
X49.65 Y33.148 Z-5.83
X49.671 Y33.14 Z-5.767
X49.678 Y33.138 Z-5.7
G0 Z5
X-3.151 Y29.399
G1 Z-5.7 F400
X-3.145 Y29.403 Z-5.767
X-3.126 Y29.416 Z-5.83
X-3.097 Y29.435 Z-5.887
X-3.057 Y29.462 Z-5.935
X-3.01 Y29.493 Z-5.97
X-2.957 Y29.529 Z-5.992
X-2.902 Y29.566 Z-6
X-1.387 Y30.576
G2 X1 Y31.3 I2.387 J-3.577
G1 X4
G3 X4.7 Y32 J0.7
G1 Y137.005
G2 X5.429 Y139.401 I4.3
X5.596 Y139.489 I0.166 J-0.111
G1 X42.411 Y139.481
G2 X42.577 Y139.392 J-0.2
X43.3 Y137.005 I-3.577 J-2.387
G1 Y32.005
G3 X44 Y31.305 I0.7
G1 X47
G2 X49.396 Y30.575 J-4.3
X49.735 Y27.313 I-1.189 J-1.773
G3 X48.5 Y24.274 I3.119 J-3.039
G1 Y4.006
G2 X44 Y-0.5 I-4.5 J-0.006
G1 X4
G2 X3.945 I-0.027 J4.5
X-0.5 Y4 I0.055 J4.5
G1 Y27
G2 X1 Y28.5 I1.5
G1 X4
G3 X7.5 Y32 I0.001 J3.5
G1 Y106.364
Y137.005
G2 X9 Y138.505 I1.5
G1 X39
G2 X40.5 Y137.005 J-1.5
G1 Y32.005
G3 X44 Y28.504 I3.5
G1 X47
G2 X48.5 Y27.004 J-1.5
G1 Y24.274
G3 X48.557 Y24.098 I0.3
G1 X49.439 Y22.884
X49.478 Y22.83 Z-5.992
X49.515 Y22.779 Z-5.97
X49.549 Y22.733 Z-5.935
X49.577 Y22.695 Z-5.887
X49.598 Y22.666 Z-5.83
X49.611 Y22.648 Z-5.767
X49.615 Y22.642 Z-5.7
G0 Z5
X-3.156 Y35.169
G1 Z-6.45 F400
X-3.148 Y35.171 Z-6.517
X-3.127 Y35.177 Z-6.58
X-3.093 Y35.187 Z-6.637
X-3.047 Y35.199 Z-6.685
X-2.992 Y35.214 Z-6.72
X-2.931 Y35.231 Z-6.742
X-2.866 Y35.249 Z-6.75
X-1.387 Y35.655
G2 X-0.301 Y35.882 I2.401 J-8.747
G3 X0.023 Y36.257 I-0.055 J0.374
G1 X-0.022 Y137.005
G2 X0.301 Y139.399 I9.022
X0.494 Y139.546 I0.193 J-0.053
G1 X47.506 Y139.549
G2 X47.698 Y139.402 J-0.2
X48.022 Y137.005 I-8.698 J-2.397
G1 X47.977 Y36.261
G3 X48.301 Y35.887 I0.378
G2 X49.387 Y35.659 I-1.314 J-8.975
G1 X49.399 Y35.656
X49.463 Y35.638 Z-6.742
X49.524 Y35.622 Z-6.72
X49.579 Y35.607 Z-6.685
X49.625 Y35.594 Z-6.637
X49.659 Y35.585 Z-6.58
X49.681 Y35.579 Z-6.517
X49.688 Y35.577 Z-6.45
G0 Z5
X-3.155 Y32.573
G1 Z-6.45 F400
X-3.148 Y32.575 Z-6.517
X-3.127 Y32.583 Z-6.58
X-3.094 Y32.596 Z-6.637
X-3.05 Y32.613 Z-6.685
X-2.996 Y32.633 Z-6.72
X-2.937 Y32.656 Z-6.742
X-2.875 Y32.68 Z-6.75
X-1.397 Y33.244
G2 X1 Y33.684 I2.384 J-6.244
X1.515 Y33.668 J-8.242
G3 X2.029 Y33.651 I0.515 J8.225
X2.349 Y33.971 J0.319
G1 X2.304 Y137.005
G2 X2.743 Y139.392 I6.697
X2.93 Y139.52 I0.187 J-0.071
G1 X45.07 Y139.521
G2 X45.257 Y139.393 J-0.2
X45.697 Y137.005 I-6.257 J-2.388
G1 X45.652 Y33.975
G3 X45.971 Y33.656 I0.319
X46.486 Y33.672 J8.238
G2 X47 Y33.688 I0.514 J-8.222
X49.387 Y33.249 J-6.697
G1 X49.397 Y33.244
X49.46 Y33.221 Z-6.742
X49.519 Y33.198 Z-6.72
X49.572 Y33.178 Z-6.685
X49.617 Y33.161 Z-6.637
X49.65 Y33.148 Z-6.58
X49.671 Y33.14 Z-6.517
X49.678 Y33.138 Z-6.45
G0 Z5
X-3.151 Y29.399
G1 Z-6.45 F400
X-3.145 Y29.403 Z-6.517
X-3.126 Y29.416 Z-6.58
X-3.097 Y29.435 Z-6.637
X-3.057 Y29.462 Z-6.685
X-3.01 Y29.493 Z-6.72
X-2.957 Y29.529 Z-6.742
X-2.902 Y29.566 Z-6.75
X-1.387 Y30.576
G2 X1 Y31.3 I2.387 J-3.577
G1 X4
G3 X4.7 Y32 J0.7
G1 Y137.005
G2 X5.429 Y139.401 I4.3
X5.596 Y139.489 I0.166 J-0.111
G1 X42.411 Y139.481
G2 X42.577 Y139.392 J-0.2
X43.3 Y137.005 I-3.577 J-2.387
G1 Y32.005
G3 X44 Y31.305 I0.7
G1 X47
G2 X49.396 Y30.575 J-4.3
X49.735 Y27.313 I-1.189 J-1.773
G3 X48.5 Y24.274 I3.119 J-3.039
G1 Y4.006
G2 X44 Y-0.5 I-4.5 J-0.006
G1 X4
G2 X3.945 I-0.027 J4.5
X-0.5 Y4 I0.055 J4.5
G1 Y27
G2 X1 Y28.5 I1.5
G1 X4
G3 X7.5 Y32 I0.001 J3.5
G1 Y106.364
Y137.005
G2 X9 Y138.505 I1.5
G1 X39
G2 X40.5 Y137.005 J-1.5
G1 Y32.005
G3 X44 Y28.504 I3.5
G1 X47
G2 X48.5 Y27.004 J-1.5
G1 Y24.274
G3 X48.557 Y24.098 I0.3
G1 X49.439 Y22.884
X49.478 Y22.83 Z-6.742
X49.515 Y22.779 Z-6.72
X49.549 Y22.733 Z-6.685
X49.577 Y22.695 Z-6.637
X49.598 Y22.666 Z-6.58
X49.611 Y22.648 Z-6.517
X49.615 Y22.642 Z-6.45
G0 Z5
X-3.156 Y35.169
G1 Z-7.2 F400
X-3.148 Y35.171 Z-7.267
X-3.127 Y35.177 Z-7.33
X-3.093 Y35.187 Z-7.387
X-3.047 Y35.199 Z-7.435
X-2.992 Y35.214 Z-7.47
X-2.931 Y35.231 Z-7.492
X-2.866 Y35.249 Z-7.5
X-1.387 Y35.655
G2 X-0.301 Y35.882 I2.401 J-8.747
G3 X0.023 Y36.257 I-0.055 J0.374
G1 X-0.022 Y137.005
G2 X0.301 Y139.399 I9.022
X0.494 Y139.546 I0.193 J-0.053
G1 X47.506 Y139.549
G2 X47.698 Y139.402 J-0.2
X48.022 Y137.005 I-8.698 J-2.397
G1 X47.977 Y36.261
G3 X48.301 Y35.887 I0.378
G2 X49.387 Y35.659 I-1.314 J-8.975
G1 X49.399 Y35.656
X49.463 Y35.638 Z-7.492
X49.524 Y35.622 Z-7.47
X49.579 Y35.607 Z-7.435
X49.625 Y35.594 Z-7.387
X49.659 Y35.585 Z-7.33
X49.681 Y35.579 Z-7.267
X49.688 Y35.577 Z-7.2
G0 Z5
X-3.155 Y32.573
G1 Z-7.2 F400
X-3.148 Y32.575 Z-7.267
X-3.127 Y32.583 Z-7.33
X-3.094 Y32.596 Z-7.387
X-3.05 Y32.613 Z-7.435
X-2.996 Y32.633 Z-7.47
X-2.937 Y32.656 Z-7.492
X-2.875 Y32.68 Z-7.5
X-1.397 Y33.244
G2 X1 Y33.684 I2.384 J-6.244
X1.515 Y33.668 J-8.242
G3 X2.029 Y33.651 I0.515 J8.225
X2.349 Y33.971 J0.319
G1 X2.304 Y137.005
G2 X2.743 Y139.392 I6.697
X2.93 Y139.52 I0.187 J-0.071
G1 X45.07 Y139.521
G2 X45.257 Y139.393 J-0.2
X45.697 Y137.005 I-6.257 J-2.388
G1 X45.652 Y33.975
G3 X45.971 Y33.656 I0.319
X46.486 Y33.672 J8.238
G2 X47 Y33.688 I0.514 J-8.222
X49.387 Y33.249 J-6.697
G1 X49.397 Y33.244
X49.46 Y33.221 Z-7.492
X49.519 Y33.198 Z-7.47
X49.572 Y33.178 Z-7.435
X49.617 Y33.161 Z-7.387
X49.65 Y33.148 Z-7.33
X49.671 Y33.14 Z-7.267
X49.678 Y33.138 Z-7.2
G0 Z5
X-3.151 Y29.399
G1 Z-7.2 F400
X-3.145 Y29.403 Z-7.267
X-3.126 Y29.416 Z-7.33
X-3.097 Y29.435 Z-7.387
X-3.057 Y29.462 Z-7.435
X-3.01 Y29.493 Z-7.47
X-2.957 Y29.529 Z-7.492
X-2.902 Y29.566 Z-7.5
X-1.387 Y30.576
G2 X1 Y31.3 I2.387 J-3.577
G1 X4
G3 X4.7 Y32 J0.7
G1 Y137.005
G2 X5.429 Y139.401 I4.3
X5.596 Y139.489 I0.166 J-0.111
G1 X42.411 Y139.481
G2 X42.577 Y139.392 J-0.2
X43.3 Y137.005 I-3.577 J-2.387
G1 Y32.005
G3 X44 Y31.305 I0.7
G1 X47
G2 X49.396 Y30.575 J-4.3
X49.735 Y27.313 I-1.189 J-1.773
G3 X48.5 Y24.274 I3.119 J-3.039
G1 Y4.006
G2 X44 Y-0.5 I-4.5 J-0.006
G1 X4
G2 X3.945 I-0.027 J4.5
X-0.5 Y4 I0.055 J4.5
G1 Y27
G2 X1 Y28.5 I1.5
G1 X4
G3 X7.5 Y32 I0.001 J3.5
G1 Y106.364
Y137.005
G2 X9 Y138.505 I1.5
G1 X39
G2 X40.5 Y137.005 J-1.5
G1 Y32.005
G3 X44 Y28.504 I3.5
G1 X47
G2 X48.5 Y27.004 J-1.5
G1 Y24.274
G3 X48.557 Y24.098 I0.3
G1 X49.439 Y22.884
X49.478 Y22.83 Z-7.492
X49.515 Y22.779 Z-7.47
X49.549 Y22.733 Z-7.435
X49.577 Y22.695 Z-7.387
X49.598 Y22.666 Z-7.33
X49.611 Y22.648 Z-7.267
X49.615 Y22.642 Z-7.2
G0 Z5
X-3.156 Y35.169
G1 Z-7.95 F400
X-3.148 Y35.171 Z-8.017
X-3.127 Y35.177 Z-8.08
X-3.093 Y35.187 Z-8.137
X-3.047 Y35.199 Z-8.185
X-2.992 Y35.214 Z-8.22
X-2.931 Y35.231 Z-8.242
X-2.866 Y35.249 Z-8.25
X-1.387 Y35.655
G2 X-0.301 Y35.882 I2.401 J-8.747
G3 X0.023 Y36.257 I-0.055 J0.374
G1 X-0.022 Y137.005
G2 X0.301 Y139.399 I9.022
X0.494 Y139.546 I0.193 J-0.053
G1 X47.506 Y139.549
G2 X47.698 Y139.402 J-0.2
X48.022 Y137.005 I-8.698 J-2.397
G1 X47.977 Y36.261
G3 X48.301 Y35.887 I0.378
G2 X49.387 Y35.659 I-1.314 J-8.975
G1 X49.399 Y35.656
X49.463 Y35.638 Z-8.242
X49.524 Y35.622 Z-8.22
X49.579 Y35.607 Z-8.185
X49.625 Y35.594 Z-8.137
X49.659 Y35.585 Z-8.08
X49.681 Y35.579 Z-8.017
X49.688 Y35.577 Z-7.95
G0 Z5
X-3.155 Y32.573
G1 Z-7.95 F400
X-3.148 Y32.575 Z-8.017
X-3.127 Y32.583 Z-8.08
X-3.094 Y32.596 Z-8.137
X-3.05 Y32.613 Z-8.185
X-2.996 Y32.633 Z-8.22
X-2.937 Y32.656 Z-8.242
X-2.875 Y32.68 Z-8.25
X-1.397 Y33.244
G2 X1 Y33.684 I2.384 J-6.244
X1.515 Y33.668 J-8.242
G3 X2.029 Y33.651 I0.515 J8.225
X2.349 Y33.971 J0.319
G1 X2.304 Y137.005
G2 X2.743 Y139.392 I6.697
X2.93 Y139.52 I0.187 J-0.071
G1 X45.07 Y139.521
G2 X45.257 Y139.393 J-0.2
X45.697 Y137.005 I-6.257 J-2.388
G1 X45.652 Y33.975
G3 X45.971 Y33.656 I0.319
X46.486 Y33.672 J8.238
G2 X47 Y33.688 I0.514 J-8.222
X49.387 Y33.249 J-6.697
G1 X49.397 Y33.244
X49.46 Y33.221 Z-8.242
X49.519 Y33.198 Z-8.22
X49.572 Y33.178 Z-8.185
X49.617 Y33.161 Z-8.137
X49.65 Y33.148 Z-8.08
X49.671 Y33.14 Z-8.017
X49.678 Y33.138 Z-7.95
G0 Z5
X-3.151 Y29.399
G1 Z-7.95 F400
X-3.145 Y29.403 Z-8.017
X-3.126 Y29.416 Z-8.08
X-3.097 Y29.435 Z-8.137
X-3.057 Y29.462 Z-8.185
X-3.01 Y29.493 Z-8.22
X-2.957 Y29.529 Z-8.242
X-2.902 Y29.566 Z-8.25
X-1.387 Y30.576
G2 X1 Y31.3 I2.387 J-3.577
G1 X4
G3 X4.7 Y32 J0.7
G1 Y137.005
G2 X5.429 Y139.401 I4.3
X5.596 Y139.489 I0.166 J-0.111
G1 X42.411 Y139.481
G2 X42.577 Y139.392 J-0.2
X43.3 Y137.005 I-3.577 J-2.387
G1 Y32.005
G3 X44 Y31.305 I0.7
G1 X47
G2 X49.396 Y30.575 J-4.3
X49.735 Y27.313 I-1.189 J-1.773
G3 X48.5 Y24.274 I3.119 J-3.039
G1 Y4.006
G2 X44 Y-0.5 I-4.5 J-0.006
G1 X4
G2 X3.945 I-0.027 J4.5
X-0.5 Y4 I0.055 J4.5
G1 Y27
G2 X1 Y28.5 I1.5
G1 X4
G3 X7.5 Y32 I0.001 J3.5
G1 Y106.364
Y137.005
G2 X9 Y138.505 I1.5
G1 X39
G2 X40.5 Y137.005 J-1.5
G1 Y32.005
G3 X44 Y28.504 I3.5
G1 X47
G2 X48.5 Y27.004 J-1.5
G1 Y24.274
G3 X48.557 Y24.098 I0.3
G1 X49.439 Y22.884
X49.478 Y22.83 Z-8.242
X49.515 Y22.779 Z-8.22
X49.549 Y22.733 Z-8.185
X49.577 Y22.695 Z-8.137
X49.598 Y22.666 Z-8.08
X49.611 Y22.648 Z-8.017
X49.615 Y22.642 Z-7.95
G0 Z5
X-3.156 Y35.169
G1 Z-8.7 F400
X-3.148 Y35.171 Z-8.767
X-3.127 Y35.177 Z-8.83
X-3.093 Y35.187 Z-8.887
X-3.047 Y35.199 Z-8.935
X-2.992 Y35.214 Z-8.97
X-2.931 Y35.231 Z-8.992
X-2.866 Y35.249 Z-9
X-1.387 Y35.655
G2 X-0.301 Y35.882 I2.401 J-8.747
G3 X0.023 Y36.257 I-0.055 J0.374
G1 X-0.022 Y137.005
G2 X0.301 Y139.399 I9.022
X0.494 Y139.546 I0.193 J-0.053
G1 X47.506 Y139.549
G2 X47.698 Y139.402 J-0.2
X48.022 Y137.005 I-8.698 J-2.397
G1 X47.977 Y36.261
G3 X48.301 Y35.887 I0.378
G2 X49.387 Y35.659 I-1.314 J-8.975
G1 X49.399 Y35.656
X49.463 Y35.638 Z-8.992
X49.524 Y35.622 Z-8.97
X49.579 Y35.607 Z-8.935
X49.625 Y35.594 Z-8.887
X49.659 Y35.585 Z-8.83
X49.681 Y35.579 Z-8.767
X49.688 Y35.577 Z-8.7
G0 Z5
X-3.155 Y32.573
G1 Z-8.7 F400
X-3.148 Y32.575 Z-8.767
X-3.127 Y32.583 Z-8.83
X-3.094 Y32.596 Z-8.887
X-3.05 Y32.613 Z-8.935
X-2.996 Y32.633 Z-8.97
X-2.937 Y32.656 Z-8.992
X-2.875 Y32.68 Z-9
X-1.397 Y33.244
G2 X1 Y33.684 I2.384 J-6.244
X1.515 Y33.668 J-8.242
G3 X2.029 Y33.651 I0.515 J8.225
X2.349 Y33.971 J0.319
G1 X2.304 Y137.005
G2 X2.743 Y139.392 I6.697
X2.93 Y139.52 I0.187 J-0.071
G1 X45.07 Y139.521
G2 X45.257 Y139.393 J-0.2
X45.697 Y137.005 I-6.257 J-2.388
G1 X45.652 Y33.975
G3 X45.971 Y33.656 I0.319
X46.486 Y33.672 J8.238
G2 X47 Y33.688 I0.514 J-8.222
X49.387 Y33.249 J-6.697
G1 X49.397 Y33.244
X49.46 Y33.221 Z-8.992
X49.519 Y33.198 Z-8.97
X49.572 Y33.178 Z-8.935
X49.617 Y33.161 Z-8.887
X49.65 Y33.148 Z-8.83
X49.671 Y33.14 Z-8.767
X49.678 Y33.138 Z-8.7
G0 Z5
X-3.151 Y29.399
G1 Z-8.7 F400
X-3.145 Y29.403 Z-8.767
X-3.126 Y29.416 Z-8.83
X-3.097 Y29.435 Z-8.887
X-3.057 Y29.462 Z-8.935
X-3.01 Y29.493 Z-8.97
X-2.957 Y29.529 Z-8.992
X-2.902 Y29.566 Z-9
X-1.387 Y30.576
G2 X1 Y31.3 I2.387 J-3.577
G1 X4
G3 X4.7 Y32 J0.7
G1 Y137.005
G2 X5.429 Y139.401 I4.3
X5.596 Y139.489 I0.166 J-0.111
G1 X42.411 Y139.481
G2 X42.577 Y139.392 J-0.2
X43.3 Y137.005 I-3.577 J-2.387
G1 Y32.005
G3 X44 Y31.305 I0.7
G1 X47
G2 X49.396 Y30.575 J-4.3
X49.735 Y27.313 I-1.189 J-1.773
G3 X48.5 Y24.274 I3.119 J-3.039
G1 Y4.006
G2 X44 Y-0.5 I-4.5 J-0.006
G1 X4
G2 X3.945 I-0.027 J4.5
X-0.5 Y4 I0.055 J4.5
G1 Y27
G2 X1 Y28.5 I1.5
G1 X4
G3 X7.5 Y32 I0.001 J3.5
G1 Y106.364
Y137.005
G2 X9 Y138.505 I1.5
G1 X39
G2 X40.5 Y137.005 J-1.5
G1 Y32.005
G3 X44 Y28.504 I3.5
G1 X47
G2 X48.5 Y27.004 J-1.5
G1 Y24.274
G3 X48.557 Y24.098 I0.3
G1 X49.439 Y22.884
X49.478 Y22.83 Z-8.992
X49.515 Y22.779 Z-8.97
X49.549 Y22.733 Z-8.935
X49.577 Y22.695 Z-8.887
X49.598 Y22.666 Z-8.83
X49.611 Y22.648 Z-8.767
X49.615 Y22.642 Z-8.7
G0 Z5
X-3.156 Y35.169
G1 Z-9.45 F400
X-3.148 Y35.171 Z-9.517
X-3.127 Y35.177 Z-9.58
X-3.093 Y35.187 Z-9.637
X-3.047 Y35.199 Z-9.685
X-2.992 Y35.214 Z-9.72
X-2.931 Y35.231 Z-9.742
X-2.866 Y35.249 Z-9.75
X-1.387 Y35.655
G2 X-0.301 Y35.882 I2.401 J-8.747
G3 X0.023 Y36.257 I-0.055 J0.374
G1 X-0.022 Y137.005
G2 X0.301 Y139.399 I9.022
X0.494 Y139.546 I0.193 J-0.053
G1 X47.506 Y139.549
G2 X47.698 Y139.402 J-0.2
X48.022 Y137.005 I-8.698 J-2.397
G1 X47.977 Y36.261
G3 X48.301 Y35.887 I0.378
G2 X49.387 Y35.659 I-1.314 J-8.975
G1 X49.399 Y35.656
X49.463 Y35.638 Z-9.742
X49.524 Y35.622 Z-9.72
X49.579 Y35.607 Z-9.685
X49.625 Y35.594 Z-9.637
X49.659 Y35.585 Z-9.58
X49.681 Y35.579 Z-9.517
X49.688 Y35.577 Z-9.45
G0 Z5
X-3.155 Y32.573
G1 Z-9.45 F400
X-3.148 Y32.575 Z-9.517
X-3.127 Y32.583 Z-9.58
X-3.094 Y32.596 Z-9.637
X-3.05 Y32.613 Z-9.685
X-2.996 Y32.633 Z-9.72
X-2.937 Y32.656 Z-9.742
X-2.875 Y32.68 Z-9.75
X-1.397 Y33.244
G2 X1 Y33.684 I2.384 J-6.244
X1.515 Y33.668 J-8.242
G3 X2.029 Y33.651 I0.515 J8.225
X2.349 Y33.971 J0.319
G1 X2.304 Y137.005
G2 X2.743 Y139.392 I6.697
X2.93 Y139.52 I0.187 J-0.071
G1 X45.07 Y139.521
G2 X45.257 Y139.393 J-0.2
X45.697 Y137.005 I-6.257 J-2.388
G1 X45.652 Y33.975
G3 X45.971 Y33.656 I0.319
X46.486 Y33.672 J8.238
G2 X47 Y33.688 I0.514 J-8.222
X49.387 Y33.249 J-6.697
G1 X49.397 Y33.244
X49.46 Y33.221 Z-9.742
X49.519 Y33.198 Z-9.72
X49.572 Y33.178 Z-9.685
X49.617 Y33.161 Z-9.637
X49.65 Y33.148 Z-9.58
X49.671 Y33.14 Z-9.517
X49.678 Y33.138 Z-9.45
G0 Z5
X-3.151 Y29.399
G1 Z-9.45 F400
X-3.145 Y29.403 Z-9.517
X-3.126 Y29.416 Z-9.58
X-3.097 Y29.435 Z-9.637
X-3.057 Y29.462 Z-9.685
X-3.01 Y29.493 Z-9.72
X-2.957 Y29.529 Z-9.742
X-2.902 Y29.566 Z-9.75
X-1.387 Y30.576
G2 X1 Y31.3 I2.387 J-3.577
G1 X4
G3 X4.7 Y32 J0.7
G1 Y137.005
G2 X5.429 Y139.401 I4.3
X5.596 Y139.489 I0.166 J-0.111
G1 X42.411 Y139.481
G2 X42.577 Y139.392 J-0.2
X43.3 Y137.005 I-3.577 J-2.387
G1 Y32.005
G3 X44 Y31.305 I0.7
G1 X47
G2 X49.396 Y30.575 J-4.3
X49.735 Y27.313 I-1.189 J-1.773
G3 X48.5 Y24.274 I3.119 J-3.039
G1 Y4.006
G2 X44 Y-0.5 I-4.5 J-0.006
G1 X4
G2 X3.945 I-0.027 J4.5
X-0.5 Y4 I0.055 J4.5
G1 Y27
G2 X1 Y28.5 I1.5
G1 X4
G3 X7.5 Y32 I0.001 J3.5
G1 Y106.364
Y137.005
G2 X9 Y138.505 I1.5
G1 X39
G2 X40.5 Y137.005 J-1.5
G1 Y32.005
G3 X44 Y28.504 I3.5
G1 X47
G2 X48.5 Y27.004 J-1.5
G1 Y24.274
G3 X48.557 Y24.098 I0.3
G1 X49.439 Y22.884
X49.478 Y22.83 Z-9.742
X49.515 Y22.779 Z-9.72
X49.549 Y22.733 Z-9.685
X49.577 Y22.695 Z-9.637
X49.598 Y22.666 Z-9.58
X49.611 Y22.648 Z-9.517
X49.615 Y22.642 Z-9.45
G0 Z5
X-3.156 Y35.169
G1 Z-10.2 F400
X-3.148 Y35.171 Z-10.267
X-3.127 Y35.177 Z-10.33
X-3.093 Y35.187 Z-10.387
X-3.047 Y35.199 Z-10.435
X-2.992 Y35.214 Z-10.47
X-2.931 Y35.231 Z-10.492
X-2.866 Y35.249 Z-10.5
X-1.387 Y35.655
G2 X-0.301 Y35.882 I2.401 J-8.747
G3 X0.023 Y36.257 I-0.055 J0.374
G1 X-0.022 Y137.005
G2 X0.301 Y139.399 I9.022
X0.494 Y139.546 I0.193 J-0.053
G1 X47.506 Y139.549
G2 X47.698 Y139.402 J-0.2
X48.022 Y137.005 I-8.698 J-2.397
G1 X47.977 Y36.261
G3 X48.301 Y35.887 I0.378
G2 X49.387 Y35.659 I-1.314 J-8.975
G1 X49.399 Y35.656
X49.463 Y35.638 Z-10.492
X49.524 Y35.622 Z-10.47
X49.579 Y35.607 Z-10.435
X49.625 Y35.594 Z-10.387
X49.659 Y35.585 Z-10.33
X49.681 Y35.579 Z-10.267
X49.688 Y35.577 Z-10.2
G0 Z5
X-3.155 Y32.573
G1 Z-10.2 F400
X-3.148 Y32.575 Z-10.267
X-3.127 Y32.583 Z-10.33
X-3.094 Y32.596 Z-10.387
X-3.05 Y32.613 Z-10.435
X-2.996 Y32.633 Z-10.47
X-2.937 Y32.656 Z-10.492
X-2.875 Y32.68 Z-10.5
X-1.397 Y33.244
G2 X1 Y33.684 I2.384 J-6.244
X1.515 Y33.668 J-8.242
G3 X2.029 Y33.651 I0.515 J8.225
X2.349 Y33.971 J0.319
G1 X2.304 Y137.005
G2 X2.743 Y139.392 I6.697
X2.93 Y139.52 I0.187 J-0.071
G1 X45.07 Y139.521
G2 X45.257 Y139.393 J-0.2
X45.697 Y137.005 I-6.257 J-2.388
G1 X45.652 Y33.975
G3 X45.971 Y33.656 I0.319
X46.486 Y33.672 J8.238
G2 X47 Y33.688 I0.514 J-8.222
X49.387 Y33.249 J-6.697
G1 X49.397 Y33.244
X49.46 Y33.221 Z-10.492
X49.519 Y33.198 Z-10.47
X49.572 Y33.178 Z-10.435
X49.617 Y33.161 Z-10.387
X49.65 Y33.148 Z-10.33
X49.671 Y33.14 Z-10.267
X49.678 Y33.138 Z-10.2
G0 Z5
X-3.151 Y29.399
G1 Z-10.2 F400
X-3.145 Y29.403 Z-10.267
X-3.126 Y29.416 Z-10.33
X-3.097 Y29.435 Z-10.387
X-3.057 Y29.462 Z-10.435
X-3.01 Y29.493 Z-10.47
X-2.957 Y29.529 Z-10.492
X-2.902 Y29.566 Z-10.5
X-1.387 Y30.576
G2 X1 Y31.3 I2.387 J-3.577
G1 X4
G3 X4.7 Y32 J0.7
G1 Y137.005
G2 X5.429 Y139.401 I4.3
X5.596 Y139.489 I0.166 J-0.111
G1 X42.411 Y139.481
G2 X42.577 Y139.392 J-0.2
X43.3 Y137.005 I-3.577 J-2.387
G1 Y32.005
G3 X44 Y31.305 I0.7
G1 X47
G2 X49.396 Y30.575 J-4.3
X49.735 Y27.313 I-1.189 J-1.773
G3 X48.5 Y24.274 I3.119 J-3.039
G1 Y4.006
G2 X44 Y-0.5 I-4.5 J-0.006
G1 X4
G2 X3.945 I-0.027 J4.5
X-0.5 Y4 I0.055 J4.5
G1 Y27
G2 X1 Y28.5 I1.5
G1 X4
G3 X7.5 Y32 I0.001 J3.5
G1 Y106.364
Y137.005
G2 X9 Y138.505 I1.5
G1 X39
G2 X40.5 Y137.005 J-1.5
G1 Y32.005
G3 X44 Y28.504 I3.5
G1 X47
G2 X48.5 Y27.004 J-1.5
G1 Y24.274
G3 X48.557 Y24.098 I0.3
G1 X49.439 Y22.884
X49.478 Y22.83 Z-10.492
X49.515 Y22.779 Z-10.47
X49.549 Y22.733 Z-10.435
X49.577 Y22.695 Z-10.387
X49.598 Y22.666 Z-10.33
X49.611 Y22.648 Z-10.267
X49.615 Y22.642 Z-10.2
G0 Z5
X-3.156 Y35.169
G1 Z-10.95 F400
X-3.148 Y35.171 Z-11.017
X-3.127 Y35.177 Z-11.08
X-3.093 Y35.187 Z-11.137
X-3.047 Y35.199 Z-11.185
X-2.992 Y35.214 Z-11.22
X-2.931 Y35.231 Z-11.242
X-2.866 Y35.249 Z-11.25
X-1.387 Y35.655
G2 X-0.301 Y35.882 I2.401 J-8.747
G3 X0.023 Y36.257 I-0.055 J0.374
G1 X-0.022 Y137.005
G2 X0.301 Y139.399 I9.022
X0.494 Y139.546 I0.193 J-0.053
G1 X47.506 Y139.549
G2 X47.698 Y139.402 J-0.2
X48.022 Y137.005 I-8.698 J-2.397
G1 X47.977 Y36.261
G3 X48.301 Y35.887 I0.378
G2 X49.387 Y35.659 I-1.314 J-8.975
G1 X49.399 Y35.656
X49.463 Y35.638 Z-11.242
X49.524 Y35.622 Z-11.22
X49.579 Y35.607 Z-11.185
X49.625 Y35.594 Z-11.137
X49.659 Y35.585 Z-11.08
X49.681 Y35.579 Z-11.017
X49.688 Y35.577 Z-10.95
G0 Z5
X-3.155 Y32.573
G1 Z-10.95 F400
X-3.148 Y32.575 Z-11.017
X-3.127 Y32.583 Z-11.08
X-3.094 Y32.596 Z-11.137
X-3.05 Y32.613 Z-11.185
X-2.996 Y32.633 Z-11.22
X-2.937 Y32.656 Z-11.242
X-2.875 Y32.68 Z-11.25
X-1.397 Y33.244
G2 X1 Y33.684 I2.384 J-6.244
X1.515 Y33.668 J-8.242
G3 X2.029 Y33.651 I0.515 J8.225
X2.349 Y33.971 J0.319
G1 X2.304 Y137.005
G2 X2.743 Y139.392 I6.697
X2.93 Y139.52 I0.187 J-0.071
G1 X45.07 Y139.521
G2 X45.257 Y139.393 J-0.2
X45.697 Y137.005 I-6.257 J-2.388
G1 X45.652 Y33.975
G3 X45.971 Y33.656 I0.319
X46.486 Y33.672 J8.238
G2 X47 Y33.688 I0.514 J-8.222
X49.387 Y33.249 J-6.697
G1 X49.397 Y33.244
X49.46 Y33.221 Z-11.242
X49.519 Y33.198 Z-11.22
X49.572 Y33.178 Z-11.185
X49.617 Y33.161 Z-11.137
X49.65 Y33.148 Z-11.08
X49.671 Y33.14 Z-11.017
X49.678 Y33.138 Z-10.95
G0 Z5
X-3.151 Y29.399
G1 Z-10.95 F400
X-3.145 Y29.403 Z-11.017
X-3.126 Y29.416 Z-11.08
X-3.097 Y29.435 Z-11.137
X-3.057 Y29.462 Z-11.185
X-3.01 Y29.493 Z-11.22
X-2.957 Y29.529 Z-11.242
X-2.902 Y29.566 Z-11.25
X-1.387 Y30.576
G2 X1 Y31.3 I2.387 J-3.577
G1 X4
G3 X4.7 Y32 J0.7
G1 Y137.005
G2 X5.429 Y139.401 I4.3
X5.596 Y139.489 I0.166 J-0.111
G1 X42.411 Y139.481
G2 X42.577 Y139.392 J-0.2
X43.3 Y137.005 I-3.577 J-2.387
G1 Y32.005
G3 X44 Y31.305 I0.7
G1 X47
G2 X49.396 Y30.575 J-4.3
X49.735 Y27.313 I-1.189 J-1.773
G3 X48.5 Y24.274 I3.119 J-3.039
G1 Y4.006
G2 X44 Y-0.5 I-4.5 J-0.006
G1 X4
G2 X3.945 I-0.027 J4.5
X-0.5 Y4 I0.055 J4.5
G1 Y27
G2 X1 Y28.5 I1.5
G1 X4
G3 X7.5 Y32 I0.001 J3.5
G1 Y106.364
Y137.005
G2 X9 Y138.505 I1.5
G1 X39
G2 X40.5 Y137.005 J-1.5
G1 Y32.005
G3 X44 Y28.504 I3.5
G1 X47
G2 X48.5 Y27.004 J-1.5
G1 Y24.274
G3 X48.557 Y24.098 I0.3
G1 X49.439 Y22.884
X49.478 Y22.83 Z-11.242
X49.515 Y22.779 Z-11.22
X49.549 Y22.733 Z-11.185
X49.577 Y22.695 Z-11.137
X49.598 Y22.666 Z-11.08
X49.611 Y22.648 Z-11.017
X49.615 Y22.642 Z-10.95
G0 Z5
X-3.156 Y35.169
G1 Z-11.7 F400
X-3.148 Y35.171 Z-11.767
X-3.127 Y35.177 Z-11.83
X-3.093 Y35.187 Z-11.887
X-3.047 Y35.199 Z-11.935
X-2.992 Y35.214 Z-11.97
X-2.931 Y35.231 Z-11.992
X-2.866 Y35.249 Z-12
X-1.387 Y35.655
G2 X-0.301 Y35.882 I2.401 J-8.747
G3 X0.023 Y36.257 I-0.055 J0.374
G1 X-0.022 Y137.005
G2 X0.301 Y139.399 I9.022
X0.494 Y139.546 I0.193 J-0.053
G1 X47.506 Y139.549
G2 X47.698 Y139.402 J-0.2
X48.022 Y137.005 I-8.698 J-2.397
G1 X47.977 Y36.261
G3 X48.301 Y35.887 I0.378
G2 X49.387 Y35.659 I-1.314 J-8.975
G1 X49.399 Y35.656
X49.463 Y35.638 Z-11.992
X49.524 Y35.622 Z-11.97
X49.579 Y35.607 Z-11.935
X49.625 Y35.594 Z-11.887
X49.659 Y35.585 Z-11.83
X49.681 Y35.579 Z-11.767
X49.688 Y35.577 Z-11.7
G0 Z5
X-3.155 Y32.573
G1 Z-11.7 F400
X-3.148 Y32.575 Z-11.767
X-3.127 Y32.583 Z-11.83
X-3.094 Y32.596 Z-11.887
X-3.05 Y32.613 Z-11.935
X-2.996 Y32.633 Z-11.97
X-2.937 Y32.656 Z-11.992
X-2.875 Y32.68 Z-12
X-1.397 Y33.244
G2 X1 Y33.684 I2.384 J-6.244
X1.515 Y33.668 J-8.242
G3 X2.029 Y33.651 I0.515 J8.225
X2.349 Y33.971 J0.319
G1 X2.304 Y137.005
G2 X2.743 Y139.392 I6.697
X2.93 Y139.52 I0.187 J-0.071
G1 X45.07 Y139.521
G2 X45.257 Y139.393 J-0.2
X45.697 Y137.005 I-6.257 J-2.388
G1 X45.652 Y33.975
G3 X45.971 Y33.656 I0.319
X46.486 Y33.672 J8.238
G2 X47 Y33.688 I0.514 J-8.222
X49.387 Y33.249 J-6.697
G1 X49.397 Y33.244
X49.46 Y33.221 Z-11.992
X49.519 Y33.198 Z-11.97
X49.572 Y33.178 Z-11.935
X49.617 Y33.161 Z-11.887
X49.65 Y33.148 Z-11.83
X49.671 Y33.14 Z-11.767
X49.678 Y33.138 Z-11.7
G0 Z5
X-3.151 Y29.399
G1 Z-11.7 F400
X-3.145 Y29.403 Z-11.767
X-3.126 Y29.416 Z-11.83
X-3.097 Y29.435 Z-11.887
X-3.057 Y29.462 Z-11.935
X-3.01 Y29.493 Z-11.97
X-2.957 Y29.529 Z-11.992
X-2.902 Y29.566 Z-12
X-1.387 Y30.576
G2 X1 Y31.3 I2.387 J-3.577
G1 X4
G3 X4.7 Y32 J0.7
G1 Y137.005
G2 X5.429 Y139.401 I4.3
X5.596 Y139.489 I0.166 J-0.111
G1 X42.411 Y139.481
G2 X42.577 Y139.392 J-0.2
X43.3 Y137.005 I-3.577 J-2.387
G1 Y32.005
G3 X44 Y31.305 I0.7
G1 X47
G2 X49.396 Y30.575 J-4.3
X49.735 Y27.313 I-1.189 J-1.773
G3 X48.5 Y24.274 I3.119 J-3.039
G1 Y4.006
G2 X44 Y-0.5 I-4.5 J-0.006
G1 X4
G2 X3.945 I-0.027 J4.5
X-0.5 Y4 I0.055 J4.5
G1 Y27
G2 X1 Y28.5 I1.5
G1 X4
G3 X7.5 Y32 I0.001 J3.5
G1 Y106.364
Y137.005
G2 X9 Y138.505 I1.5
G1 X39
G2 X40.5 Y137.005 J-1.5
G1 Y32.005
G3 X44 Y28.504 I3.5
G1 X47
G2 X48.5 Y27.004 J-1.5
G1 Y24.274
G3 X48.557 Y24.098 I0.3
G1 X49.439 Y22.884
X49.478 Y22.83 Z-11.992
X49.515 Y22.779 Z-11.97
X49.549 Y22.733 Z-11.935
X49.577 Y22.695 Z-11.887
X49.598 Y22.666 Z-11.83
X49.611 Y22.648 Z-11.767
X49.615 Y22.642 Z-11.7
G0 Z5
X-3.156 Y35.169
G1 Z-12.45 F400
X-3.148 Y35.171 Z-12.517
X-3.127 Y35.177 Z-12.58
X-3.093 Y35.187 Z-12.637
X-3.047 Y35.199 Z-12.685
X-2.992 Y35.214 Z-12.72
X-2.931 Y35.231 Z-12.742
X-2.866 Y35.249 Z-12.75
X-1.387 Y35.655
G2 X-0.301 Y35.882 I2.401 J-8.747
G3 X0.023 Y36.257 I-0.055 J0.374
G1 X-0.022 Y137.005
G2 X0.301 Y139.399 I9.022
X0.494 Y139.546 I0.193 J-0.053
G1 X47.506 Y139.549
G2 X47.698 Y139.402 J-0.2
X48.022 Y137.005 I-8.698 J-2.397
G1 X47.977 Y36.261
G3 X48.301 Y35.887 I0.378
G2 X49.387 Y35.659 I-1.314 J-8.975
G1 X49.399 Y35.656
X49.463 Y35.638 Z-12.742
X49.524 Y35.622 Z-12.72
X49.579 Y35.607 Z-12.685
X49.625 Y35.594 Z-12.637
X49.659 Y35.585 Z-12.58
X49.681 Y35.579 Z-12.517
X49.688 Y35.577 Z-12.45
G0 Z5
X-3.155 Y32.573
G1 Z-12.45 F400
X-3.148 Y32.575 Z-12.517
X-3.127 Y32.583 Z-12.58
X-3.094 Y32.596 Z-12.637
X-3.05 Y32.613 Z-12.685
X-2.996 Y32.633 Z-12.72
X-2.937 Y32.656 Z-12.742
X-2.875 Y32.68 Z-12.75
X-1.397 Y33.244
G2 X1 Y33.684 I2.384 J-6.244
X1.515 Y33.668 J-8.242
G3 X2.029 Y33.651 I0.515 J8.225
X2.349 Y33.971 J0.319
G1 X2.304 Y137.005
G2 X2.743 Y139.392 I6.697
X2.93 Y139.52 I0.187 J-0.071
G1 X45.07 Y139.521
G2 X45.257 Y139.393 J-0.2
X45.697 Y137.005 I-6.257 J-2.388
G1 X45.652 Y33.975
G3 X45.971 Y33.656 I0.319
X46.486 Y33.672 J8.238
G2 X47 Y33.688 I0.514 J-8.222
X49.387 Y33.249 J-6.697
G1 X49.397 Y33.244
X49.46 Y33.221 Z-12.742
X49.519 Y33.198 Z-12.72
X49.572 Y33.178 Z-12.685
X49.617 Y33.161 Z-12.637
X49.65 Y33.148 Z-12.58
X49.671 Y33.14 Z-12.517
X49.678 Y33.138 Z-12.45
G0 Z5
X-3.151 Y29.399
G1 Z-12.45 F400
X-3.145 Y29.403 Z-12.517
X-3.126 Y29.416 Z-12.58
X-3.097 Y29.435 Z-12.637
X-3.057 Y29.462 Z-12.685
X-3.01 Y29.493 Z-12.72
X-2.957 Y29.529 Z-12.742
X-2.902 Y29.566 Z-12.75
X-1.387 Y30.576
G2 X1 Y31.3 I2.387 J-3.577
G1 X4
G3 X4.7 Y32 J0.7
G1 Y137.005
G2 X5.429 Y139.401 I4.3
X5.596 Y139.489 I0.166 J-0.111
G1 X42.411 Y139.481
G2 X42.577 Y139.392 J-0.2
X43.3 Y137.005 I-3.577 J-2.387
G1 Y32.005
G3 X44 Y31.305 I0.7
G1 X47
G2 X49.396 Y30.575 J-4.3
X49.735 Y27.313 I-1.189 J-1.773
G3 X48.5 Y24.274 I3.119 J-3.039
G1 Y4.006
G2 X44 Y-0.5 I-4.5 J-0.006
G1 X4
G2 X3.945 I-0.027 J4.5
X-0.5 Y4 I0.055 J4.5
G1 Y27
G2 X1 Y28.5 I1.5
G1 X4
G3 X7.5 Y32 I0.001 J3.5
G1 Y106.364
Y137.005
G2 X9 Y138.505 I1.5
G1 X39
G2 X40.5 Y137.005 J-1.5
G1 Y32.005
G3 X44 Y28.504 I3.5
G1 X47
G2 X48.5 Y27.004 J-1.5
G1 Y24.274
G3 X48.557 Y24.098 I0.3
G1 X49.439 Y22.884
X49.478 Y22.83 Z-12.742
X49.515 Y22.779 Z-12.72
X49.549 Y22.733 Z-12.685
X49.577 Y22.695 Z-12.637
X49.598 Y22.666 Z-12.58
X49.611 Y22.648 Z-12.517
X49.615 Y22.642 Z-12.45
G0 Z5
X-3.156 Y35.169
G1 Z-13.2 F400
X-3.148 Y35.171 Z-13.267
X-3.127 Y35.177 Z-13.33
X-3.093 Y35.187 Z-13.387
X-3.047 Y35.199 Z-13.435
X-2.992 Y35.214 Z-13.47
X-2.931 Y35.231 Z-13.492
X-2.866 Y35.249 Z-13.5
X-1.387 Y35.655
G2 X-0.301 Y35.882 I2.401 J-8.747
G3 X0.023 Y36.257 I-0.055 J0.374
G1 X-0.022 Y137.005
G2 X0.301 Y139.399 I9.022
X0.494 Y139.546 I0.193 J-0.053
G1 X47.506 Y139.549
G2 X47.698 Y139.402 J-0.2
X48.022 Y137.005 I-8.698 J-2.397
G1 X47.977 Y36.261
G3 X48.301 Y35.887 I0.378
G2 X49.387 Y35.659 I-1.314 J-8.975
G1 X49.399 Y35.656
X49.463 Y35.638 Z-13.492
X49.524 Y35.622 Z-13.47
X49.579 Y35.607 Z-13.435
X49.625 Y35.594 Z-13.387
X49.659 Y35.585 Z-13.33
X49.681 Y35.579 Z-13.267
X49.688 Y35.577 Z-13.2
G0 Z5
X-3.155 Y32.573
G1 Z-13.2 F400
X-3.148 Y32.575 Z-13.267
X-3.127 Y32.583 Z-13.33
X-3.094 Y32.596 Z-13.387
X-3.05 Y32.613 Z-13.435
X-2.996 Y32.633 Z-13.47
X-2.937 Y32.656 Z-13.492
X-2.875 Y32.68 Z-13.5
X-1.397 Y33.244
G2 X1 Y33.684 I2.384 J-6.244
X1.515 Y33.668 J-8.242
G3 X2.029 Y33.651 I0.515 J8.225
X2.349 Y33.971 J0.319
G1 X2.304 Y137.005
G2 X2.743 Y139.392 I6.697
X2.93 Y139.52 I0.187 J-0.071
G1 X45.07 Y139.521
G2 X45.257 Y139.393 J-0.2
X45.697 Y137.005 I-6.257 J-2.388
G1 X45.652 Y33.975
G3 X45.971 Y33.656 I0.319
X46.486 Y33.672 J8.238
G2 X47 Y33.688 I0.514 J-8.222
X49.387 Y33.249 J-6.697
G1 X49.397 Y33.244
X49.46 Y33.221 Z-13.492
X49.519 Y33.198 Z-13.47
X49.572 Y33.178 Z-13.435
X49.617 Y33.161 Z-13.387
X49.65 Y33.148 Z-13.33
X49.671 Y33.14 Z-13.267
X49.678 Y33.138 Z-13.2
G0 Z5
X-3.151 Y29.399
G1 Z-13.2 F400
X-3.145 Y29.403 Z-13.267
X-3.126 Y29.416 Z-13.33
X-3.097 Y29.435 Z-13.387
X-3.057 Y29.462 Z-13.435
X-3.01 Y29.493 Z-13.47
X-2.957 Y29.529 Z-13.492
X-2.902 Y29.566 Z-13.5
X-1.387 Y30.576
G2 X1 Y31.3 I2.387 J-3.577
G1 X4
G3 X4.7 Y32 J0.7
G1 Y137.005
G2 X5.429 Y139.401 I4.3
X5.596 Y139.489 I0.166 J-0.111
G1 X42.411 Y139.481
G2 X42.577 Y139.392 J-0.2
X43.3 Y137.005 I-3.577 J-2.387
G1 Y32.005
G3 X44 Y31.305 I0.7
G1 X47
G2 X49.396 Y30.575 J-4.3
X49.735 Y27.313 I-1.189 J-1.773
G3 X48.5 Y24.274 I3.119 J-3.039
G1 Y4.006
G2 X44 Y-0.5 I-4.5 J-0.006
G1 X4
G2 X3.945 I-0.027 J4.5
X-0.5 Y4 I0.055 J4.5
G1 Y27
G2 X1 Y28.5 I1.5
G1 X4
G3 X7.5 Y32 I0.001 J3.5
G1 Y106.364
Y137.005
G2 X9 Y138.505 I1.5
G1 X39
G2 X40.5 Y137.005 J-1.5
G1 Y32.005
G3 X44 Y28.504 I3.5
G1 X47
G2 X48.5 Y27.004 J-1.5
G1 Y24.274
G3 X48.557 Y24.098 I0.3
G1 X49.439 Y22.884
X49.478 Y22.83 Z-13.492
X49.515 Y22.779 Z-13.47
X49.549 Y22.733 Z-13.435
X49.577 Y22.695 Z-13.387
X49.598 Y22.666 Z-13.33
X49.611 Y22.648 Z-13.267
X49.615 Y22.642 Z-13.2
G0 Z5
X-3.156 Y35.169
G1 Z-13.95 F400
X-3.148 Y35.171 Z-14.017
X-3.127 Y35.177 Z-14.08
X-3.093 Y35.187 Z-14.137
X-3.047 Y35.199 Z-14.185
X-2.992 Y35.214 Z-14.22
X-2.931 Y35.231 Z-14.242
X-2.866 Y35.249 Z-14.25
X-1.387 Y35.655
G2 X-0.301 Y35.882 I2.401 J-8.747
G3 X0.023 Y36.257 I-0.055 J0.374
G1 X-0.022 Y137.005
G2 X0.301 Y139.399 I9.022
X0.494 Y139.546 I0.193 J-0.053
G1 X47.506 Y139.549
G2 X47.698 Y139.402 J-0.2
X48.022 Y137.005 I-8.698 J-2.397
G1 X47.977 Y36.261
G3 X48.301 Y35.887 I0.378
G2 X49.387 Y35.659 I-1.314 J-8.975
G1 X49.399 Y35.656
X49.463 Y35.638 Z-14.242
X49.524 Y35.622 Z-14.22
X49.579 Y35.607 Z-14.185
X49.625 Y35.594 Z-14.137
X49.659 Y35.585 Z-14.08
X49.681 Y35.579 Z-14.017
X49.688 Y35.577 Z-13.95
G0 Z5
X-3.155 Y32.573
G1 Z-13.95 F400
X-3.148 Y32.575 Z-14.017
X-3.127 Y32.583 Z-14.08
X-3.094 Y32.596 Z-14.137
X-3.05 Y32.613 Z-14.185
X-2.996 Y32.633 Z-14.22
X-2.937 Y32.656 Z-14.242
X-2.875 Y32.68 Z-14.25
X-1.397 Y33.244
G2 X1 Y33.684 I2.384 J-6.244
X1.515 Y33.668 J-8.242
G3 X2.029 Y33.651 I0.515 J8.225
X2.349 Y33.971 J0.319
G1 X2.304 Y137.005
G2 X2.743 Y139.392 I6.697
X2.93 Y139.52 I0.187 J-0.071
G1 X45.07 Y139.521
G2 X45.257 Y139.393 J-0.2
X45.697 Y137.005 I-6.257 J-2.388
G1 X45.652 Y33.975
G3 X45.971 Y33.656 I0.319
X46.486 Y33.672 J8.238
G2 X47 Y33.688 I0.514 J-8.222
X49.387 Y33.249 J-6.697
G1 X49.397 Y33.244
X49.46 Y33.221 Z-14.242
X49.519 Y33.198 Z-14.22
X49.572 Y33.178 Z-14.185
X49.617 Y33.161 Z-14.137
X49.65 Y33.148 Z-14.08
X49.671 Y33.14 Z-14.017
X49.678 Y33.138 Z-13.95
G0 Z5
X-3.151 Y29.399
G1 Z-13.95 F400
X-3.145 Y29.403 Z-14.017
X-3.126 Y29.416 Z-14.08
X-3.097 Y29.435 Z-14.137
X-3.057 Y29.462 Z-14.185
X-3.01 Y29.493 Z-14.22
X-2.957 Y29.529 Z-14.242
X-2.902 Y29.566 Z-14.25
X-1.387 Y30.576
G2 X1 Y31.3 I2.387 J-3.577
G1 X4
G3 X4.7 Y32 J0.7
G1 Y137.005
G2 X5.429 Y139.401 I4.3
X5.596 Y139.489 I0.166 J-0.111
G1 X42.411 Y139.481
G2 X42.577 Y139.392 J-0.2
X43.3 Y137.005 I-3.577 J-2.387
G1 Y32.005
G3 X44 Y31.305 I0.7
G1 X47
G2 X49.396 Y30.575 J-4.3
X49.735 Y27.313 I-1.189 J-1.773
G3 X48.5 Y24.274 I3.119 J-3.039
G1 Y4.006
G2 X44 Y-0.5 I-4.5 J-0.006
G1 X4
G2 X3.945 I-0.027 J4.5
X-0.5 Y4 I0.055 J4.5
G1 Y27
G2 X1 Y28.5 I1.5
G1 X4
G3 X7.5 Y32 I0.001 J3.5
G1 Y106.364
Y137.005
G2 X9 Y138.505 I1.5
G1 X39
G2 X40.5 Y137.005 J-1.5
G1 Y32.005
G3 X44 Y28.504 I3.5
G1 X47
G2 X48.5 Y27.004 J-1.5
G1 Y24.274
G3 X48.557 Y24.098 I0.3
G1 X49.439 Y22.884
X49.478 Y22.83 Z-14.242
X49.515 Y22.779 Z-14.22
X49.549 Y22.733 Z-14.185
X49.577 Y22.695 Z-14.137
X49.598 Y22.666 Z-14.08
X49.611 Y22.648 Z-14.017
X49.615 Y22.642 Z-13.95
G0 Z5
X-3.156 Y35.169
G1 Z-14.7 F400
X-3.148 Y35.171 Z-14.767
X-3.127 Y35.177 Z-14.83
X-3.093 Y35.187 Z-14.887
X-3.047 Y35.199 Z-14.935
X-2.992 Y35.214 Z-14.97
X-2.931 Y35.231 Z-14.992
X-2.866 Y35.249 Z-15
X-1.387 Y35.655
G2 X-0.301 Y35.882 I2.401 J-8.747
G3 X0.023 Y36.257 I-0.055 J0.374
G1 X-0.022 Y137.005
G2 X0.301 Y139.399 I9.022
X0.494 Y139.546 I0.193 J-0.053
G1 X47.506 Y139.549
G2 X47.698 Y139.402 J-0.2
X48.022 Y137.005 I-8.698 J-2.397
G1 X47.977 Y36.261
G3 X48.301 Y35.887 I0.378
G2 X49.387 Y35.659 I-1.314 J-8.975
G1 X49.399 Y35.656
X49.463 Y35.638 Z-14.992
X49.524 Y35.622 Z-14.97
X49.579 Y35.607 Z-14.935
X49.625 Y35.594 Z-14.887
X49.659 Y35.585 Z-14.83
X49.681 Y35.579 Z-14.767
X49.688 Y35.577 Z-14.7
G0 Z5
X-3.155 Y32.573
G1 Z-14.7 F400
X-3.148 Y32.575 Z-14.767
X-3.127 Y32.583 Z-14.83
X-3.094 Y32.596 Z-14.887
X-3.05 Y32.613 Z-14.935
X-2.996 Y32.633 Z-14.97
X-2.937 Y32.656 Z-14.992
X-2.875 Y32.68 Z-15
X-1.397 Y33.244
G2 X1 Y33.684 I2.384 J-6.244
X1.515 Y33.668 J-8.242
G3 X2.029 Y33.651 I0.515 J8.225
X2.349 Y33.971 J0.319
G1 X2.304 Y137.005
G2 X2.743 Y139.392 I6.697
X2.93 Y139.52 I0.187 J-0.071
G1 X45.07 Y139.521
G2 X45.257 Y139.393 J-0.2
X45.697 Y137.005 I-6.257 J-2.388
G1 X45.652 Y33.975
G3 X45.971 Y33.656 I0.319
X46.486 Y33.672 J8.238
G2 X47 Y33.688 I0.514 J-8.222
X49.387 Y33.249 J-6.697
G1 X49.397 Y33.244
X49.46 Y33.221 Z-14.992
X49.519 Y33.198 Z-14.97
X49.572 Y33.178 Z-14.935
X49.617 Y33.161 Z-14.887
X49.65 Y33.148 Z-14.83
X49.671 Y33.14 Z-14.767
X49.678 Y33.138 Z-14.7
G0 Z5
X-3.151 Y29.399
G1 Z-14.7 F400
X-3.145 Y29.403 Z-14.767
X-3.126 Y29.416 Z-14.83
X-3.097 Y29.435 Z-14.887
X-3.057 Y29.462 Z-14.935
X-3.01 Y29.493 Z-14.97
X-2.957 Y29.529 Z-14.992
X-2.902 Y29.566 Z-15
X-1.387 Y30.576
G2 X1 Y31.3 I2.387 J-3.577
G1 X4
G3 X4.7 Y32 J0.7
G1 Y137.005
G2 X5.429 Y139.401 I4.3
X5.596 Y139.489 I0.166 J-0.111
G1 X42.411 Y139.481
G2 X42.577 Y139.392 J-0.2
X43.3 Y137.005 I-3.577 J-2.387
G1 Y32.005
G3 X44 Y31.305 I0.7
G1 X47
G2 X49.396 Y30.575 J-4.3
X49.735 Y27.313 I-1.189 J-1.773
G3 X48.5 Y24.274 I3.119 J-3.039
G1 Y4.006
G2 X44 Y-0.5 I-4.5 J-0.006
G1 X4
G2 X3.945 I-0.027 J4.5
X-0.5 Y4 I0.055 J4.5
G1 Y27
G2 X1 Y28.5 I1.5
G1 X4
G3 X7.5 Y32 I0.001 J3.5
G1 Y106.364
Y137.005
G2 X9 Y138.505 I1.5
G1 X39
G2 X40.5 Y137.005 J-1.5
G1 Y32.005
G3 X44 Y28.504 I3.5
G1 X47
G2 X48.5 Y27.004 J-1.5
G1 Y24.274
G3 X48.557 Y24.098 I0.3
G1 X49.439 Y22.884
X49.478 Y22.83 Z-14.992
X49.515 Y22.779 Z-14.97
X49.549 Y22.733 Z-14.935
X49.577 Y22.695 Z-14.887
X49.598 Y22.666 Z-14.83
X49.611 Y22.648 Z-14.767
X49.615 Y22.642 Z-14.7
G0 Z5
X-3.156 Y35.169
G1 Z-15.45 F400
X-3.148 Y35.171 Z-15.517
X-3.127 Y35.177 Z-15.58
X-3.093 Y35.187 Z-15.637
X-3.047 Y35.199 Z-15.685
X-2.992 Y35.214 Z-15.72
X-2.931 Y35.231 Z-15.742
X-2.866 Y35.249 Z-15.75
X-1.387 Y35.655
G2 X-0.301 Y35.882 I2.401 J-8.747
G3 X0.023 Y36.257 I-0.055 J0.374
G1 X-0.022 Y137.005
G2 X0.301 Y139.399 I9.022
X0.494 Y139.546 I0.193 J-0.053
G1 X47.506 Y139.549
G2 X47.698 Y139.402 J-0.2
X48.022 Y137.005 I-8.698 J-2.397
G1 X47.977 Y36.261
G3 X48.301 Y35.887 I0.378
G2 X49.387 Y35.659 I-1.314 J-8.975
G1 X49.399 Y35.656
X49.463 Y35.638 Z-15.742
X49.524 Y35.622 Z-15.72
X49.579 Y35.607 Z-15.685
X49.625 Y35.594 Z-15.637
X49.659 Y35.585 Z-15.58
X49.681 Y35.579 Z-15.517
X49.688 Y35.577 Z-15.45
G0 Z5
X-3.155 Y32.573
G1 Z-15.45 F400
X-3.148 Y32.575 Z-15.517
X-3.127 Y32.583 Z-15.58
X-3.094 Y32.596 Z-15.637
X-3.05 Y32.613 Z-15.685
X-2.996 Y32.633 Z-15.72
X-2.937 Y32.656 Z-15.742
X-2.875 Y32.68 Z-15.75
X-1.397 Y33.244
G2 X1 Y33.684 I2.384 J-6.244
X1.515 Y33.668 J-8.242
G3 X2.029 Y33.651 I0.515 J8.225
X2.349 Y33.971 J0.319
G1 X2.304 Y137.005
G2 X2.743 Y139.392 I6.697
X2.93 Y139.52 I0.187 J-0.071
G1 X45.07 Y139.521
G2 X45.257 Y139.393 J-0.2
X45.697 Y137.005 I-6.257 J-2.388
G1 X45.652 Y33.975
G3 X45.971 Y33.656 I0.319
X46.486 Y33.672 J8.238
G2 X47 Y33.688 I0.514 J-8.222
X49.387 Y33.249 J-6.697
G1 X49.397 Y33.244
X49.46 Y33.221 Z-15.742
X49.519 Y33.198 Z-15.72
X49.572 Y33.178 Z-15.685
X49.617 Y33.161 Z-15.637
X49.65 Y33.148 Z-15.58
X49.671 Y33.14 Z-15.517
X49.678 Y33.138 Z-15.45
G0 Z5
X-3.151 Y29.399
G1 Z-15.45 F400
X-3.145 Y29.403 Z-15.517
X-3.126 Y29.416 Z-15.58
X-3.097 Y29.435 Z-15.637
X-3.057 Y29.462 Z-15.685
X-3.01 Y29.493 Z-15.72
X-2.957 Y29.529 Z-15.742
X-2.902 Y29.566 Z-15.75
X-1.387 Y30.576
G2 X1 Y31.3 I2.387 J-3.577
G1 X4
G3 X4.7 Y32 J0.7
G1 Y137.005
G2 X5.429 Y139.401 I4.3
X5.596 Y139.489 I0.166 J-0.111
G1 X42.411 Y139.481
G2 X42.577 Y139.392 J-0.2
X43.3 Y137.005 I-3.577 J-2.387
G1 Y32.005
G3 X44 Y31.305 I0.7
G1 X47
G2 X49.396 Y30.575 J-4.3
X49.735 Y27.313 I-1.189 J-1.773
G3 X48.5 Y24.274 I3.119 J-3.039
G1 Y4.006
G2 X44 Y-0.5 I-4.5 J-0.006
G1 X4
G2 X3.945 I-0.027 J4.5
X-0.5 Y4 I0.055 J4.5
G1 Y27
G2 X1 Y28.5 I1.5
G1 X4
G3 X7.5 Y32 I0.001 J3.5
G1 Y106.364
Y137.005
G2 X9 Y138.505 I1.5
G1 X39
G2 X40.5 Y137.005 J-1.5
G1 Y32.005
G3 X44 Y28.504 I3.5
G1 X47
G2 X48.5 Y27.004 J-1.5
G1 Y24.274
G3 X48.557 Y24.098 I0.3
G1 X49.439 Y22.884
X49.478 Y22.83 Z-15.742
X49.515 Y22.779 Z-15.72
X49.549 Y22.733 Z-15.685
X49.577 Y22.695 Z-15.637
X49.598 Y22.666 Z-15.58
X49.611 Y22.648 Z-15.517
X49.615 Y22.642 Z-15.45
G0 Z5
X-3.156 Y35.169
G1 Z-16.2 F400
X-3.148 Y35.171 Z-16.267
X-3.127 Y35.177 Z-16.33
X-3.093 Y35.187 Z-16.387
X-3.047 Y35.199 Z-16.435
X-2.992 Y35.214 Z-16.47
X-2.931 Y35.231 Z-16.492
X-2.866 Y35.249 Z-16.5
X-1.387 Y35.655
G2 X-0.301 Y35.882 I2.401 J-8.747
G3 X0.023 Y36.257 I-0.055 J0.374
G1 X-0.022 Y137.005
G2 X0.301 Y139.399 I9.022
X0.494 Y139.546 I0.193 J-0.053
G1 X47.506 Y139.549
G2 X47.698 Y139.402 J-0.2
X48.022 Y137.005 I-8.698 J-2.397
G1 X47.977 Y36.261
G3 X48.301 Y35.887 I0.378
G2 X49.387 Y35.659 I-1.314 J-8.975
G1 X49.399 Y35.656
X49.463 Y35.638 Z-16.492
X49.524 Y35.622 Z-16.47
X49.579 Y35.607 Z-16.435
X49.625 Y35.594 Z-16.387
X49.659 Y35.585 Z-16.33
X49.681 Y35.579 Z-16.267
X49.688 Y35.577 Z-16.2
G0 Z5
X-3.155 Y32.573
G1 Z-16.2 F400
X-3.148 Y32.575 Z-16.267
X-3.127 Y32.583 Z-16.33
X-3.094 Y32.596 Z-16.387
X-3.05 Y32.613 Z-16.435
X-2.996 Y32.633 Z-16.47
X-2.937 Y32.656 Z-16.492
X-2.875 Y32.68 Z-16.5
X-1.397 Y33.244
G2 X1 Y33.684 I2.384 J-6.244
X1.515 Y33.668 J-8.242
G3 X2.029 Y33.651 I0.515 J8.225
X2.349 Y33.971 J0.319
G1 X2.304 Y137.005
G2 X2.743 Y139.392 I6.697
X2.93 Y139.52 I0.187 J-0.071
G1 X45.07 Y139.521
G2 X45.257 Y139.393 J-0.2
X45.697 Y137.005 I-6.257 J-2.388
G1 X45.652 Y33.975
G3 X45.971 Y33.656 I0.319
X46.486 Y33.672 J8.238
G2 X47 Y33.688 I0.514 J-8.222
X49.387 Y33.249 J-6.697
G1 X49.397 Y33.244
X49.46 Y33.221 Z-16.492
X49.519 Y33.198 Z-16.47
X49.572 Y33.178 Z-16.435
X49.617 Y33.161 Z-16.387
X49.65 Y33.148 Z-16.33
X49.671 Y33.14 Z-16.267
X49.678 Y33.138 Z-16.2
G0 Z5
X-3.151 Y29.399
G1 Z-16.2 F400
X-3.145 Y29.403 Z-16.267
X-3.126 Y29.416 Z-16.33
X-3.097 Y29.435 Z-16.387
X-3.057 Y29.462 Z-16.435
X-3.01 Y29.493 Z-16.47
X-2.957 Y29.529 Z-16.492
X-2.902 Y29.566 Z-16.5
X-1.387 Y30.576
G2 X1 Y31.3 I2.387 J-3.577
G1 X4
G3 X4.7 Y32 J0.7
G1 Y137.005
G2 X5.429 Y139.401 I4.3
X5.596 Y139.489 I0.166 J-0.111
G1 X42.411 Y139.481
G2 X42.577 Y139.392 J-0.2
X43.3 Y137.005 I-3.577 J-2.387
G1 Y32.005
G3 X44 Y31.305 I0.7
G1 X47
G2 X49.396 Y30.575 J-4.3
X49.735 Y27.313 I-1.189 J-1.773
G3 X48.5 Y24.274 I3.119 J-3.039
G1 Y4.006
G2 X44 Y-0.5 I-4.5 J-0.006
G1 X4
G2 X3.945 I-0.027 J4.5
X-0.5 Y4 I0.055 J4.5
G1 Y27
G2 X1 Y28.5 I1.5
G1 X4
G3 X7.5 Y32 I0.001 J3.5
G1 Y106.364
Y137.005
G2 X9 Y138.505 I1.5
G1 X39
G2 X40.5 Y137.005 J-1.5
G1 Y32.005
G3 X44 Y28.504 I3.5
G1 X47
G2 X48.5 Y27.004 J-1.5
G1 Y24.274
G3 X48.557 Y24.098 I0.3
G1 X49.439 Y22.884
X49.478 Y22.83 Z-16.492
X49.515 Y22.779 Z-16.47
X49.549 Y22.733 Z-16.435
X49.577 Y22.695 Z-16.387
X49.598 Y22.666 Z-16.33
X49.611 Y22.648 Z-16.267
X49.615 Y22.642 Z-16.2
G0 Z5
X-3.156 Y35.169
G1 Z-16.95 F400
X-3.148 Y35.171 Z-17.017
X-3.127 Y35.177 Z-17.08
X-3.093 Y35.187 Z-17.137
X-3.047 Y35.199 Z-17.185
X-2.992 Y35.214 Z-17.22
X-2.931 Y35.231 Z-17.242
X-2.866 Y35.249 Z-17.25
X-1.387 Y35.655
G2 X-0.301 Y35.882 I2.401 J-8.747
G3 X0.023 Y36.257 I-0.055 J0.374
G1 X-0.022 Y137.005
G2 X0.301 Y139.399 I9.022
X0.494 Y139.546 I0.193 J-0.053
G1 X47.506 Y139.549
G2 X47.698 Y139.402 J-0.2
X48.022 Y137.005 I-8.698 J-2.397
G1 X47.977 Y36.261
G3 X48.301 Y35.887 I0.378
G2 X49.387 Y35.659 I-1.314 J-8.975
G1 X49.399 Y35.656
X49.463 Y35.638 Z-17.242
X49.524 Y35.622 Z-17.22
X49.579 Y35.607 Z-17.185
X49.625 Y35.594 Z-17.137
X49.659 Y35.585 Z-17.08
X49.681 Y35.579 Z-17.017
X49.688 Y35.577 Z-16.95
G0 Z5
X-3.155 Y32.573
G1 Z-16.95 F400
X-3.148 Y32.575 Z-17.017
X-3.127 Y32.583 Z-17.08
X-3.094 Y32.596 Z-17.137
X-3.05 Y32.613 Z-17.185
X-2.996 Y32.633 Z-17.22
X-2.937 Y32.656 Z-17.242
X-2.875 Y32.68 Z-17.25
X-1.397 Y33.244
G2 X1 Y33.684 I2.384 J-6.244
X1.515 Y33.668 J-8.242
G3 X2.029 Y33.651 I0.515 J8.225
X2.349 Y33.971 J0.319
G1 X2.304 Y137.005
G2 X2.743 Y139.392 I6.697
X2.93 Y139.52 I0.187 J-0.071
G1 X45.07 Y139.521
G2 X45.257 Y139.393 J-0.2
X45.697 Y137.005 I-6.257 J-2.388
G1 X45.652 Y33.975
G3 X45.971 Y33.656 I0.319
X46.486 Y33.672 J8.238
G2 X47 Y33.688 I0.514 J-8.222
X49.387 Y33.249 J-6.697
G1 X49.397 Y33.244
X49.46 Y33.221 Z-17.242
X49.519 Y33.198 Z-17.22
X49.572 Y33.178 Z-17.185
X49.617 Y33.161 Z-17.137
X49.65 Y33.148 Z-17.08
X49.671 Y33.14 Z-17.017
X49.678 Y33.138 Z-16.95
G0 Z5
X-3.151 Y29.399
G1 Z-16.95 F400
X-3.145 Y29.403 Z-17.017
X-3.126 Y29.416 Z-17.08
X-3.097 Y29.435 Z-17.137
X-3.057 Y29.462 Z-17.185
X-3.01 Y29.493 Z-17.22
X-2.957 Y29.529 Z-17.242
X-2.902 Y29.566 Z-17.25
X-1.387 Y30.576
G2 X1 Y31.3 I2.387 J-3.577
G1 X4
G3 X4.7 Y32 J0.7
G1 Y137.005
G2 X5.429 Y139.401 I4.3
X5.596 Y139.489 I0.166 J-0.111
G1 X42.411 Y139.481
G2 X42.577 Y139.392 J-0.2
X43.3 Y137.005 I-3.577 J-2.387
G1 Y32.005
G3 X44 Y31.305 I0.7
G1 X47
G2 X49.396 Y30.575 J-4.3
X49.735 Y27.313 I-1.189 J-1.773
G3 X48.5 Y24.274 I3.119 J-3.039
G1 Y4.006
G2 X44 Y-0.5 I-4.5 J-0.006
G1 X4
G2 X3.945 I-0.027 J4.5
X-0.5 Y4 I0.055 J4.5
G1 Y27
G2 X1 Y28.5 I1.5
G1 X4
G3 X7.5 Y32 I0.001 J3.5
G1 Y106.364
Y137.005
G2 X9 Y138.505 I1.5
G1 X39
G2 X40.5 Y137.005 J-1.5
G1 Y32.005
G3 X44 Y28.504 I3.5
G1 X47
G2 X48.5 Y27.004 J-1.5
G1 Y24.274
G3 X48.557 Y24.098 I0.3
G1 X49.439 Y22.884
X49.478 Y22.83 Z-17.242
X49.515 Y22.779 Z-17.22
X49.549 Y22.733 Z-17.185
X49.577 Y22.695 Z-17.137
X49.598 Y22.666 Z-17.08
X49.611 Y22.648 Z-17.017
X49.615 Y22.642 Z-16.95
G0 Z5
X-3.156 Y35.169
G1 Z-17.7 F400
X-3.148 Y35.171 Z-17.767
X-3.127 Y35.177 Z-17.83
X-3.093 Y35.187 Z-17.887
X-3.047 Y35.199 Z-17.935
X-2.992 Y35.214 Z-17.97
X-2.931 Y35.231 Z-17.992
X-2.866 Y35.249 Z-18
X-1.387 Y35.655
G2 X-0.301 Y35.882 I2.401 J-8.747
G3 X0.023 Y36.257 I-0.055 J0.374
G1 X-0.022 Y137.005
G2 X0.301 Y139.399 I9.022
X0.494 Y139.546 I0.193 J-0.053
G1 X47.506 Y139.549
G2 X47.698 Y139.402 J-0.2
X48.022 Y137.005 I-8.698 J-2.397
G1 X47.977 Y36.261
G3 X48.301 Y35.887 I0.378
G2 X49.387 Y35.659 I-1.314 J-8.975
G1 X49.399 Y35.656
X49.463 Y35.638 Z-17.992
X49.524 Y35.622 Z-17.97
X49.579 Y35.607 Z-17.935
X49.625 Y35.594 Z-17.887
X49.659 Y35.585 Z-17.83
X49.681 Y35.579 Z-17.767
X49.688 Y35.577 Z-17.7
G0 Z5
X-3.155 Y32.573
G1 Z-17.7 F400
X-3.148 Y32.575 Z-17.767
X-3.127 Y32.583 Z-17.83
X-3.094 Y32.596 Z-17.887
X-3.05 Y32.613 Z-17.935
X-2.996 Y32.633 Z-17.97
X-2.937 Y32.656 Z-17.992
X-2.875 Y32.68 Z-18
X-1.397 Y33.244
G2 X1 Y33.684 I2.384 J-6.244
X1.515 Y33.668 J-8.242
G3 X2.029 Y33.651 I0.515 J8.225
X2.349 Y33.971 J0.319
G1 X2.304 Y137.005
G2 X2.743 Y139.392 I6.697
X2.93 Y139.52 I0.187 J-0.071
G1 X45.07 Y139.521
G2 X45.257 Y139.393 J-0.2
X45.697 Y137.005 I-6.257 J-2.388
G1 X45.652 Y33.975
G3 X45.971 Y33.656 I0.319
X46.486 Y33.672 J8.238
G2 X47 Y33.688 I0.514 J-8.222
X49.387 Y33.249 J-6.697
G1 X49.397 Y33.244
X49.46 Y33.221 Z-17.992
X49.519 Y33.198 Z-17.97
X49.572 Y33.178 Z-17.935
X49.617 Y33.161 Z-17.887
X49.65 Y33.148 Z-17.83
X49.671 Y33.14 Z-17.767
X49.678 Y33.138 Z-17.7
G0 Z5
X-3.151 Y29.399
G1 Z-17.7 F400
X-3.145 Y29.403 Z-17.767
X-3.126 Y29.416 Z-17.83
X-3.097 Y29.435 Z-17.887
X-3.057 Y29.462 Z-17.935
X-3.01 Y29.493 Z-17.97
X-2.957 Y29.529 Z-17.992
X-2.902 Y29.566 Z-18
X-1.387 Y30.576
G2 X1 Y31.3 I2.387 J-3.577
G1 X4
G3 X4.7 Y32 J0.7
G1 Y137.005
G2 X5.429 Y139.401 I4.3
X5.596 Y139.489 I0.166 J-0.111
G1 X42.411 Y139.481
G2 X42.577 Y139.392 J-0.2
X43.3 Y137.005 I-3.577 J-2.387
G1 Y32.005
G3 X44 Y31.305 I0.7
G1 X47
G2 X49.396 Y30.575 J-4.3
X49.735 Y27.313 I-1.189 J-1.773
G3 X48.5 Y24.274 I3.119 J-3.039
G1 Y4.006
G2 X44 Y-0.5 I-4.5 J-0.006
G1 X4
G2 X3.945 I-0.027 J4.5
X-0.5 Y4 I0.055 J4.5
G1 Y27
G2 X1 Y28.5 I1.5
G1 X4
G3 X7.5 Y32 I0.001 J3.5
G1 Y106.364
Y137.005
G2 X9 Y138.505 I1.5
G1 X39
G2 X40.5 Y137.005 J-1.5
G1 Y32.005
G3 X44 Y28.504 I3.5
G1 X47
G2 X48.5 Y27.004 J-1.5
G1 Y24.274
G3 X48.557 Y24.098 I0.3
G1 X49.439 Y22.884
X49.478 Y22.83 Z-17.992
X49.515 Y22.779 Z-17.97
X49.549 Y22.733 Z-17.935
X49.577 Y22.695 Z-17.887
X49.598 Y22.666 Z-17.83
X49.611 Y22.648 Z-17.767
X49.615 Y22.642 Z-17.7
G0 Z5
X-3.156 Y35.169
G1 Z-18.45 F400
X-3.148 Y35.171 Z-18.517
X-3.127 Y35.177 Z-18.58
X-3.093 Y35.187 Z-18.637
X-3.047 Y35.199 Z-18.685
X-2.992 Y35.214 Z-18.72
X-2.931 Y35.231 Z-18.742
X-2.866 Y35.249 Z-18.75
X-1.387 Y35.655
G2 X-0.301 Y35.882 I2.401 J-8.747
G3 X0.023 Y36.257 I-0.055 J0.374
G1 X-0.022 Y137.005
G2 X0.301 Y139.399 I9.022
X0.494 Y139.546 I0.193 J-0.053
G1 X47.506 Y139.549
G2 X47.698 Y139.402 J-0.2
X48.022 Y137.005 I-8.698 J-2.397
G1 X47.977 Y36.261
G3 X48.301 Y35.887 I0.378
G2 X49.387 Y35.659 I-1.314 J-8.975
G1 X49.399 Y35.656
X49.463 Y35.638 Z-18.742
X49.524 Y35.622 Z-18.72
X49.579 Y35.607 Z-18.685
X49.625 Y35.594 Z-18.637
X49.659 Y35.585 Z-18.58
X49.681 Y35.579 Z-18.517
X49.688 Y35.577 Z-18.45
G0 Z5
X-3.155 Y32.573
G1 Z-18.45 F400
X-3.148 Y32.575 Z-18.517
X-3.127 Y32.583 Z-18.58
X-3.094 Y32.596 Z-18.637
X-3.05 Y32.613 Z-18.685
X-2.996 Y32.633 Z-18.72
X-2.937 Y32.656 Z-18.742
X-2.875 Y32.68 Z-18.75
X-1.397 Y33.244
G2 X1 Y33.684 I2.384 J-6.244
X1.515 Y33.668 J-8.242
G3 X2.029 Y33.651 I0.515 J8.225
X2.349 Y33.971 J0.319
G1 X2.304 Y137.005
G2 X2.743 Y139.392 I6.697
X2.93 Y139.52 I0.187 J-0.071
G1 X45.07 Y139.521
G2 X45.257 Y139.393 J-0.2
X45.697 Y137.005 I-6.257 J-2.388
G1 X45.652 Y33.975
G3 X45.971 Y33.656 I0.319
X46.486 Y33.672 J8.238
G2 X47 Y33.688 I0.514 J-8.222
X49.387 Y33.249 J-6.697
G1 X49.397 Y33.244
X49.46 Y33.221 Z-18.742
X49.519 Y33.198 Z-18.72
X49.572 Y33.178 Z-18.685
X49.617 Y33.161 Z-18.637
X49.65 Y33.148 Z-18.58
X49.671 Y33.14 Z-18.517
X49.678 Y33.138 Z-18.45
G0 Z5
X-3.151 Y29.399
G1 Z-18.45 F400
X-3.145 Y29.403 Z-18.517
X-3.126 Y29.416 Z-18.58
X-3.097 Y29.435 Z-18.637
X-3.057 Y29.462 Z-18.685
X-3.01 Y29.493 Z-18.72
X-2.957 Y29.529 Z-18.742
X-2.902 Y29.566 Z-18.75
X-1.387 Y30.576
G2 X1 Y31.3 I2.387 J-3.577
G1 X4
G3 X4.7 Y32 J0.7
G1 Y137.005
G2 X5.429 Y139.401 I4.3
X5.596 Y139.489 I0.166 J-0.111
G1 X42.411 Y139.481
G2 X42.577 Y139.392 J-0.2
X43.3 Y137.005 I-3.577 J-2.387
G1 Y32.005
G3 X44 Y31.305 I0.7
G1 X47
G2 X49.396 Y30.575 J-4.3
X49.735 Y27.313 I-1.189 J-1.773
G3 X48.5 Y24.274 I3.119 J-3.039
G1 Y4.006
G2 X44 Y-0.5 I-4.5 J-0.006
G1 X4
G2 X3.945 I-0.027 J4.5
X-0.5 Y4 I0.055 J4.5
G1 Y27
G2 X1 Y28.5 I1.5
G1 X4
G3 X7.5 Y32 I0.001 J3.5
G1 Y106.364
Y137.005
G2 X9 Y138.505 I1.5
G1 X39
G2 X40.5 Y137.005 J-1.5
G1 Y32.005
G3 X44 Y28.504 I3.5
G1 X47
G2 X48.5 Y27.004 J-1.5
G1 Y24.274
G3 X48.557 Y24.098 I0.3
G1 X49.439 Y22.884
X49.478 Y22.83 Z-18.742
X49.515 Y22.779 Z-18.72
X49.549 Y22.733 Z-18.685
X49.577 Y22.695 Z-18.637
X49.598 Y22.666 Z-18.58
X49.611 Y22.648 Z-18.517
X49.615 Y22.642 Z-18.45
G0 Z5
X-3.156 Y35.169
G1 Z-19.2 F400
X-3.148 Y35.171 Z-19.267
X-3.127 Y35.177 Z-19.33
X-3.093 Y35.187 Z-19.387
X-3.047 Y35.199 Z-19.435
X-2.992 Y35.214 Z-19.47
X-2.931 Y35.231 Z-19.492
X-2.866 Y35.249 Z-19.5
X-1.387 Y35.655
G2 X-0.301 Y35.882 I2.401 J-8.747
G3 X0.023 Y36.257 I-0.055 J0.374
G1 X-0.022 Y137.005
G2 X0.301 Y139.399 I9.022
X0.494 Y139.546 I0.193 J-0.053
G1 X47.506 Y139.549
G2 X47.698 Y139.402 J-0.2
X48.022 Y137.005 I-8.698 J-2.397
G1 X47.977 Y36.261
G3 X48.301 Y35.887 I0.378
G2 X49.387 Y35.659 I-1.314 J-8.975
G1 X49.399 Y35.656
X49.463 Y35.638 Z-19.492
X49.524 Y35.622 Z-19.47
X49.579 Y35.607 Z-19.435
X49.625 Y35.594 Z-19.387
X49.659 Y35.585 Z-19.33
X49.681 Y35.579 Z-19.267
X49.688 Y35.577 Z-19.2
G0 Z5
X-3.155 Y32.573
G1 Z-19.2 F400
X-3.148 Y32.575 Z-19.267
X-3.127 Y32.583 Z-19.33
X-3.094 Y32.596 Z-19.387
X-3.05 Y32.613 Z-19.435
X-2.996 Y32.633 Z-19.47
X-2.937 Y32.656 Z-19.492
X-2.875 Y32.68 Z-19.5
X-1.397 Y33.244
G2 X1 Y33.684 I2.384 J-6.244
X1.515 Y33.668 J-8.242
G3 X2.029 Y33.651 I0.515 J8.225
X2.349 Y33.971 J0.319
G1 X2.304 Y137.005
G2 X2.743 Y139.392 I6.697
X2.93 Y139.52 I0.187 J-0.071
G1 X45.07 Y139.521
G2 X45.257 Y139.393 J-0.2
X45.697 Y137.005 I-6.257 J-2.388
G1 X45.652 Y33.975
G3 X45.971 Y33.656 I0.319
X46.486 Y33.672 J8.238
G2 X47 Y33.688 I0.514 J-8.222
X49.387 Y33.249 J-6.697
G1 X49.397 Y33.244
X49.46 Y33.221 Z-19.492
X49.519 Y33.198 Z-19.47
X49.572 Y33.178 Z-19.435
X49.617 Y33.161 Z-19.387
X49.65 Y33.148 Z-19.33
X49.671 Y33.14 Z-19.267
X49.678 Y33.138 Z-19.2
G0 Z5
X-3.151 Y29.399
G1 Z-19.2 F400
X-3.145 Y29.403 Z-19.267
X-3.126 Y29.416 Z-19.33
X-3.097 Y29.435 Z-19.387
X-3.057 Y29.462 Z-19.435
X-3.01 Y29.493 Z-19.47
X-2.957 Y29.529 Z-19.492
X-2.902 Y29.566 Z-19.5
X-1.387 Y30.576
G2 X1 Y31.3 I2.387 J-3.577
G1 X4
G3 X4.7 Y32 J0.7
G1 Y137.005
G2 X5.429 Y139.401 I4.3
X5.596 Y139.489 I0.166 J-0.111
G1 X42.411 Y139.481
G2 X42.577 Y139.392 J-0.2
X43.3 Y137.005 I-3.577 J-2.387
G1 Y32.005
G3 X44 Y31.305 I0.7
G1 X47
G2 X49.396 Y30.575 J-4.3
X49.735 Y27.313 I-1.189 J-1.773
G3 X48.5 Y24.274 I3.119 J-3.039
G1 Y4.006
G2 X44 Y-0.5 I-4.5 J-0.006
G1 X4
G2 X3.945 I-0.027 J4.5
X-0.5 Y4 I0.055 J4.5
G1 Y27
G2 X1 Y28.5 I1.5
G1 X4
G3 X7.5 Y32 I0.001 J3.5
G1 Y106.364
Y137.005
G2 X9 Y138.505 I1.5
G1 X39
G2 X40.5 Y137.005 J-1.5
G1 Y32.005
G3 X44 Y28.504 I3.5
G1 X47
G2 X48.5 Y27.004 J-1.5
G1 Y24.274
G3 X48.557 Y24.098 I0.3
G1 X49.439 Y22.884
X49.478 Y22.83 Z-19.492
X49.515 Y22.779 Z-19.47
X49.549 Y22.733 Z-19.435
X49.577 Y22.695 Z-19.387
X49.598 Y22.666 Z-19.33
X49.611 Y22.648 Z-19.267
X49.615 Y22.642 Z-19.2
G0 Z5
X-3.156 Y35.169
G1 Z-19.7 F400
X-3.148 Y35.171 Z-19.767
X-3.127 Y35.177 Z-19.83
X-3.093 Y35.187 Z-19.887
X-3.047 Y35.199 Z-19.935
X-2.992 Y35.214 Z-19.97
X-2.931 Y35.231 Z-19.992
X-2.866 Y35.249 Z-20
X-1.387 Y35.655
G2 X-0.301 Y35.882 I2.401 J-8.747
G3 X0.023 Y36.257 I-0.055 J0.374
G1 X-0.022 Y137.005
G2 X0.301 Y139.399 I9.022
X0.494 Y139.546 I0.193 J-0.053
G1 X47.506 Y139.549
G2 X47.698 Y139.402 J-0.2
X48.022 Y137.005 I-8.698 J-2.397
G1 X47.977 Y36.261
G3 X48.301 Y35.887 I0.378
G2 X49.387 Y35.659 I-1.314 J-8.975
G1 X49.399 Y35.656
X49.463 Y35.638 Z-19.992
X49.524 Y35.622 Z-19.97
X49.579 Y35.607 Z-19.935
X49.625 Y35.594 Z-19.887
X49.659 Y35.585 Z-19.83
X49.681 Y35.579 Z-19.767
X49.688 Y35.577 Z-19.7
G0 Z5
X-3.155 Y32.573
G1 Z-19.7 F400
X-3.148 Y32.575 Z-19.767
X-3.127 Y32.583 Z-19.83
X-3.094 Y32.596 Z-19.887
X-3.05 Y32.613 Z-19.935
X-2.996 Y32.633 Z-19.97
X-2.937 Y32.656 Z-19.992
X-2.875 Y32.68 Z-20
X-1.397 Y33.244
G2 X1 Y33.684 I2.384 J-6.244
X1.515 Y33.668 J-8.242
G3 X2.029 Y33.651 I0.515 J8.225
X2.349 Y33.971 J0.319
G1 X2.304 Y137.005
G2 X2.743 Y139.392 I6.697
X2.93 Y139.52 I0.187 J-0.071
G1 X45.07 Y139.521
G2 X45.257 Y139.393 J-0.2
X45.697 Y137.005 I-6.257 J-2.388
G1 X45.652 Y33.975
G3 X45.971 Y33.656 I0.319
X46.486 Y33.672 J8.238
G2 X47 Y33.688 I0.514 J-8.222
X49.387 Y33.249 J-6.697
G1 X49.397 Y33.244
X49.46 Y33.221 Z-19.992
X49.519 Y33.198 Z-19.97
X49.572 Y33.178 Z-19.935
X49.617 Y33.161 Z-19.887
X49.65 Y33.148 Z-19.83
X49.671 Y33.14 Z-19.767
X49.678 Y33.138 Z-19.7
G0 Z5
X-3.151 Y29.399
G1 Z-19.7 F400
X-3.145 Y29.403 Z-19.767
X-3.126 Y29.416 Z-19.83
X-3.097 Y29.435 Z-19.887
X-3.057 Y29.462 Z-19.935
X-3.01 Y29.493 Z-19.97
X-2.957 Y29.529 Z-19.992
X-2.902 Y29.566 Z-20
X-1.387 Y30.576
G2 X1 Y31.3 I2.387 J-3.577
G1 X4
G3 X4.7 Y32 J0.7
G1 Y137.005
G2 X5.429 Y139.401 I4.3
X5.596 Y139.489 I0.166 J-0.111
G1 X42.411 Y139.481
G2 X42.577 Y139.392 J-0.2
X43.3 Y137.005 I-3.577 J-2.387
G1 Y32.005
G3 X44 Y31.305 I0.7
G1 X47
G2 X49.396 Y30.575 J-4.3
X49.735 Y27.313 I-1.189 J-1.773
G3 X48.5 Y24.274 I3.119 J-3.039
G1 Y4.006
G2 X44 Y-0.5 I-4.5 J-0.006
G1 X4
G2 X3.945 I-0.027 J4.5
X-0.5 Y4 I0.055 J4.5
G1 Y27
G2 X1 Y28.5 I1.5
G1 X4
G3 X7.5 Y32 I0.001 J3.5
G1 Y106.364
Y137.005
G2 X9 Y138.505 I1.5
G1 X39
G2 X40.5 Y137.005 J-1.5
G1 Y32.005
G3 X44 Y28.504 I3.5
G1 X47
G2 X48.5 Y27.004 J-1.5
G1 Y24.274
G3 X48.557 Y24.098 I0.3
G1 X49.439 Y22.884
X49.478 Y22.83 Z-19.992
X49.515 Y22.779 Z-19.97
X49.549 Y22.733 Z-19.935
X49.577 Y22.695 Z-19.887
X49.598 Y22.666 Z-19.83
X49.611 Y22.648 Z-19.767
X49.615 Y22.642 Z-19.7
G0 Z15
M9
G28 G91 Z0
G28 X0 Y0
M30
%
