%
(1)
(T1  D=3 CR=0 - ZMIN=-19.5 - flat end mill)
G90 G94
G17
G21
G28 G91 Z0
G90

(2D Pocket2)
M9
T1 M6
S17507 M3
G54
M8
G0 X23.25 Y71.173
Z15
Z5
G1 Z2.8 F600
G19 G2 Y70.884 Z2.5 J-0.3
G1 Y35.648 Z1.27
G17 G3 X24.75 Z1.187 I0.75
G1 Y95.644 Z-0.908
G3 X24.002 Y96.398 Z-0.949 I-0.75 J0.004
X23.25 Y95.647 Z-0.99 I-0.002 J-0.75
G1 Y95.369 Z-1
Y35.648
G3 X24.75 I0.75
G1 Y95.644
G3 X24.002 Y96.398 I-0.75 J0.004
X23.25 Y95.647 I-0.002 J-0.75
G1 Y95.369
Y66.733 Z-2
Y35.648
G3 X24.75 I0.75
G1 Y95.644
G3 X24.002 Y96.398 I-0.75 J0.004
X23.25 Y95.647 I-0.002 J-0.75
G1 Y66.733
Y38.097 Z-3
Y35.648
G3 X24.75 I0.75
G1 Y95.644
G3 X24.002 Y96.398 I-0.75 J0.004
X23.25 Y95.647 I-0.002 J-0.75
G1 Y66.733
Y38.097
Y35.648 Z-3.086
G3 X24.75 Z-3.168 I0.75
G1 Y59.48 Z-4
Y95.644
G3 X24.002 Y96.398 I-0.75 J0.004
X23.25 Y95.647 I-0.002 J-0.75
G1 Y38.097
Y35.648
G3 X24.75 I0.75
G1 Y59.48
Y88.116 Z-5
Y95.644
G3 X24.002 Y96.398 I-0.75 J0.004
X23.25 Y95.647 I-0.002 J-0.75
G1 Y35.648
G3 X24.75 I0.75
G1 Y88.116
Y95.644 Z-5.263
G3 X24.002 Y96.398 Z-5.304 I-0.75 J0.004
X23.25 Y95.647 Z-5.345 I-0.002 J-0.75
G1 Y76.9 Z-6
Y35.648
G3 X24.75 I0.75
G1 Y88.116
Y95.644
G3 X24.002 Y96.398 I-0.75 J0.004
X23.25 Y95.647 I-0.002 J-0.75
G1 Y76.9
Y48.264 Z-7
Y35.648
G3 X24.75 I0.75
G1 Y95.644
G3 X24.002 Y96.398 I-0.75 J0.004
X23.25 Y95.647 I-0.002 J-0.75
G1 Y48.264
Y35.648 Z-7.441
G3 X24.75 Z-7.523 I0.75
G1 Y49.312 Z-8
Y95.644
G3 X24.002 Y96.398 I-0.75 J0.004
X23.25 Y95.647 I-0.002 J-0.75
G1 Y48.264
Y35.648
G3 X24.75 I0.75
G1 Y49.312
Y77.949 Z-9
Y95.644
G3 X24.002 Y96.398 I-0.75 J0.004
X23.25 Y95.647 I-0.002 J-0.75
G1 Y35.648
G3 X24.75 I0.75
G1 Y77.949
Y95.644 Z-9.618
G3 X24.002 Y96.398 Z-9.659 I-0.75 J0.004
X23.25 Y95.647 Z-9.7 I-0.002 J-0.75
G1 Y87.067 Z-10
Y35.648
G3 X24.75 I0.75
G1 Y77.949
Y95.644
G3 X24.002 Y96.398 I-0.75 J0.004
X23.25 Y95.647 I-0.002 J-0.75
G1 Y87.067
Y58.431 Z-11
Y35.648
G3 X24.75 I0.75
G1 Y95.644
G3 X24.002 Y96.398 I-0.75 J0.004
X23.25 Y95.647 I-0.002 J-0.75
G1 Y58.431
Y35.648 Z-11.796
G3 X24.75 Z-11.878 I0.75
G1 Y39.145 Z-12
Y95.644
G3 X24.002 Y96.398 I-0.75 J0.004
X23.25 Y95.647 I-0.002 J-0.75
G1 Y58.431
Y35.648
G3 X24.75 I0.75
G1 Y39.145
Y67.781 Z-13
Y95.644
G3 X24.002 Y96.398 I-0.75 J0.004
X23.25 Y95.647 I-0.002 J-0.75
G1 Y35.648
G3 X24.75 I0.75
G1 Y67.781
Y95.644 Z-13.973
G3 X24.389 Y96.29 Z-14 I-0.75 J0.004
X23.25 Y95.647 I-0.389 J-0.641
G1 Y35.648
G3 X24.75 I0.75
G1 Y67.781
Y95.644
G3 X24.389 Y96.29 I-0.75 J0.004
X23.25 Y95.647 Z-14.055 I-0.389 J-0.641
G1 Y68.598 Z-15
Y35.648
G3 X24.75 I0.75
G1 Y95.644
G3 X24.002 Y96.398 I-0.75 J0.004
X23.25 Y95.647 I-0.002 J-0.75
G1 Y68.598
Y39.962 Z-16
Y35.648
G3 X24.75 I0.75
G1 Y95.644
G3 X24.002 Y96.398 I-0.75 J0.004
X23.25 Y95.647 I-0.002 J-0.75
G1 Y39.962
Y35.648 Z-16.151
G3 X24.75 Z-16.233 I0.75
G1 Y57.614 Z-17
Y95.644
G3 X24.002 Y96.398 I-0.75 J0.004
X23.25 Y95.647 I-0.002 J-0.75
G1 Y39.962
Y35.648
G3 X24.75 I0.75
G1 Y57.614
Y86.25 Z-18
Y95.644
G3 X24.002 Y96.398 I-0.75 J0.004
X23.25 Y95.647 I-0.002 J-0.75
G1 Y35.648
G3 X24.75 I0.75
G1 Y86.25
Y95.644 Z-18.328
G3 X24.002 Y96.398 Z-18.369 I-0.75 J0.004
X23.25 Y95.647 Z-18.41 I-0.002 J-0.75
G1 Y78.766 Z-19
Y35.648
G3 X24.75 I0.75
G1 Y86.25
Y95.644
G3 X24.002 Y96.398 I-0.75 J0.004
X23.25 Y95.647 I-0.002 J-0.75
G1 Y78.766
Y64.448 Z-19.5
Y35.648
G3 X24.75 I0.75
G1 Y95.644
G3 X24.002 Y96.398 I-0.75 J0.004
X23.25 Y95.647 I-0.002 J-0.75
G1 Y78.766
Y64.448
G3 X23.272 Y64.336 Z-19.477 I0.3
X23.322 Y64.253 Z-19.412 I0.278 J0.112
X23.369 Y64.208 Z-19.315 I0.228 J0.195
X23.388 Y64.195 Z-19.2 I0.181 J0.239
G0 Z15
M9
G28 G91 Z0
G28 X0 Y0
M30
%
