%
(1)
(T1  D=3 CR=0 - ZMIN=-20 - flat end mill)
G90 G94
G17
G21
G28 G91 Z0
G90

(Pocket2)
M9
T1 M6
S17507 M3
G54
M8
G0 X23.794 Y94.032
Z15
Z1.5
G1 Z0.825 F600
G3 X23.807 Y94.027 Z0.734 I0.53 J1.323
X23.845 Y94.013 Z0.652 I0.517 J1.328
X23.906 Y93.993 Z0.586 I0.478 J1.342
X23.983 Y93.971 Z0.542 I0.418 J1.362
X24.072 Y93.953 Z0.525 I0.34 J1.384
X24.575 Y96.758 Z0.369 I0.252 J1.403
X24.072 Y93.953 Z0.212 I-0.252 J-1.403
X24.575 Y96.758 Z0.056 I0.252 J1.403
X24.072 Y93.953 Z-0.1 I-0.252 J-1.403
X24.575 Y96.758 Z-0.257 I0.252 J1.403
X24.072 Y93.953 Z-0.413 I-0.252 J-1.403
X25.748 Y95.355 Z-0.5 I0.252 J1.403
X23.437 I-1.156
G1 X23.438 Y35.928
G3 X23.445 Y35.839 I0.499
G1 X23.497 Y35.551
G3 X23.668 Y35.256 I0.491 J0.088
G1 X23.673 Y35.252
G3 X23.823 Y35.166 I0.321 J0.383
X23.998 Y35.134 I0.174 J0.468
X24.173 Y35.164 I0.005 J0.499
X24.327 Y35.252 I-0.167 J0.471
G1 X24.332 Y35.256
G3 X24.503 Y35.551 I-0.32 J0.383
G1 X24.555 Y35.839
G3 X24.563 Y35.928 I-0.491 J0.088
G1 Y95.361
G3 X24.556 Y95.446 I-0.499
G1 X24.505 Y95.737
G3 X24.446 Y95.9 I-0.492 J-0.086
G1 X24.442 Y95.907
G3 X24.182 Y96.127 I-0.433 J-0.249
G1 X24.173 Y96.13
G3 X23.828 I-0.172 J-0.469
G1 X23.818 Y96.127
G3 X23.558 Y95.907 I0.173 J-0.469
G1 X23.554 Y95.9
G3 X23.495 Y95.737 I0.433 J-0.249
G1 X23.444 Y95.446
G3 X23.437 Y95.361 I0.492 J-0.086
G1 Y95.355
G2 X22.844 Y94.465 I-0.964
G3 X22.25 Y93.575 I0.371 J-0.89
G1 X22.251 Y35.777
X22.382 Y35.05
X22.677 Y34.538
X23.139 Y34.152
X23.7 Y33.947
X24.3
X24.861 Y34.152
X25.323 Y34.538
X25.619 Y35.05
X25.75 Y35.777
Y95.506
X25.623 Y96.234
X25.321 Y96.76
X24.87 Y97.138
X24.298 Y97.349
X23.702
X23.13 Y97.138
X22.679 Y96.76
X22.377 Y96.234
X22.25 Y95.506
Y93.575
G3 X22.462 Y93.438 I0.15
G1 X24.774 Y94.474
G3 X24.834 Y94.524 I-0.061 J0.137
X22.52 Y96.187 Z-0.656 I-1.157 J0.831
X24.834 Y94.524 Z-0.813 I1.157 J-0.831
X22.52 Y96.187 Z-0.969 I-1.157 J0.831
X22.252 Y95.355 Z-1 I1.157 J-0.831
X23.408 Y94.199 I1.156
X24.563 Y95.355 J1.156
G1 Y95.361
G3 X24.556 Y95.446 I-0.499
G1 X24.505 Y95.737
G3 X24.446 Y95.9 I-0.492 J-0.086
G1 X24.442 Y95.907
G3 X24.182 Y96.127 I-0.433 J-0.249
G1 X24.173 Y96.13
G3 X23.828 I-0.172 J-0.469
G1 X23.818 Y96.127
G3 X23.558 Y95.907 I0.173 J-0.469
G1 X23.554 Y95.9
G3 X23.495 Y95.737 I0.433 J-0.249
G1 X23.444 Y95.446
G3 X23.437 Y95.361 I0.492 J-0.086
G1 X23.438 Y35.928
G3 X23.445 Y35.839 I0.499
G1 X23.497 Y35.551
G3 X23.668 Y35.256 I0.491 J0.088
G1 X23.673 Y35.252
G3 X23.823 Y35.166 I0.321 J0.383
X23.998 Y35.134 I0.174 J0.468
X24.173 Y35.164 I0.005 J0.499
X24.327 Y35.252 I-0.167 J0.471
G1 X24.332 Y35.256
G3 X24.503 Y35.551 I-0.32 J0.383
G1 X24.555 Y35.839
G3 X24.563 Y35.928 I-0.491 J0.088
G1 Y95.355
G2 X25.009 Y96.089 I0.826
G3 X25.104 Y96.942 I-0.237 J0.458
G1 X24.87 Y97.138
X24.298 Y97.349
X23.702
X23.13 Y97.138
X22.679 Y96.76
X22.377 Y96.234
X22.25 Y95.506
X22.251 Y35.777
X22.382 Y35.05
X22.677 Y34.538
X23.139 Y34.152
X23.7 Y33.947
X24.3
X24.861 Y34.152
X25.323 Y34.538
X25.619 Y35.05
X25.75 Y35.777
Y95.506
X25.623 Y96.234
X25.321 Y96.76
X25.104 Y96.942
G3 X24.949 Y96.965 I-0.096 J-0.115
G1 X23.229 Y96.237
G3 X23.166 Y96.187 I0.058 J-0.138
X25.481 Y94.524 Z-1.156 I1.157 J-0.831
X23.166 Y96.187 Z-1.313 I-1.157 J0.831
X25.481 Y94.524 Z-1.469 I1.157 J-0.831
X25.748 Y95.355 Z-1.5 I-1.157 J0.831
X23.437 I-1.156
G1 X23.438 Y35.928
G3 X23.445 Y35.839 I0.499
G1 X23.497 Y35.551
G3 X23.668 Y35.256 I0.491 J0.088
G1 X23.673 Y35.252
G3 X23.823 Y35.166 I0.321 J0.383
X23.998 Y35.134 I0.174 J0.468
X24.173 Y35.164 I0.005 J0.499
X24.327 Y35.252 I-0.167 J0.471
G1 X24.332 Y35.256
G3 X24.503 Y35.551 I-0.32 J0.383
G1 X24.555 Y35.839
G3 X24.563 Y35.928 I-0.491 J0.088
G1 Y95.361
G3 X24.556 Y95.446 I-0.499
G1 X24.505 Y95.737
G3 X24.446 Y95.9 I-0.492 J-0.086
G1 X24.442 Y95.907
G3 X24.182 Y96.127 I-0.433 J-0.249
G1 X24.173 Y96.13
G3 X23.828 I-0.172 J-0.469
G1 X23.818 Y96.127
G3 X23.558 Y95.907 I0.173 J-0.469
G1 X23.554 Y95.9
G3 X23.495 Y95.737 I0.433 J-0.249
G1 X23.444 Y95.446
G3 X23.437 Y95.361 I0.492 J-0.086
G1 Y95.355
G2 X22.844 Y94.465 I-0.964
G3 X22.25 Y93.575 I0.371 J-0.89
G1 X22.251 Y35.777
X22.382 Y35.05
X22.677 Y34.538
X23.139 Y34.152
X23.7 Y33.947
X24.3
X24.861 Y34.152
X25.323 Y34.538
X25.619 Y35.05
X25.75 Y35.777
Y95.506
X25.623 Y96.234
X25.321 Y96.76
X24.87 Y97.138
X24.298 Y97.349
X23.702
X23.13 Y97.138
X22.679 Y96.76
X22.377 Y96.234
X22.25 Y95.506
Y93.575
G3 X22.462 Y93.438 I0.15
G1 X24.774 Y94.474
G3 X24.834 Y94.524 I-0.061 J0.137
X22.52 Y96.187 Z-1.656 I-1.157 J0.831
X24.834 Y94.524 Z-1.813 I1.157 J-0.831
X22.52 Y96.187 Z-1.969 I-1.157 J0.831
X22.252 Y95.355 Z-2 I1.157 J-0.831
X23.408 Y94.199 I1.156
X24.563 Y95.355 J1.156
G1 Y95.361
G3 X24.556 Y95.446 I-0.499
G1 X24.505 Y95.737
G3 X24.446 Y95.9 I-0.492 J-0.086
G1 X24.442 Y95.907
G3 X24.182 Y96.127 I-0.433 J-0.249
G1 X24.173 Y96.13
G3 X23.828 I-0.172 J-0.469
G1 X23.818 Y96.127
G3 X23.558 Y95.907 I0.173 J-0.469
G1 X23.554 Y95.9
G3 X23.495 Y95.737 I0.433 J-0.249
G1 X23.444 Y95.446
G3 X23.437 Y95.361 I0.492 J-0.086
G1 X23.438 Y35.928
G3 X23.445 Y35.839 I0.499
G1 X23.497 Y35.551
G3 X23.668 Y35.256 I0.491 J0.088
G1 X23.673 Y35.252
G3 X23.823 Y35.166 I0.321 J0.383
X23.998 Y35.134 I0.174 J0.468
X24.173 Y35.164 I0.005 J0.499
X24.327 Y35.252 I-0.167 J0.471
G1 X24.332 Y35.256
G3 X24.503 Y35.551 I-0.32 J0.383
G1 X24.555 Y35.839
G3 X24.563 Y35.928 I-0.491 J0.088
G1 Y95.355
G2 X25.009 Y96.089 I0.826
G3 X25.104 Y96.942 I-0.237 J0.458
G1 X24.87 Y97.138
X24.298 Y97.349
X23.702
X23.13 Y97.138
X22.679 Y96.76
X22.377 Y96.234
X22.25 Y95.506
X22.251 Y35.777
X22.382 Y35.05
X22.677 Y34.538
X23.139 Y34.152
X23.7 Y33.947
X24.3
X24.861 Y34.152
X25.323 Y34.538
X25.619 Y35.05
X25.75 Y35.777
Y95.506
X25.623 Y96.234
X25.321 Y96.76
X25.104 Y96.942
G3 X24.949 Y96.965 I-0.096 J-0.115
G1 X23.229 Y96.237
G3 X23.166 Y96.187 I0.058 J-0.138
X25.481 Y94.524 Z-2.156 I1.157 J-0.831
X23.166 Y96.187 Z-2.313 I-1.157 J0.831
X25.481 Y94.524 Z-2.469 I1.157 J-0.831
X25.748 Y95.355 Z-2.5 I-1.157 J0.831
X23.437 I-1.156
G1 X23.438 Y35.928
G3 X23.445 Y35.839 I0.499
G1 X23.497 Y35.551
G3 X23.668 Y35.256 I0.491 J0.088
G1 X23.673 Y35.252
G3 X23.823 Y35.166 I0.321 J0.383
X23.998 Y35.134 I0.174 J0.468
X24.173 Y35.164 I0.005 J0.499
X24.327 Y35.252 I-0.167 J0.471
G1 X24.332 Y35.256
G3 X24.503 Y35.551 I-0.32 J0.383
G1 X24.555 Y35.839
G3 X24.563 Y35.928 I-0.491 J0.088
G1 Y95.361
G3 X24.556 Y95.446 I-0.499
G1 X24.505 Y95.737
G3 X24.446 Y95.9 I-0.492 J-0.086
G1 X24.442 Y95.907
G3 X24.182 Y96.127 I-0.433 J-0.249
G1 X24.173 Y96.13
G3 X23.828 I-0.172 J-0.469
G1 X23.818 Y96.127
G3 X23.558 Y95.907 I0.173 J-0.469
G1 X23.554 Y95.9
G3 X23.495 Y95.737 I0.433 J-0.249
G1 X23.444 Y95.446
G3 X23.437 Y95.361 I0.492 J-0.086
G1 Y95.355
G2 X22.844 Y94.465 I-0.964
G3 X22.25 Y93.575 I0.371 J-0.89
G1 X22.251 Y35.777
X22.382 Y35.05
X22.677 Y34.538
X23.139 Y34.152
X23.7 Y33.947
X24.3
X24.861 Y34.152
X25.323 Y34.538
X25.619 Y35.05
X25.75 Y35.777
Y95.506
X25.623 Y96.234
X25.321 Y96.76
X24.87 Y97.138
X24.298 Y97.349
X23.702
X23.13 Y97.138
X22.679 Y96.76
X22.377 Y96.234
X22.25 Y95.506
Y93.575
G3 X22.462 Y93.438 I0.15
G1 X24.774 Y94.474
G3 X24.834 Y94.524 I-0.061 J0.137
X22.52 Y96.187 Z-2.656 I-1.157 J0.831
X24.834 Y94.524 Z-2.813 I1.157 J-0.831
X22.52 Y96.187 Z-2.969 I-1.157 J0.831
X22.252 Y95.355 Z-3 I1.157 J-0.831
X23.408 Y94.199 I1.156
X24.563 Y95.355 J1.156
G1 Y95.361
G3 X24.556 Y95.446 I-0.499
G1 X24.505 Y95.737
G3 X24.446 Y95.9 I-0.492 J-0.086
G1 X24.442 Y95.907
G3 X24.182 Y96.127 I-0.433 J-0.249
G1 X24.173 Y96.13
G3 X23.828 I-0.172 J-0.469
G1 X23.818 Y96.127
G3 X23.558 Y95.907 I0.173 J-0.469
G1 X23.554 Y95.9
G3 X23.495 Y95.737 I0.433 J-0.249
G1 X23.444 Y95.446
G3 X23.437 Y95.361 I0.492 J-0.086
G1 X23.438 Y35.928
G3 X23.445 Y35.839 I0.499
G1 X23.497 Y35.551
G3 X23.668 Y35.256 I0.491 J0.088
G1 X23.673 Y35.252
G3 X23.823 Y35.166 I0.321 J0.383
X23.998 Y35.134 I0.174 J0.468
X24.173 Y35.164 I0.005 J0.499
X24.327 Y35.252 I-0.167 J0.471
G1 X24.332 Y35.256
G3 X24.503 Y35.551 I-0.32 J0.383
G1 X24.555 Y35.839
G3 X24.563 Y35.928 I-0.491 J0.088
G1 Y95.355
G2 X25.009 Y96.089 I0.826
G3 X25.104 Y96.942 I-0.237 J0.458
G1 X24.87 Y97.138
X24.298 Y97.349
X23.702
X23.13 Y97.138
X22.679 Y96.76
X22.377 Y96.234
X22.25 Y95.506
X22.251 Y35.777
X22.382 Y35.05
X22.677 Y34.538
X23.139 Y34.152
X23.7 Y33.947
X24.3
X24.861 Y34.152
X25.323 Y34.538
X25.619 Y35.05
X25.75 Y35.777
Y95.506
X25.623 Y96.234
X25.321 Y96.76
X25.104 Y96.942
G3 X24.949 Y96.965 I-0.096 J-0.115
G1 X23.229 Y96.237
G3 X23.166 Y96.187 I0.058 J-0.138
X25.481 Y94.524 Z-3.156 I1.157 J-0.831
X23.166 Y96.187 Z-3.313 I-1.157 J0.831
X25.481 Y94.524 Z-3.469 I1.157 J-0.831
X25.748 Y95.355 Z-3.5 I-1.157 J0.831
X23.437 I-1.156
G1 X23.438 Y35.928
G3 X23.445 Y35.839 I0.499
G1 X23.497 Y35.551
G3 X23.668 Y35.256 I0.491 J0.088
G1 X23.673 Y35.252
G3 X23.823 Y35.166 I0.321 J0.383
X23.998 Y35.134 I0.174 J0.468
X24.173 Y35.164 I0.005 J0.499
X24.327 Y35.252 I-0.167 J0.471
G1 X24.332 Y35.256
G3 X24.503 Y35.551 I-0.32 J0.383
G1 X24.555 Y35.839
G3 X24.563 Y35.928 I-0.491 J0.088
G1 Y95.361
G3 X24.556 Y95.446 I-0.499
G1 X24.505 Y95.737
G3 X24.446 Y95.9 I-0.492 J-0.086
G1 X24.442 Y95.907
G3 X24.182 Y96.127 I-0.433 J-0.249
G1 X24.173 Y96.13
G3 X23.828 I-0.172 J-0.469
G1 X23.818 Y96.127
G3 X23.558 Y95.907 I0.173 J-0.469
G1 X23.554 Y95.9
G3 X23.495 Y95.737 I0.433 J-0.249
G1 X23.444 Y95.446
G3 X23.437 Y95.361 I0.492 J-0.086
G1 Y95.355
G2 X22.844 Y94.465 I-0.964
G3 X22.25 Y93.575 I0.371 J-0.89
G1 X22.251 Y35.777
X22.382 Y35.05
X22.677 Y34.538
X23.139 Y34.152
X23.7 Y33.947
X24.3
X24.861 Y34.152
X25.323 Y34.538
X25.619 Y35.05
X25.75 Y35.777
Y95.506
X25.623 Y96.234
X25.321 Y96.76
X24.87 Y97.138
X24.298 Y97.349
X23.702
X23.13 Y97.138
X22.679 Y96.76
X22.377 Y96.234
X22.25 Y95.506
Y93.575
G3 X22.542 Y93.525 I0.15
G1 X23.429 Y96.049
G3 X23.166 Y96.187 I-0.142 J0.05
X25.481 Y94.524 Z-3.656 I1.157 J-0.831
X23.166 Y96.187 Z-3.813 I-1.157 J0.831
X25.481 Y94.524 Z-3.969 I1.157 J-0.831
X25.748 Y95.355 Z-4 I-1.157 J0.831
X23.437 I-1.156
G1 X23.438 Y35.928
G3 X23.445 Y35.839 I0.499
G1 X23.497 Y35.551
G3 X23.668 Y35.256 I0.491 J0.088
G1 X23.673 Y35.252
G3 X23.823 Y35.166 I0.321 J0.383
X23.998 Y35.134 I0.174 J0.468
X24.173 Y35.164 I0.005 J0.499
X24.327 Y35.252 I-0.167 J0.471
G1 X24.332 Y35.256
G3 X24.503 Y35.551 I-0.32 J0.383
G1 X24.555 Y35.839
G3 X24.563 Y35.928 I-0.491 J0.088
G1 Y95.361
G3 X24.556 Y95.446 I-0.499
G1 X24.505 Y95.737
G3 X24.446 Y95.9 I-0.492 J-0.086
G1 X24.442 Y95.907
G3 X24.182 Y96.127 I-0.433 J-0.249
G1 X24.173 Y96.13
G3 X23.828 I-0.172 J-0.469
G1 X23.818 Y96.127
G3 X23.558 Y95.907 I0.173 J-0.469
G1 X23.554 Y95.9
G3 X23.495 Y95.737 I0.433 J-0.249
G1 X23.444 Y95.446
G3 X23.437 Y95.361 I0.492 J-0.086
G1 Y95.355
G2 X22.844 Y94.465 I-0.964
G3 X22.25 Y93.575 I0.371 J-0.89
G1 X22.251 Y35.777
X22.382 Y35.05
X22.677 Y34.538
X23.139 Y34.152
X23.7 Y33.947
X24.3
X24.861 Y34.152
X25.323 Y34.538
X25.619 Y35.05
X25.75 Y35.777
Y95.506
X25.623 Y96.234
X25.321 Y96.76
X24.87 Y97.138
X24.298 Y97.349
X23.702
X23.13 Y97.138
X22.679 Y96.76
X22.377 Y96.234
X22.25 Y95.506
Y93.575
G3 X22.462 Y93.438 I0.15
G1 X24.774 Y94.474
G3 X24.834 Y94.524 I-0.061 J0.137
X22.52 Y96.187 Z-4.156 I-1.157 J0.831
X24.834 Y94.524 Z-4.313 I1.157 J-0.831
X22.52 Y96.187 Z-4.469 I-1.157 J0.831
X22.252 Y95.355 Z-4.5 I1.157 J-0.831
X23.408 Y94.199 I1.156
X24.563 Y95.355 J1.156
G1 Y95.361
G3 X24.556 Y95.446 I-0.499
G1 X24.505 Y95.737
G3 X24.446 Y95.9 I-0.492 J-0.086
G1 X24.442 Y95.907
G3 X24.182 Y96.127 I-0.433 J-0.249
G1 X24.173 Y96.13
G3 X23.828 I-0.172 J-0.469
G1 X23.818 Y96.127
G3 X23.558 Y95.907 I0.173 J-0.469
G1 X23.554 Y95.9
G3 X23.495 Y95.737 I0.433 J-0.249
G1 X23.444 Y95.446
G3 X23.437 Y95.361 I0.492 J-0.086
G1 X23.438 Y35.928
G3 X23.445 Y35.839 I0.499
G1 X23.497 Y35.551
G3 X23.668 Y35.256 I0.491 J0.088
G1 X23.673 Y35.252
G3 X23.823 Y35.166 I0.321 J0.383
X23.998 Y35.134 I0.174 J0.468
X24.173 Y35.164 I0.005 J0.499
X24.327 Y35.252 I-0.167 J0.471
G1 X24.332 Y35.256
G3 X24.503 Y35.551 I-0.32 J0.383
G1 X24.555 Y35.839
G3 X24.563 Y35.928 I-0.491 J0.088
G1 Y95.355
G2 X25.009 Y96.089 I0.826
G3 X25.104 Y96.942 I-0.237 J0.458
G1 X24.87 Y97.138
X24.298 Y97.349
X23.702
X23.13 Y97.138
X22.679 Y96.76
X22.377 Y96.234
X22.25 Y95.506
X22.251 Y35.777
X22.382 Y35.05
X22.677 Y34.538
X23.139 Y34.152
X23.7 Y33.947
X24.3
X24.861 Y34.152
X25.323 Y34.538
X25.619 Y35.05
X25.75 Y35.777
Y95.506
X25.623 Y96.234
X25.321 Y96.76
X25.104 Y96.942
G3 X24.949 Y96.965 I-0.096 J-0.115
G1 X23.229 Y96.237
G3 X23.166 Y96.187 I0.058 J-0.138
X25.481 Y94.524 Z-4.656 I1.157 J-0.831
X23.166 Y96.187 Z-4.813 I-1.157 J0.831
X25.481 Y94.524 Z-4.969 I1.157 J-0.831
X25.748 Y95.355 Z-5 I-1.157 J0.831
X23.437 I-1.156
G1 X23.438 Y35.928
G3 X23.445 Y35.839 I0.499
G1 X23.497 Y35.551
G3 X23.668 Y35.256 I0.491 J0.088
G1 X23.673 Y35.252
G3 X23.823 Y35.166 I0.321 J0.383
X23.998 Y35.134 I0.174 J0.468
X24.173 Y35.164 I0.005 J0.499
X24.327 Y35.252 I-0.167 J0.471
G1 X24.332 Y35.256
G3 X24.503 Y35.551 I-0.32 J0.383
G1 X24.555 Y35.839
G3 X24.563 Y35.928 I-0.491 J0.088
G1 Y95.361
G3 X24.556 Y95.446 I-0.499
G1 X24.505 Y95.737
G3 X24.446 Y95.9 I-0.492 J-0.086
G1 X24.442 Y95.907
G3 X24.182 Y96.127 I-0.433 J-0.249
G1 X24.173 Y96.13
G3 X23.828 I-0.172 J-0.469
G1 X23.818 Y96.127
G3 X23.558 Y95.907 I0.173 J-0.469
G1 X23.554 Y95.9
G3 X23.495 Y95.737 I0.433 J-0.249
G1 X23.444 Y95.446
G3 X23.437 Y95.361 I0.492 J-0.086
G1 Y95.355
G2 X22.844 Y94.465 I-0.964
G3 X22.25 Y93.575 I0.371 J-0.89
G1 X22.251 Y35.777
X22.382 Y35.05
X22.677 Y34.538
X23.139 Y34.152
X23.7 Y33.947
X24.3
X24.861 Y34.152
X25.323 Y34.538
X25.619 Y35.05
X25.75 Y35.777
Y95.506
X25.623 Y96.234
X25.321 Y96.76
X24.87 Y97.138
X24.298 Y97.349
X23.702
X23.13 Y97.138
X22.679 Y96.76
X22.377 Y96.234
X22.25 Y95.506
Y93.575
G3 X22.462 Y93.438 I0.15
G1 X24.774 Y94.474
G3 X24.834 Y94.524 I-0.061 J0.137
X22.52 Y96.187 Z-5.156 I-1.157 J0.831
X24.834 Y94.524 Z-5.313 I1.157 J-0.831
X22.52 Y96.187 Z-5.469 I-1.157 J0.831
X22.252 Y95.355 Z-5.5 I1.157 J-0.831
X23.408 Y94.199 I1.156
X24.563 Y95.355 J1.156
G1 Y95.361
G3 X24.556 Y95.446 I-0.499
G1 X24.505 Y95.737
G3 X24.446 Y95.9 I-0.492 J-0.086
G1 X24.442 Y95.907
G3 X24.182 Y96.127 I-0.433 J-0.249
G1 X24.173 Y96.13
G3 X23.828 I-0.172 J-0.469
G1 X23.818 Y96.127
G3 X23.558 Y95.907 I0.173 J-0.469
G1 X23.554 Y95.9
G3 X23.495 Y95.737 I0.433 J-0.249
G1 X23.444 Y95.446
G3 X23.437 Y95.361 I0.492 J-0.086
G1 X23.438 Y35.928
G3 X23.445 Y35.839 I0.499
G1 X23.497 Y35.551
G3 X23.668 Y35.256 I0.491 J0.088
G1 X23.673 Y35.252
G3 X23.823 Y35.166 I0.321 J0.383
X23.998 Y35.134 I0.174 J0.468
X24.173 Y35.164 I0.005 J0.499
X24.327 Y35.252 I-0.167 J0.471
G1 X24.332 Y35.256
G3 X24.503 Y35.551 I-0.32 J0.383
G1 X24.555 Y35.839
G3 X24.563 Y35.928 I-0.491 J0.088
G1 Y95.355
G2 X25.009 Y96.089 I0.826
G3 X25.104 Y96.942 I-0.237 J0.458
G1 X24.87 Y97.138
X24.298 Y97.349
X23.702
X23.13 Y97.138
X22.679 Y96.76
X22.377 Y96.234
X22.25 Y95.506
X22.251 Y35.777
X22.382 Y35.05
X22.677 Y34.538
X23.139 Y34.152
X23.7 Y33.947
X24.3
X24.861 Y34.152
X25.323 Y34.538
X25.619 Y35.05
X25.75 Y35.777
Y95.506
X25.623 Y96.234
X25.321 Y96.76
X25.104 Y96.942
G3 X24.949 Y96.965 I-0.096 J-0.115
G1 X23.229 Y96.237
G3 X23.166 Y96.187 I0.058 J-0.138
X25.481 Y94.524 Z-5.656 I1.157 J-0.831
X23.166 Y96.187 Z-5.813 I-1.157 J0.831
X25.481 Y94.524 Z-5.969 I1.157 J-0.831
X25.748 Y95.355 Z-6 I-1.157 J0.831
X23.437 I-1.156
G1 X23.438 Y35.928
G3 X23.445 Y35.839 I0.499
G1 X23.497 Y35.551
G3 X23.668 Y35.256 I0.491 J0.088
G1 X23.673 Y35.252
G3 X23.823 Y35.166 I0.321 J0.383
X23.998 Y35.134 I0.174 J0.468
X24.173 Y35.164 I0.005 J0.499
X24.327 Y35.252 I-0.167 J0.471
G1 X24.332 Y35.256
G3 X24.503 Y35.551 I-0.32 J0.383
G1 X24.555 Y35.839
G3 X24.563 Y35.928 I-0.491 J0.088
G1 Y95.361
G3 X24.556 Y95.446 I-0.499
G1 X24.505 Y95.737
G3 X24.446 Y95.9 I-0.492 J-0.086
G1 X24.442 Y95.907
G3 X24.182 Y96.127 I-0.433 J-0.249
G1 X24.173 Y96.13
G3 X23.828 I-0.172 J-0.469
G1 X23.818 Y96.127
G3 X23.558 Y95.907 I0.173 J-0.469
G1 X23.554 Y95.9
G3 X23.495 Y95.737 I0.433 J-0.249
G1 X23.444 Y95.446
G3 X23.437 Y95.361 I0.492 J-0.086
G1 Y95.355
G2 X22.844 Y94.465 I-0.964
G3 X22.25 Y93.575 I0.371 J-0.89
G1 X22.251 Y35.777
X22.382 Y35.05
X22.677 Y34.538
X23.139 Y34.152
X23.7 Y33.947
X24.3
X24.861 Y34.152
X25.323 Y34.538
X25.619 Y35.05
X25.75 Y35.777
Y95.506
X25.623 Y96.234
X25.321 Y96.76
X24.87 Y97.138
X24.298 Y97.349
X23.702
X23.13 Y97.138
X22.679 Y96.76
X22.377 Y96.234
X22.25 Y95.506
Y93.575
G3 X22.462 Y93.438 I0.15
G1 X24.774 Y94.474
G3 X24.834 Y94.524 I-0.061 J0.137
X22.52 Y96.187 Z-6.156 I-1.157 J0.831
X24.834 Y94.524 Z-6.313 I1.157 J-0.831
X22.52 Y96.187 Z-6.469 I-1.157 J0.831
X22.252 Y95.355 Z-6.5 I1.157 J-0.831
X23.408 Y94.199 I1.156
X24.563 Y95.355 J1.156
G1 Y95.361
G3 X24.556 Y95.446 I-0.499
G1 X24.505 Y95.737
G3 X24.446 Y95.9 I-0.492 J-0.086
G1 X24.442 Y95.907
G3 X24.182 Y96.127 I-0.433 J-0.249
G1 X24.173 Y96.13
G3 X23.828 I-0.172 J-0.469
G1 X23.818 Y96.127
G3 X23.558 Y95.907 I0.173 J-0.469
G1 X23.554 Y95.9
G3 X23.495 Y95.737 I0.433 J-0.249
G1 X23.444 Y95.446
G3 X23.437 Y95.361 I0.492 J-0.086
G1 X23.438 Y35.928
G3 X23.445 Y35.839 I0.499
G1 X23.497 Y35.551
G3 X23.668 Y35.256 I0.491 J0.088
G1 X23.673 Y35.252
G3 X23.823 Y35.166 I0.321 J0.383
X23.998 Y35.134 I0.174 J0.468
X24.173 Y35.164 I0.005 J0.499
X24.327 Y35.252 I-0.167 J0.471
G1 X24.332 Y35.256
G3 X24.503 Y35.551 I-0.32 J0.383
G1 X24.555 Y35.839
G3 X24.563 Y35.928 I-0.491 J0.088
G1 Y95.355
G2 X25.009 Y96.089 I0.826
G3 X25.104 Y96.942 I-0.237 J0.458
G1 X24.87 Y97.138
X24.298 Y97.349
X23.702
X23.13 Y97.138
X22.679 Y96.76
X22.377 Y96.234
X22.25 Y95.506
X22.251 Y35.777
X22.382 Y35.05
X22.677 Y34.538
X23.139 Y34.152
X23.7 Y33.947
X24.3
X24.861 Y34.152
X25.323 Y34.538
X25.619 Y35.05
X25.75 Y35.777
Y95.506
X25.623 Y96.234
X25.321 Y96.76
X25.104 Y96.942
G3 X24.949 Y96.965 I-0.096 J-0.115
G1 X23.229 Y96.237
G3 X23.166 Y96.187 I0.058 J-0.138
X25.481 Y94.524 Z-6.656 I1.157 J-0.831
X23.166 Y96.187 Z-6.813 I-1.157 J0.831
X25.481 Y94.524 Z-6.969 I1.157 J-0.831
X25.748 Y95.355 Z-7 I-1.157 J0.831
X23.437 I-1.156
G1 X23.438 Y35.928
G3 X23.445 Y35.839 I0.499
G1 X23.497 Y35.551
G3 X23.668 Y35.256 I0.491 J0.088
G1 X23.673 Y35.252
G3 X23.823 Y35.166 I0.321 J0.383
X23.998 Y35.134 I0.174 J0.468
X24.173 Y35.164 I0.005 J0.499
X24.327 Y35.252 I-0.167 J0.471
G1 X24.332 Y35.256
G3 X24.503 Y35.551 I-0.32 J0.383
G1 X24.555 Y35.839
G3 X24.563 Y35.928 I-0.491 J0.088
G1 Y95.361
G3 X24.556 Y95.446 I-0.499
G1 X24.505 Y95.737
G3 X24.446 Y95.9 I-0.492 J-0.086
G1 X24.442 Y95.907
G3 X24.182 Y96.127 I-0.433 J-0.249
G1 X24.173 Y96.13
G3 X23.828 I-0.172 J-0.469
G1 X23.818 Y96.127
G3 X23.558 Y95.907 I0.173 J-0.469
G1 X23.554 Y95.9
G3 X23.495 Y95.737 I0.433 J-0.249
G1 X23.444 Y95.446
G3 X23.437 Y95.361 I0.492 J-0.086
G1 Y95.355
G2 X22.844 Y94.465 I-0.964
G3 X22.25 Y93.575 I0.371 J-0.89
G1 X22.251 Y35.777
X22.382 Y35.05
X22.677 Y34.538
X23.139 Y34.152
X23.7 Y33.947
X24.3
X24.861 Y34.152
X25.323 Y34.538
X25.619 Y35.05
X25.75 Y35.777
Y95.506
X25.623 Y96.234
X25.321 Y96.76
X24.87 Y97.138
X24.298 Y97.349
X23.702
X23.13 Y97.138
X22.679 Y96.76
X22.377 Y96.234
X22.25 Y95.506
Y93.575
G3 X22.542 Y93.525 I0.15
G1 X23.429 Y96.049
G3 X23.166 Y96.187 I-0.142 J0.05
X25.481 Y94.524 Z-7.156 I1.157 J-0.831
X23.166 Y96.187 Z-7.313 I-1.157 J0.831
X25.481 Y94.524 Z-7.469 I1.157 J-0.831
X25.748 Y95.355 Z-7.5 I-1.157 J0.831
X23.437 I-1.156
G1 X23.438 Y35.928
G3 X23.445 Y35.839 I0.499
G1 X23.497 Y35.551
G3 X23.668 Y35.256 I0.491 J0.088
G1 X23.673 Y35.252
G3 X23.823 Y35.166 I0.321 J0.383
X23.998 Y35.134 I0.174 J0.468
X24.173 Y35.164 I0.005 J0.499
X24.327 Y35.252 I-0.167 J0.471
G1 X24.332 Y35.256
G3 X24.503 Y35.551 I-0.32 J0.383
G1 X24.555 Y35.839
G3 X24.563 Y35.928 I-0.491 J0.088
G1 Y95.361
G3 X24.556 Y95.446 I-0.499
G1 X24.505 Y95.737
G3 X24.446 Y95.9 I-0.492 J-0.086
G1 X24.442 Y95.907
G3 X24.182 Y96.127 I-0.433 J-0.249
G1 X24.173 Y96.13
G3 X23.828 I-0.172 J-0.469
G1 X23.818 Y96.127
G3 X23.558 Y95.907 I0.173 J-0.469
G1 X23.554 Y95.9
G3 X23.495 Y95.737 I0.433 J-0.249
G1 X23.444 Y95.446
G3 X23.437 Y95.361 I0.492 J-0.086
G1 Y95.355
G2 X22.844 Y94.465 I-0.964
G3 X22.25 Y93.575 I0.371 J-0.89
G1 X22.251 Y35.777
X22.382 Y35.05
X22.677 Y34.538
X23.139 Y34.152
X23.7 Y33.947
X24.3
X24.861 Y34.152
X25.323 Y34.538
X25.619 Y35.05
X25.75 Y35.777
Y95.506
X25.623 Y96.234
X25.321 Y96.76
X24.87 Y97.138
X24.298 Y97.349
X23.702
X23.13 Y97.138
X22.679 Y96.76
X22.377 Y96.234
X22.25 Y95.506
Y93.575
G3 X22.462 Y93.438 I0.15
G1 X24.774 Y94.474
G3 X24.834 Y94.524 I-0.061 J0.137
X22.52 Y96.187 Z-7.656 I-1.157 J0.831
X24.834 Y94.524 Z-7.813 I1.157 J-0.831
X22.52 Y96.187 Z-7.969 I-1.157 J0.831
X22.252 Y95.355 Z-8 I1.157 J-0.831
X23.408 Y94.199 I1.156
X24.563 Y95.355 J1.156
G1 Y95.361
G3 X24.556 Y95.446 I-0.499
G1 X24.505 Y95.737
G3 X24.446 Y95.9 I-0.492 J-0.086
G1 X24.442 Y95.907
G3 X24.182 Y96.127 I-0.433 J-0.249
G1 X24.173 Y96.13
G3 X23.828 I-0.172 J-0.469
G1 X23.818 Y96.127
G3 X23.558 Y95.907 I0.173 J-0.469
G1 X23.554 Y95.9
G3 X23.495 Y95.737 I0.433 J-0.249
G1 X23.444 Y95.446
G3 X23.437 Y95.361 I0.492 J-0.086
G1 X23.438 Y35.928
G3 X23.445 Y35.839 I0.499
G1 X23.497 Y35.551
G3 X23.668 Y35.256 I0.491 J0.088
G1 X23.673 Y35.252
G3 X23.823 Y35.166 I0.321 J0.383
X23.998 Y35.134 I0.174 J0.468
X24.173 Y35.164 I0.005 J0.499
X24.327 Y35.252 I-0.167 J0.471
G1 X24.332 Y35.256
G3 X24.503 Y35.551 I-0.32 J0.383
G1 X24.555 Y35.839
G3 X24.563 Y35.928 I-0.491 J0.088
G1 Y95.355
G2 X25.009 Y96.089 I0.826
G3 X25.104 Y96.942 I-0.237 J0.458
G1 X24.87 Y97.138
X24.298 Y97.349
X23.702
X23.13 Y97.138
X22.679 Y96.76
X22.377 Y96.234
X22.25 Y95.506
X22.251 Y35.777
X22.382 Y35.05
X22.677 Y34.538
X23.139 Y34.152
X23.7 Y33.947
X24.3
X24.861 Y34.152
X25.323 Y34.538
X25.619 Y35.05
X25.75 Y35.777
Y95.506
X25.623 Y96.234
X25.321 Y96.76
X25.104 Y96.942
G3 X24.949 Y96.965 I-0.096 J-0.115
G1 X23.229 Y96.237
G3 X23.166 Y96.187 I0.058 J-0.138
X25.481 Y94.524 Z-8.156 I1.157 J-0.831
X23.166 Y96.187 Z-8.313 I-1.157 J0.831
X25.481 Y94.524 Z-8.469 I1.157 J-0.831
X25.748 Y95.355 Z-8.5 I-1.157 J0.831
X23.437 I-1.156
G1 X23.438 Y35.928
G3 X23.445 Y35.839 I0.499
G1 X23.497 Y35.551
G3 X23.668 Y35.256 I0.491 J0.088
G1 X23.673 Y35.252
G3 X23.823 Y35.166 I0.321 J0.383
X23.998 Y35.134 I0.174 J0.468
X24.173 Y35.164 I0.005 J0.499
X24.327 Y35.252 I-0.167 J0.471
G1 X24.332 Y35.256
G3 X24.503 Y35.551 I-0.32 J0.383
G1 X24.555 Y35.839
G3 X24.563 Y35.928 I-0.491 J0.088
G1 Y95.361
G3 X24.556 Y95.446 I-0.499
G1 X24.505 Y95.737
G3 X24.446 Y95.9 I-0.492 J-0.086
G1 X24.442 Y95.907
G3 X24.182 Y96.127 I-0.433 J-0.249
G1 X24.173 Y96.13
G3 X23.828 I-0.172 J-0.469
G1 X23.818 Y96.127
G3 X23.558 Y95.907 I0.173 J-0.469
G1 X23.554 Y95.9
G3 X23.495 Y95.737 I0.433 J-0.249
G1 X23.444 Y95.446
G3 X23.437 Y95.361 I0.492 J-0.086
G1 Y95.355
G2 X22.844 Y94.465 I-0.964
G3 X22.25 Y93.575 I0.371 J-0.89
G1 X22.251 Y35.777
X22.382 Y35.05
X22.677 Y34.538
X23.139 Y34.152
X23.7 Y33.947
X24.3
X24.861 Y34.152
X25.323 Y34.538
X25.619 Y35.05
X25.75 Y35.777
Y95.506
X25.623 Y96.234
X25.321 Y96.76
X24.87 Y97.138
X24.298 Y97.349
X23.702
X23.13 Y97.138
X22.679 Y96.76
X22.377 Y96.234
X22.25 Y95.506
Y93.575
G3 X22.542 Y93.525 I0.15
G1 X23.429 Y96.049
G3 X23.166 Y96.187 I-0.142 J0.05
X25.481 Y94.524 Z-8.656 I1.157 J-0.831
X23.166 Y96.187 Z-8.813 I-1.157 J0.831
X25.481 Y94.524 Z-8.969 I1.157 J-0.831
X25.748 Y95.355 Z-9 I-1.157 J0.831
X23.437 I-1.156
G1 X23.438 Y35.928
G3 X23.445 Y35.839 I0.499
G1 X23.497 Y35.551
G3 X23.668 Y35.256 I0.491 J0.088
G1 X23.673 Y35.252
G3 X23.823 Y35.166 I0.321 J0.383
X23.998 Y35.134 I0.174 J0.468
X24.173 Y35.164 I0.005 J0.499
X24.327 Y35.252 I-0.167 J0.471
G1 X24.332 Y35.256
G3 X24.503 Y35.551 I-0.32 J0.383
G1 X24.555 Y35.839
G3 X24.563 Y35.928 I-0.491 J0.088
G1 Y95.361
G3 X24.556 Y95.446 I-0.499
G1 X24.505 Y95.737
G3 X24.446 Y95.9 I-0.492 J-0.086
G1 X24.442 Y95.907
G3 X24.182 Y96.127 I-0.433 J-0.249
G1 X24.173 Y96.13
G3 X23.828 I-0.172 J-0.469
G1 X23.818 Y96.127
G3 X23.558 Y95.907 I0.173 J-0.469
G1 X23.554 Y95.9
G3 X23.495 Y95.737 I0.433 J-0.249
G1 X23.444 Y95.446
G3 X23.437 Y95.361 I0.492 J-0.086
G1 Y95.355
G2 X22.844 Y94.465 I-0.964
G3 X22.25 Y93.575 I0.371 J-0.89
G1 X22.251 Y35.777
X22.382 Y35.05
X22.677 Y34.538
X23.139 Y34.152
X23.7 Y33.947
X24.3
X24.861 Y34.152
X25.323 Y34.538
X25.619 Y35.05
X25.75 Y35.777
Y95.506
X25.623 Y96.234
X25.321 Y96.76
X24.87 Y97.138
X24.298 Y97.349
X23.702
X23.13 Y97.138
X22.679 Y96.76
X22.377 Y96.234
X22.25 Y95.506
Y93.575
G3 X22.542 Y93.525 I0.15
G1 X23.429 Y96.049
G3 X23.166 Y96.187 I-0.142 J0.05
X25.481 Y94.524 Z-9.156 I1.157 J-0.831
X23.166 Y96.187 Z-9.313 I-1.157 J0.831
X25.481 Y94.524 Z-9.469 I1.157 J-0.831
X25.748 Y95.355 Z-9.5 I-1.157 J0.831
X23.437 I-1.156
G1 X23.438 Y35.928
G3 X23.445 Y35.839 I0.499
G1 X23.497 Y35.551
G3 X23.668 Y35.256 I0.491 J0.088
G1 X23.673 Y35.252
G3 X23.823 Y35.166 I0.321 J0.383
X23.998 Y35.134 I0.174 J0.468
X24.173 Y35.164 I0.005 J0.499
X24.327 Y35.252 I-0.167 J0.471
G1 X24.332 Y35.256
G3 X24.503 Y35.551 I-0.32 J0.383
G1 X24.555 Y35.839
G3 X24.563 Y35.928 I-0.491 J0.088
G1 Y95.361
G3 X24.556 Y95.446 I-0.499
G1 X24.505 Y95.737
G3 X24.446 Y95.9 I-0.492 J-0.086
G1 X24.442 Y95.907
G3 X24.182 Y96.127 I-0.433 J-0.249
G1 X24.173 Y96.13
G3 X23.828 I-0.172 J-0.469
G1 X23.818 Y96.127
G3 X23.558 Y95.907 I0.173 J-0.469
G1 X23.554 Y95.9
G3 X23.495 Y95.737 I0.433 J-0.249
G1 X23.444 Y95.446
G3 X23.437 Y95.361 I0.492 J-0.086
G1 Y95.355
G2 X22.844 Y94.465 I-0.964
G3 X22.25 Y93.575 I0.371 J-0.89
G1 X22.251 Y35.777
X22.382 Y35.05
X22.677 Y34.538
X23.139 Y34.152
X23.7 Y33.947
X24.3
X24.861 Y34.152
X25.323 Y34.538
X25.619 Y35.05
X25.75 Y35.777
Y95.506
X25.623 Y96.234
X25.321 Y96.76
X24.87 Y97.138
X24.298 Y97.349
X23.702
X23.13 Y97.138
X22.679 Y96.76
X22.377 Y96.234
X22.25 Y95.506
Y93.575
G3 X22.542 Y93.525 I0.15
G1 X23.429 Y96.049
G3 X23.166 Y96.187 I-0.142 J0.05
X25.481 Y94.524 Z-9.656 I1.157 J-0.831
X23.166 Y96.187 Z-9.813 I-1.157 J0.831
X25.481 Y94.524 Z-9.969 I1.157 J-0.831
X25.748 Y95.355 Z-10 I-1.157 J0.831
X23.437 I-1.156
G1 X23.438 Y35.928
G3 X23.445 Y35.839 I0.499
G1 X23.497 Y35.551
G3 X23.668 Y35.256 I0.491 J0.088
G1 X23.673 Y35.252
G3 X23.823 Y35.166 I0.321 J0.383
X23.998 Y35.134 I0.174 J0.468
X24.173 Y35.164 I0.005 J0.499
X24.327 Y35.252 I-0.167 J0.471
G1 X24.332 Y35.256
G3 X24.503 Y35.551 I-0.32 J0.383
G1 X24.555 Y35.839
G3 X24.563 Y35.928 I-0.491 J0.088
G1 Y95.361
G3 X24.556 Y95.446 I-0.499
G1 X24.505 Y95.737
G3 X24.446 Y95.9 I-0.492 J-0.086
G1 X24.442 Y95.907
G3 X24.182 Y96.127 I-0.433 J-0.249
G1 X24.173 Y96.13
G3 X23.828 I-0.172 J-0.469
G1 X23.818 Y96.127
G3 X23.558 Y95.907 I0.173 J-0.469
G1 X23.554 Y95.9
G3 X23.495 Y95.737 I0.433 J-0.249
G1 X23.444 Y95.446
G3 X23.437 Y95.361 I0.492 J-0.086
G1 Y95.355
G2 X22.844 Y94.465 I-0.964
G3 X22.25 Y93.575 I0.371 J-0.89
G1 X22.251 Y35.777
X22.382 Y35.05
X22.677 Y34.538
X23.139 Y34.152
X23.7 Y33.947
X24.3
X24.861 Y34.152
X25.323 Y34.538
X25.619 Y35.05
X25.75 Y35.777
Y95.506
X25.623 Y96.234
X25.321 Y96.76
X24.87 Y97.138
X24.298 Y97.349
X23.702
X23.13 Y97.138
X22.679 Y96.76
X22.377 Y96.234
X22.25 Y95.506
Y93.575
G3 X22.542 Y93.525 I0.15
G1 X23.429 Y96.049
G3 X23.166 Y96.187 I-0.142 J0.05
X25.481 Y94.524 Z-10.156 I1.157 J-0.831
X23.166 Y96.187 Z-10.313 I-1.157 J0.831
X25.481 Y94.524 Z-10.469 I1.157 J-0.831
X25.748 Y95.355 Z-10.5 I-1.157 J0.831
X23.437 I-1.156
G1 X23.438 Y35.928
G3 X23.445 Y35.839 I0.499
G1 X23.497 Y35.551
G3 X23.668 Y35.256 I0.491 J0.088
G1 X23.673 Y35.252
G3 X23.823 Y35.166 I0.321 J0.383
X23.998 Y35.134 I0.174 J0.468
X24.173 Y35.164 I0.005 J0.499
X24.327 Y35.252 I-0.167 J0.471
G1 X24.332 Y35.256
G3 X24.503 Y35.551 I-0.32 J0.383
G1 X24.555 Y35.839
G3 X24.563 Y35.928 I-0.491 J0.088
G1 Y95.361
G3 X24.556 Y95.446 I-0.499
G1 X24.505 Y95.737
G3 X24.446 Y95.9 I-0.492 J-0.086
G1 X24.442 Y95.907
G3 X24.182 Y96.127 I-0.433 J-0.249
G1 X24.173 Y96.13
G3 X23.828 I-0.172 J-0.469
G1 X23.818 Y96.127
G3 X23.558 Y95.907 I0.173 J-0.469
G1 X23.554 Y95.9
G3 X23.495 Y95.737 I0.433 J-0.249
G1 X23.444 Y95.446
G3 X23.437 Y95.361 I0.492 J-0.086
G1 Y95.355
G2 X22.844 Y94.465 I-0.964
G3 X22.25 Y93.575 I0.371 J-0.89
G1 X22.251 Y35.777
X22.382 Y35.05
X22.677 Y34.538
X23.139 Y34.152
X23.7 Y33.947
X24.3
X24.861 Y34.152
X25.323 Y34.538
X25.619 Y35.05
X25.75 Y35.777
Y95.506
X25.623 Y96.234
X25.321 Y96.76
X24.87 Y97.138
X24.298 Y97.349
X23.702
X23.13 Y97.138
X22.679 Y96.76
X22.377 Y96.234
X22.25 Y95.506
Y93.575
G3 X22.542 Y93.525 I0.15
G1 X23.429 Y96.049
G3 X23.166 Y96.187 I-0.142 J0.05
X25.481 Y94.524 Z-10.656 I1.157 J-0.831
X23.166 Y96.187 Z-10.813 I-1.157 J0.831
X25.481 Y94.524 Z-10.969 I1.157 J-0.831
X25.748 Y95.355 Z-11 I-1.157 J0.831
X23.437 I-1.156
G1 X23.438 Y35.928
G3 X23.445 Y35.839 I0.499
G1 X23.497 Y35.551
G3 X23.668 Y35.256 I0.491 J0.088
G1 X23.673 Y35.252
G3 X23.823 Y35.166 I0.321 J0.383
X23.998 Y35.134 I0.174 J0.468
X24.173 Y35.164 I0.005 J0.499
X24.327 Y35.252 I-0.167 J0.471
G1 X24.332 Y35.256
G3 X24.503 Y35.551 I-0.32 J0.383
G1 X24.555 Y35.839
G3 X24.563 Y35.928 I-0.491 J0.088
G1 Y95.361
G3 X24.556 Y95.446 I-0.499
G1 X24.505 Y95.737
G3 X24.446 Y95.9 I-0.492 J-0.086
G1 X24.442 Y95.907
G3 X24.182 Y96.127 I-0.433 J-0.249
G1 X24.173 Y96.13
G3 X23.828 I-0.172 J-0.469
G1 X23.818 Y96.127
G3 X23.558 Y95.907 I0.173 J-0.469
G1 X23.554 Y95.9
G3 X23.495 Y95.737 I0.433 J-0.249
G1 X23.444 Y95.446
G3 X23.437 Y95.361 I0.492 J-0.086
G1 Y95.355
G2 X22.844 Y94.465 I-0.964
G3 X22.25 Y93.575 I0.371 J-0.89
G1 X22.251 Y35.777
X22.382 Y35.05
X22.677 Y34.538
X23.139 Y34.152
X23.7 Y33.947
X24.3
X24.861 Y34.152
X25.323 Y34.538
X25.619 Y35.05
X25.75 Y35.777
Y95.506
X25.623 Y96.234
X25.321 Y96.76
X24.87 Y97.138
X24.298 Y97.349
X23.702
X23.13 Y97.138
X22.679 Y96.76
X22.377 Y96.234
X22.25 Y95.506
Y93.575
G3 X22.542 Y93.525 I0.15
G1 X23.429 Y96.049
G3 X23.166 Y96.187 I-0.142 J0.05
X25.481 Y94.524 Z-11.156 I1.157 J-0.831
X23.166 Y96.187 Z-11.313 I-1.157 J0.831
X25.481 Y94.524 Z-11.469 I1.157 J-0.831
X25.748 Y95.355 Z-11.5 I-1.157 J0.831
X23.437 I-1.156
G1 X23.438 Y35.928
G3 X23.445 Y35.839 I0.499
G1 X23.497 Y35.551
G3 X23.668 Y35.256 I0.491 J0.088
G1 X23.673 Y35.252
G3 X23.823 Y35.166 I0.321 J0.383
X23.998 Y35.134 I0.174 J0.468
X24.173 Y35.164 I0.005 J0.499
X24.327 Y35.252 I-0.167 J0.471
G1 X24.332 Y35.256
G3 X24.503 Y35.551 I-0.32 J0.383
G1 X24.555 Y35.839
G3 X24.563 Y35.928 I-0.491 J0.088
G1 Y95.361
G3 X24.556 Y95.446 I-0.499
G1 X24.505 Y95.737
G3 X24.446 Y95.9 I-0.492 J-0.086
G1 X24.442 Y95.907
G3 X24.182 Y96.127 I-0.433 J-0.249
G1 X24.173 Y96.13
G3 X23.828 I-0.172 J-0.469
G1 X23.818 Y96.127
G3 X23.558 Y95.907 I0.173 J-0.469
G1 X23.554 Y95.9
G3 X23.495 Y95.737 I0.433 J-0.249
G1 X23.444 Y95.446
G3 X23.437 Y95.361 I0.492 J-0.086
G1 Y95.355
G2 X22.844 Y94.465 I-0.964
G3 X22.25 Y93.575 I0.371 J-0.89
G1 X22.251 Y35.777
X22.382 Y35.05
X22.677 Y34.538
X23.139 Y34.152
X23.7 Y33.947
X24.3
X24.861 Y34.152
X25.323 Y34.538
X25.619 Y35.05
X25.75 Y35.777
Y95.506
X25.623 Y96.234
X25.321 Y96.76
X24.87 Y97.138
X24.298 Y97.349
X23.702
X23.13 Y97.138
X22.679 Y96.76
X22.377 Y96.234
X22.25 Y95.506
Y93.575
G3 X22.542 Y93.525 I0.15
G1 X23.429 Y96.049
G3 X23.166 Y96.187 I-0.142 J0.05
X25.481 Y94.524 Z-11.656 I1.157 J-0.831
X23.166 Y96.187 Z-11.813 I-1.157 J0.831
X25.481 Y94.524 Z-11.969 I1.157 J-0.831
X25.748 Y95.355 Z-12 I-1.157 J0.831
X23.437 I-1.156
G1 X23.438 Y35.928
G3 X23.445 Y35.839 I0.499
G1 X23.497 Y35.551
G3 X23.668 Y35.256 I0.491 J0.088
G1 X23.673 Y35.252
G3 X23.823 Y35.166 I0.321 J0.383
X23.998 Y35.134 I0.174 J0.468
X24.173 Y35.164 I0.005 J0.499
X24.327 Y35.252 I-0.167 J0.471
G1 X24.332 Y35.256
G3 X24.503 Y35.551 I-0.32 J0.383
G1 X24.555 Y35.839
G3 X24.563 Y35.928 I-0.491 J0.088
G1 Y95.361
G3 X24.556 Y95.446 I-0.499
G1 X24.505 Y95.737
G3 X24.446 Y95.9 I-0.492 J-0.086
G1 X24.442 Y95.907
G3 X24.182 Y96.127 I-0.433 J-0.249
G1 X24.173 Y96.13
G3 X23.828 I-0.172 J-0.469
G1 X23.818 Y96.127
G3 X23.558 Y95.907 I0.173 J-0.469
G1 X23.554 Y95.9
G3 X23.495 Y95.737 I0.433 J-0.249
G1 X23.444 Y95.446
G3 X23.437 Y95.361 I0.492 J-0.086
G1 Y95.355
G2 X22.844 Y94.465 I-0.964
G3 X22.25 Y93.575 I0.371 J-0.89
G1 X22.251 Y35.777
X22.382 Y35.05
X22.677 Y34.538
X23.139 Y34.152
X23.7 Y33.947
X24.3
X24.861 Y34.152
X25.323 Y34.538
X25.619 Y35.05
X25.75 Y35.777
Y95.506
X25.623 Y96.234
X25.321 Y96.76
X24.87 Y97.138
X24.298 Y97.349
X23.702
X23.13 Y97.138
X22.679 Y96.76
X22.377 Y96.234
X22.25 Y95.506
Y93.575
G3 X22.542 Y93.525 I0.15
G1 X23.429 Y96.049
G3 X23.166 Y96.187 I-0.142 J0.05
X25.481 Y94.524 Z-12.156 I1.157 J-0.831
X23.166 Y96.187 Z-12.313 I-1.157 J0.831
X25.481 Y94.524 Z-12.469 I1.157 J-0.831
X25.748 Y95.355 Z-12.5 I-1.157 J0.831
X23.437 I-1.156
G1 X23.438 Y35.928
G3 X23.445 Y35.839 I0.499
G1 X23.497 Y35.551
G3 X23.668 Y35.256 I0.491 J0.088
G1 X23.673 Y35.252
G3 X23.823 Y35.166 I0.321 J0.383
X23.998 Y35.134 I0.174 J0.468
X24.173 Y35.164 I0.005 J0.499
X24.327 Y35.252 I-0.167 J0.471
G1 X24.332 Y35.256
G3 X24.503 Y35.551 I-0.32 J0.383
G1 X24.555 Y35.839
G3 X24.563 Y35.928 I-0.491 J0.088
G1 Y95.361
G3 X24.556 Y95.446 I-0.499
G1 X24.505 Y95.737
G3 X24.446 Y95.9 I-0.492 J-0.086
G1 X24.442 Y95.907
G3 X24.182 Y96.127 I-0.433 J-0.249
G1 X24.173 Y96.13
G3 X23.828 I-0.172 J-0.469
G1 X23.818 Y96.127
G3 X23.558 Y95.907 I0.173 J-0.469
G1 X23.554 Y95.9
G3 X23.495 Y95.737 I0.433 J-0.249
G1 X23.444 Y95.446
G3 X23.437 Y95.361 I0.492 J-0.086
G1 Y95.355
G2 X22.844 Y94.465 I-0.964
G3 X22.25 Y93.575 I0.371 J-0.89
G1 X22.251 Y35.777
X22.382 Y35.05
X22.677 Y34.538
X23.139 Y34.152
X23.7 Y33.947
X24.3
X24.861 Y34.152
X25.323 Y34.538
X25.619 Y35.05
X25.75 Y35.777
Y95.506
X25.623 Y96.234
X25.321 Y96.76
X24.87 Y97.138
X24.298 Y97.349
X23.702
X23.13 Y97.138
X22.679 Y96.76
X22.377 Y96.234
X22.25 Y95.506
Y93.575
G3 X22.542 Y93.525 I0.15
G1 X23.429 Y96.049
G3 X23.166 Y96.187 I-0.142 J0.05
X25.481 Y94.524 Z-12.656 I1.157 J-0.831
X23.166 Y96.187 Z-12.813 I-1.157 J0.831
X25.481 Y94.524 Z-12.969 I1.157 J-0.831
X25.748 Y95.355 Z-13 I-1.157 J0.831
X23.437 I-1.156
G1 X23.438 Y35.928
G3 X23.445 Y35.839 I0.499
G1 X23.497 Y35.551
G3 X23.668 Y35.256 I0.491 J0.088
G1 X23.673 Y35.252
G3 X23.823 Y35.166 I0.321 J0.383
X23.998 Y35.134 I0.174 J0.468
X24.173 Y35.164 I0.005 J0.499
X24.327 Y35.252 I-0.167 J0.471
G1 X24.332 Y35.256
G3 X24.503 Y35.551 I-0.32 J0.383
G1 X24.555 Y35.839
G3 X24.563 Y35.928 I-0.491 J0.088
G1 Y95.361
G3 X24.556 Y95.446 I-0.499
G1 X24.505 Y95.737
G3 X24.446 Y95.9 I-0.492 J-0.086
G1 X24.442 Y95.907
G3 X24.182 Y96.127 I-0.433 J-0.249
G1 X24.173 Y96.13
G3 X23.828 I-0.172 J-0.469
G1 X23.818 Y96.127
G3 X23.558 Y95.907 I0.173 J-0.469
G1 X23.554 Y95.9
G3 X23.495 Y95.737 I0.433 J-0.249
G1 X23.444 Y95.446
G3 X23.437 Y95.361 I0.492 J-0.086
G1 Y95.355
G2 X22.844 Y94.465 I-0.964
G3 X22.25 Y93.575 I0.371 J-0.89
G1 X22.251 Y35.777
X22.382 Y35.05
X22.677 Y34.538
X23.139 Y34.152
X23.7 Y33.947
X24.3
X24.861 Y34.152
X25.323 Y34.538
X25.619 Y35.05
X25.75 Y35.777
Y95.506
X25.623 Y96.234
X25.321 Y96.76
X24.87 Y97.138
X24.298 Y97.349
X23.702
X23.13 Y97.138
X22.679 Y96.76
X22.377 Y96.234
X22.25 Y95.506
Y93.575
G3 X22.542 Y93.525 I0.15
G1 X23.429 Y96.049
G3 X23.166 Y96.187 I-0.142 J0.05
X25.481 Y94.524 Z-13.156 I1.157 J-0.831
X23.166 Y96.187 Z-13.313 I-1.157 J0.831
X25.481 Y94.524 Z-13.469 I1.157 J-0.831
X25.748 Y95.355 Z-13.5 I-1.157 J0.831
X23.437 I-1.156
G1 X23.438 Y35.928
G3 X23.445 Y35.839 I0.499
G1 X23.497 Y35.551
G3 X23.668 Y35.256 I0.491 J0.088
G1 X23.673 Y35.252
G3 X23.823 Y35.166 I0.321 J0.383
X23.998 Y35.134 I0.174 J0.468
X24.173 Y35.164 I0.005 J0.499
X24.327 Y35.252 I-0.167 J0.471
G1 X24.332 Y35.256
G3 X24.503 Y35.551 I-0.32 J0.383
G1 X24.555 Y35.839
G3 X24.563 Y35.928 I-0.491 J0.088
G1 Y95.361
G3 X24.556 Y95.446 I-0.499
G1 X24.505 Y95.737
G3 X24.446 Y95.9 I-0.492 J-0.086
G1 X24.442 Y95.907
G3 X24.182 Y96.127 I-0.433 J-0.249
G1 X24.173 Y96.13
G3 X23.828 I-0.172 J-0.469
G1 X23.818 Y96.127
G3 X23.558 Y95.907 I0.173 J-0.469
G1 X23.554 Y95.9
G3 X23.495 Y95.737 I0.433 J-0.249
G1 X23.444 Y95.446
G3 X23.437 Y95.361 I0.492 J-0.086
G1 Y95.355
G2 X22.844 Y94.465 I-0.964
G3 X22.25 Y93.575 I0.371 J-0.89
G1 X22.251 Y35.777
X22.382 Y35.05
X22.677 Y34.538
X23.139 Y34.152
X23.7 Y33.947
X24.3
X24.861 Y34.152
X25.323 Y34.538
X25.619 Y35.05
X25.75 Y35.777
Y95.506
X25.623 Y96.234
X25.321 Y96.76
X24.87 Y97.138
X24.298 Y97.349
X23.702
X23.13 Y97.138
X22.679 Y96.76
X22.377 Y96.234
X22.25 Y95.506
Y93.575
G3 X22.542 Y93.525 I0.15
G1 X23.429 Y96.049
G3 X23.166 Y96.187 I-0.142 J0.05
X25.481 Y94.524 Z-13.656 I1.157 J-0.831
X23.166 Y96.187 Z-13.813 I-1.157 J0.831
X25.481 Y94.524 Z-13.969 I1.157 J-0.831
X25.748 Y95.355 Z-14 I-1.157 J0.831
X23.437 I-1.156
G1 X23.438 Y35.928
G3 X23.445 Y35.839 I0.499
G1 X23.497 Y35.551
G3 X23.668 Y35.256 I0.491 J0.088
G1 X23.673 Y35.252
G3 X23.823 Y35.166 I0.321 J0.383
X23.998 Y35.134 I0.174 J0.468
X24.173 Y35.164 I0.005 J0.499
X24.327 Y35.252 I-0.167 J0.471
G1 X24.332 Y35.256
G3 X24.503 Y35.551 I-0.32 J0.383
G1 X24.555 Y35.839
G3 X24.563 Y35.928 I-0.491 J0.088
G1 Y95.361
G3 X24.556 Y95.446 I-0.499
G1 X24.505 Y95.737
G3 X24.446 Y95.9 I-0.492 J-0.086
G1 X24.442 Y95.907
G3 X24.182 Y96.127 I-0.433 J-0.249
G1 X24.173 Y96.13
G3 X23.828 I-0.172 J-0.469
G1 X23.818 Y96.127
G3 X23.558 Y95.907 I0.173 J-0.469
G1 X23.554 Y95.9
G3 X23.495 Y95.737 I0.433 J-0.249
G1 X23.444 Y95.446
G3 X23.437 Y95.361 I0.492 J-0.086
G1 Y95.355
G2 X22.844 Y94.465 I-0.964
G3 X22.25 Y93.575 I0.371 J-0.89
G1 X22.251 Y35.777
X22.382 Y35.05
X22.677 Y34.538
X23.139 Y34.152
X23.7 Y33.947
X24.3
X24.861 Y34.152
X25.323 Y34.538
X25.619 Y35.05
X25.75 Y35.777
Y95.506
X25.623 Y96.234
X25.321 Y96.76
X24.87 Y97.138
X24.298 Y97.349
X23.702
X23.13 Y97.138
X22.679 Y96.76
X22.377 Y96.234
X22.25 Y95.506
Y93.575
G3 X22.542 Y93.525 I0.15
G1 X23.429 Y96.049
G3 X23.166 Y96.187 I-0.142 J0.05
X25.481 Y94.524 Z-14.156 I1.157 J-0.831
X23.166 Y96.187 Z-14.313 I-1.157 J0.831
X25.481 Y94.524 Z-14.469 I1.157 J-0.831
X25.748 Y95.355 Z-14.5 I-1.157 J0.831
X23.437 I-1.156
G1 X23.438 Y35.928
G3 X23.445 Y35.839 I0.499
G1 X23.497 Y35.551
G3 X23.668 Y35.256 I0.491 J0.088
G1 X23.673 Y35.252
G3 X23.823 Y35.166 I0.321 J0.383
X23.998 Y35.134 I0.174 J0.468
X24.173 Y35.164 I0.005 J0.499
X24.327 Y35.252 I-0.167 J0.471
G1 X24.332 Y35.256
G3 X24.503 Y35.551 I-0.32 J0.383
G1 X24.555 Y35.839
G3 X24.563 Y35.928 I-0.491 J0.088
G1 Y95.361
G3 X24.556 Y95.446 I-0.499
G1 X24.505 Y95.737
G3 X24.446 Y95.9 I-0.492 J-0.086
G1 X24.442 Y95.907
G3 X24.182 Y96.127 I-0.433 J-0.249
G1 X24.173 Y96.13
G3 X23.828 I-0.172 J-0.469
G1 X23.818 Y96.127
G3 X23.558 Y95.907 I0.173 J-0.469
G1 X23.554 Y95.9
G3 X23.495 Y95.737 I0.433 J-0.249
G1 X23.444 Y95.446
G3 X23.437 Y95.361 I0.492 J-0.086
G1 Y95.355
G2 X22.844 Y94.465 I-0.964
G3 X22.25 Y93.575 I0.371 J-0.89
G1 X22.251 Y35.777
X22.382 Y35.05
X22.677 Y34.538
X23.139 Y34.152
X23.7 Y33.947
X24.3
X24.861 Y34.152
X25.323 Y34.538
X25.619 Y35.05
X25.75 Y35.777
Y95.506
X25.623 Y96.234
X25.321 Y96.76
X24.87 Y97.138
X24.298 Y97.349
X23.702
X23.13 Y97.138
X22.679 Y96.76
X22.377 Y96.234
X22.25 Y95.506
Y93.575
G3 X22.542 Y93.525 I0.15
G1 X23.429 Y96.049
G3 X23.166 Y96.187 I-0.142 J0.05
X25.481 Y94.524 Z-14.656 I1.157 J-0.831
X23.166 Y96.187 Z-14.813 I-1.157 J0.831
X25.481 Y94.524 Z-14.969 I1.157 J-0.831
X25.748 Y95.355 Z-15 I-1.157 J0.831
X23.437 I-1.156
G1 X23.438 Y35.928
G3 X23.445 Y35.839 I0.499
G1 X23.497 Y35.551
G3 X23.668 Y35.256 I0.491 J0.088
G1 X23.673 Y35.252
G3 X23.823 Y35.166 I0.321 J0.383
X23.998 Y35.134 I0.174 J0.468
X24.173 Y35.164 I0.005 J0.499
X24.327 Y35.252 I-0.167 J0.471
G1 X24.332 Y35.256
G3 X24.503 Y35.551 I-0.32 J0.383
G1 X24.555 Y35.839
G3 X24.563 Y35.928 I-0.491 J0.088
G1 Y95.361
G3 X24.556 Y95.446 I-0.499
G1 X24.505 Y95.737
G3 X24.446 Y95.9 I-0.492 J-0.086
G1 X24.442 Y95.907
G3 X24.182 Y96.127 I-0.433 J-0.249
G1 X24.173 Y96.13
G3 X23.828 I-0.172 J-0.469
G1 X23.818 Y96.127
G3 X23.558 Y95.907 I0.173 J-0.469
G1 X23.554 Y95.9
G3 X23.495 Y95.737 I0.433 J-0.249
G1 X23.444 Y95.446
G3 X23.437 Y95.361 I0.492 J-0.086
G1 Y95.355
G2 X22.844 Y94.465 I-0.964
G3 X22.25 Y93.575 I0.371 J-0.89
G1 X22.251 Y35.777
X22.382 Y35.05
X22.677 Y34.538
X23.139 Y34.152
X23.7 Y33.947
X24.3
X24.861 Y34.152
X25.323 Y34.538
X25.619 Y35.05
X25.75 Y35.777
Y95.506
X25.623 Y96.234
X25.321 Y96.76
X24.87 Y97.138
X24.298 Y97.349
X23.702
X23.13 Y97.138
X22.679 Y96.76
X22.377 Y96.234
X22.25 Y95.506
Y93.575
G3 X22.542 Y93.525 I0.15
G1 X23.429 Y96.049
G3 X23.166 Y96.187 I-0.142 J0.05
X25.481 Y94.524 Z-15.156 I1.157 J-0.831
X23.166 Y96.187 Z-15.313 I-1.157 J0.831
X25.481 Y94.524 Z-15.469 I1.157 J-0.831
X25.748 Y95.355 Z-15.5 I-1.157 J0.831
X23.437 I-1.156
G1 X23.438 Y35.928
G3 X23.445 Y35.839 I0.499
G1 X23.497 Y35.551
G3 X23.668 Y35.256 I0.491 J0.088
G1 X23.673 Y35.252
G3 X23.823 Y35.166 I0.321 J0.383
X23.998 Y35.134 I0.174 J0.468
X24.173 Y35.164 I0.005 J0.499
X24.327 Y35.252 I-0.167 J0.471
G1 X24.332 Y35.256
G3 X24.503 Y35.551 I-0.32 J0.383
G1 X24.555 Y35.839
G3 X24.563 Y35.928 I-0.491 J0.088
G1 Y95.361
G3 X24.556 Y95.446 I-0.499
G1 X24.505 Y95.737
G3 X24.446 Y95.9 I-0.492 J-0.086
G1 X24.442 Y95.907
G3 X24.182 Y96.127 I-0.433 J-0.249
G1 X24.173 Y96.13
G3 X23.828 I-0.172 J-0.469
G1 X23.818 Y96.127
G3 X23.558 Y95.907 I0.173 J-0.469
G1 X23.554 Y95.9
G3 X23.495 Y95.737 I0.433 J-0.249
G1 X23.444 Y95.446
G3 X23.437 Y95.361 I0.492 J-0.086
G1 Y95.355
G2 X22.844 Y94.465 I-0.964
G3 X22.25 Y93.575 I0.371 J-0.89
G1 X22.251 Y35.777
X22.382 Y35.05
X22.677 Y34.538
X23.139 Y34.152
X23.7 Y33.947
X24.3
X24.861 Y34.152
X25.323 Y34.538
X25.619 Y35.05
X25.75 Y35.777
Y95.506
X25.623 Y96.234
X25.321 Y96.76
X24.87 Y97.138
X24.298 Y97.349
X23.702
X23.13 Y97.138
X22.679 Y96.76
X22.377 Y96.234
X22.25 Y95.506
Y93.575
G3 X22.542 Y93.525 I0.15
G1 X23.429 Y96.049
G3 X23.166 Y96.187 I-0.142 J0.05
X25.481 Y94.524 Z-15.656 I1.157 J-0.831
X23.166 Y96.187 Z-15.813 I-1.157 J0.831
X25.481 Y94.524 Z-15.969 I1.157 J-0.831
X25.748 Y95.355 Z-16 I-1.157 J0.831
X23.437 I-1.156
G1 X23.438 Y35.928
G3 X23.445 Y35.839 I0.499
G1 X23.497 Y35.551
G3 X23.668 Y35.256 I0.491 J0.088
G1 X23.673 Y35.252
G3 X23.823 Y35.166 I0.321 J0.383
X23.998 Y35.134 I0.174 J0.468
X24.173 Y35.164 I0.005 J0.499
X24.327 Y35.252 I-0.167 J0.471
G1 X24.332 Y35.256
G3 X24.503 Y35.551 I-0.32 J0.383
G1 X24.555 Y35.839
G3 X24.563 Y35.928 I-0.491 J0.088
G1 Y95.361
G3 X24.556 Y95.446 I-0.499
G1 X24.505 Y95.737
G3 X24.446 Y95.9 I-0.492 J-0.086
G1 X24.442 Y95.907
G3 X24.182 Y96.127 I-0.433 J-0.249
G1 X24.173 Y96.13
G3 X23.828 I-0.172 J-0.469
G1 X23.818 Y96.127
G3 X23.558 Y95.907 I0.173 J-0.469
G1 X23.554 Y95.9
G3 X23.495 Y95.737 I0.433 J-0.249
G1 X23.444 Y95.446
G3 X23.437 Y95.361 I0.492 J-0.086
G1 Y95.355
G2 X22.844 Y94.465 I-0.964
G3 X22.25 Y93.575 I0.371 J-0.89
G1 X22.251 Y35.777
X22.382 Y35.05
X22.677 Y34.538
X23.139 Y34.152
X23.7 Y33.947
X24.3
X24.861 Y34.152
X25.323 Y34.538
X25.619 Y35.05
X25.75 Y35.777
Y95.506
X25.623 Y96.234
X25.321 Y96.76
X24.87 Y97.138
X24.298 Y97.349
X23.702
X23.13 Y97.138
X22.679 Y96.76
X22.377 Y96.234
X22.25 Y95.506
Y93.575
G3 X22.542 Y93.525 I0.15
G1 X23.429 Y96.049
G3 X23.166 Y96.187 I-0.142 J0.05
X25.481 Y94.524 Z-16.156 I1.157 J-0.831
X23.166 Y96.187 Z-16.313 I-1.157 J0.831
X25.481 Y94.524 Z-16.469 I1.157 J-0.831
X25.748 Y95.355 Z-16.5 I-1.157 J0.831
X23.437 I-1.156
G1 X23.438 Y35.928
G3 X23.445 Y35.839 I0.499
G1 X23.497 Y35.551
G3 X23.668 Y35.256 I0.491 J0.088
G1 X23.673 Y35.252
G3 X23.823 Y35.166 I0.321 J0.383
X23.998 Y35.134 I0.174 J0.468
X24.173 Y35.164 I0.005 J0.499
X24.327 Y35.252 I-0.167 J0.471
G1 X24.332 Y35.256
G3 X24.503 Y35.551 I-0.32 J0.383
G1 X24.555 Y35.839
G3 X24.563 Y35.928 I-0.491 J0.088
G1 Y95.361
G3 X24.556 Y95.446 I-0.499
G1 X24.505 Y95.737
G3 X24.446 Y95.9 I-0.492 J-0.086
G1 X24.442 Y95.907
G3 X24.182 Y96.127 I-0.433 J-0.249
G1 X24.173 Y96.13
G3 X23.828 I-0.172 J-0.469
G1 X23.818 Y96.127
G3 X23.558 Y95.907 I0.173 J-0.469
G1 X23.554 Y95.9
G3 X23.495 Y95.737 I0.433 J-0.249
G1 X23.444 Y95.446
G3 X23.437 Y95.361 I0.492 J-0.086
G1 Y95.355
G2 X22.844 Y94.465 I-0.964
G3 X22.25 Y93.575 I0.371 J-0.89
G1 X22.251 Y35.777
X22.382 Y35.05
X22.677 Y34.538
X23.139 Y34.152
X23.7 Y33.947
X24.3
X24.861 Y34.152
X25.323 Y34.538
X25.619 Y35.05
X25.75 Y35.777
Y95.506
X25.623 Y96.234
X25.321 Y96.76
X24.87 Y97.138
X24.298 Y97.349
X23.702
X23.13 Y97.138
X22.679 Y96.76
X22.377 Y96.234
X22.25 Y95.506
Y93.575
G3 X22.542 Y93.525 I0.15
G1 X23.429 Y96.049
G3 X23.166 Y96.187 I-0.142 J0.05
X25.481 Y94.524 Z-16.656 I1.157 J-0.831
X23.166 Y96.187 Z-16.813 I-1.157 J0.831
X25.481 Y94.524 Z-16.969 I1.157 J-0.831
X25.748 Y95.355 Z-17 I-1.157 J0.831
X23.437 I-1.156
G1 X23.438 Y35.928
G3 X23.445 Y35.839 I0.499
G1 X23.497 Y35.551
G3 X23.668 Y35.256 I0.491 J0.088
G1 X23.673 Y35.252
G3 X23.823 Y35.166 I0.321 J0.383
X23.998 Y35.134 I0.174 J0.468
X24.173 Y35.164 I0.005 J0.499
X24.327 Y35.252 I-0.167 J0.471
G1 X24.332 Y35.256
G3 X24.503 Y35.551 I-0.32 J0.383
G1 X24.555 Y35.839
G3 X24.563 Y35.928 I-0.491 J0.088
G1 Y95.361
G3 X24.556 Y95.446 I-0.499
G1 X24.505 Y95.737
G3 X24.446 Y95.9 I-0.492 J-0.086
G1 X24.442 Y95.907
G3 X24.182 Y96.127 I-0.433 J-0.249
G1 X24.173 Y96.13
G3 X23.828 I-0.172 J-0.469
G1 X23.818 Y96.127
G3 X23.558 Y95.907 I0.173 J-0.469
G1 X23.554 Y95.9
G3 X23.495 Y95.737 I0.433 J-0.249
G1 X23.444 Y95.446
G3 X23.437 Y95.361 I0.492 J-0.086
G1 Y95.355
G2 X22.844 Y94.465 I-0.964
G3 X22.25 Y93.575 I0.371 J-0.89
G1 X22.251 Y35.777
X22.382 Y35.05
X22.677 Y34.538
X23.139 Y34.152
X23.7 Y33.947
X24.3
X24.861 Y34.152
X25.323 Y34.538
X25.619 Y35.05
X25.75 Y35.777
Y95.506
X25.623 Y96.234
X25.321 Y96.76
X24.87 Y97.138
X24.298 Y97.349
X23.702
X23.13 Y97.138
X22.679 Y96.76
X22.377 Y96.234
X22.25 Y95.506
Y93.575
G3 X22.542 Y93.525 I0.15
G1 X23.429 Y96.049
G3 X23.166 Y96.187 I-0.142 J0.05
X25.481 Y94.524 Z-17.156 I1.157 J-0.831
X23.166 Y96.187 Z-17.313 I-1.157 J0.831
X25.481 Y94.524 Z-17.469 I1.157 J-0.831
X25.748 Y95.355 Z-17.5 I-1.157 J0.831
X23.437 I-1.156
G1 X23.438 Y35.928
G3 X23.445 Y35.839 I0.499
G1 X23.497 Y35.551
G3 X23.668 Y35.256 I0.491 J0.088
G1 X23.673 Y35.252
G3 X23.823 Y35.166 I0.321 J0.383
X23.998 Y35.134 I0.174 J0.468
X24.173 Y35.164 I0.005 J0.499
X24.327 Y35.252 I-0.167 J0.471
G1 X24.332 Y35.256
G3 X24.503 Y35.551 I-0.32 J0.383
G1 X24.555 Y35.839
G3 X24.563 Y35.928 I-0.491 J0.088
G1 Y95.361
G3 X24.556 Y95.446 I-0.499
G1 X24.505 Y95.737
G3 X24.446 Y95.9 I-0.492 J-0.086
G1 X24.442 Y95.907
G3 X24.182 Y96.127 I-0.433 J-0.249
G1 X24.173 Y96.13
G3 X23.828 I-0.172 J-0.469
G1 X23.818 Y96.127
G3 X23.558 Y95.907 I0.173 J-0.469
G1 X23.554 Y95.9
G3 X23.495 Y95.737 I0.433 J-0.249
G1 X23.444 Y95.446
G3 X23.437 Y95.361 I0.492 J-0.086
G1 Y95.355
G2 X22.844 Y94.465 I-0.964
G3 X22.25 Y93.575 I0.371 J-0.89
G1 X22.251 Y35.777
X22.382 Y35.05
X22.677 Y34.538
X23.139 Y34.152
X23.7 Y33.947
X24.3
X24.861 Y34.152
X25.323 Y34.538
X25.619 Y35.05
X25.75 Y35.777
Y95.506
X25.623 Y96.234
X25.321 Y96.76
X24.87 Y97.138
X24.298 Y97.349
X23.702
X23.13 Y97.138
X22.679 Y96.76
X22.377 Y96.234
X22.25 Y95.506
Y93.575
G3 X22.462 Y93.438 I0.15
G1 X24.774 Y94.474
G3 X24.834 Y94.524 I-0.061 J0.137
X22.52 Y96.187 Z-17.656 I-1.157 J0.831
X24.834 Y94.524 Z-17.813 I1.157 J-0.831
X22.52 Y96.187 Z-17.969 I-1.157 J0.831
X22.252 Y95.355 Z-18 I1.157 J-0.831
X23.408 Y94.199 I1.156
X24.563 Y95.355 J1.156
G1 Y95.361
G3 X24.556 Y95.446 I-0.499
G1 X24.505 Y95.737
G3 X24.446 Y95.9 I-0.492 J-0.086
G1 X24.442 Y95.907
G3 X24.182 Y96.127 I-0.433 J-0.249
G1 X24.173 Y96.13
G3 X23.828 I-0.172 J-0.469
G1 X23.818 Y96.127
G3 X23.558 Y95.907 I0.173 J-0.469
G1 X23.554 Y95.9
G3 X23.495 Y95.737 I0.433 J-0.249
G1 X23.444 Y95.446
G3 X23.437 Y95.361 I0.492 J-0.086
G1 X23.438 Y35.928
G3 X23.445 Y35.839 I0.499
G1 X23.497 Y35.551
G3 X23.668 Y35.256 I0.491 J0.088
G1 X23.673 Y35.252
G3 X23.823 Y35.166 I0.321 J0.383
X23.998 Y35.134 I0.174 J0.468
X24.173 Y35.164 I0.005 J0.499
X24.327 Y35.252 I-0.167 J0.471
G1 X24.332 Y35.256
G3 X24.503 Y35.551 I-0.32 J0.383
G1 X24.555 Y35.839
G3 X24.563 Y35.928 I-0.491 J0.088
G1 Y95.355
G2 X25.009 Y96.089 I0.826
G3 X25.104 Y96.942 I-0.237 J0.458
G1 X24.87 Y97.138
X24.298 Y97.349
X23.702
X23.13 Y97.138
X22.679 Y96.76
X22.377 Y96.234
X22.25 Y95.506
X22.251 Y35.777
X22.382 Y35.05
X22.677 Y34.538
X23.139 Y34.152
X23.7 Y33.947
X24.3
X24.861 Y34.152
X25.323 Y34.538
X25.619 Y35.05
X25.75 Y35.777
Y95.506
X25.623 Y96.234
X25.321 Y96.76
X25.104 Y96.942
G3 X24.949 Y96.965 I-0.096 J-0.115
G1 X23.229 Y96.237
G3 X23.166 Y96.187 I0.058 J-0.138
X25.481 Y94.524 Z-18.156 I1.157 J-0.831
X23.166 Y96.187 Z-18.313 I-1.157 J0.831
X25.481 Y94.524 Z-18.469 I1.157 J-0.831
X25.748 Y95.355 Z-18.5 I-1.157 J0.831
X23.437 I-1.156
G1 X23.438 Y35.928
G3 X23.445 Y35.839 I0.499
G1 X23.497 Y35.551
G3 X23.668 Y35.256 I0.491 J0.088
G1 X23.673 Y35.252
G3 X23.823 Y35.166 I0.321 J0.383
X23.998 Y35.134 I0.174 J0.468
X24.173 Y35.164 I0.005 J0.499
X24.327 Y35.252 I-0.167 J0.471
G1 X24.332 Y35.256
G3 X24.503 Y35.551 I-0.32 J0.383
G1 X24.555 Y35.839
G3 X24.563 Y35.928 I-0.491 J0.088
G1 Y95.361
G3 X24.556 Y95.446 I-0.499
G1 X24.505 Y95.737
G3 X24.446 Y95.9 I-0.492 J-0.086
G1 X24.442 Y95.907
G3 X24.182 Y96.127 I-0.433 J-0.249
G1 X24.173 Y96.13
G3 X23.828 I-0.172 J-0.469
G1 X23.818 Y96.127
G3 X23.558 Y95.907 I0.173 J-0.469
G1 X23.554 Y95.9
G3 X23.495 Y95.737 I0.433 J-0.249
G1 X23.444 Y95.446
G3 X23.437 Y95.361 I0.492 J-0.086
G1 Y95.355
G2 X22.844 Y94.465 I-0.964
G3 X22.25 Y93.575 I0.371 J-0.89
G1 X22.251 Y35.777
X22.382 Y35.05
X22.677 Y34.538
X23.139 Y34.152
X23.7 Y33.947
X24.3
X24.861 Y34.152
X25.323 Y34.538
X25.619 Y35.05
X25.75 Y35.777
Y95.506
X25.623 Y96.234
X25.321 Y96.76
X24.87 Y97.138
X24.298 Y97.349
X23.702
X23.13 Y97.138
X22.679 Y96.76
X22.377 Y96.234
X22.25 Y95.506
Y93.575
G3 X22.542 Y93.525 I0.15
G1 X23.429 Y96.049
G3 X23.166 Y96.187 I-0.142 J0.05
X25.481 Y94.524 Z-18.656 I1.157 J-0.831
X23.166 Y96.187 Z-18.813 I-1.157 J0.831
X25.481 Y94.524 Z-18.969 I1.157 J-0.831
X25.748 Y95.355 Z-19 I-1.157 J0.831
X23.437 I-1.156
G1 X23.438 Y35.928
G3 X23.445 Y35.839 I0.499
G1 X23.497 Y35.551
G3 X23.668 Y35.256 I0.491 J0.088
G1 X23.673 Y35.252
G3 X23.823 Y35.166 I0.321 J0.383
X23.998 Y35.134 I0.174 J0.468
X24.173 Y35.164 I0.005 J0.499
X24.327 Y35.252 I-0.167 J0.471
G1 X24.332 Y35.256
G3 X24.503 Y35.551 I-0.32 J0.383
G1 X24.555 Y35.839
G3 X24.563 Y35.928 I-0.491 J0.088
G1 Y95.361
G3 X24.556 Y95.446 I-0.499
G1 X24.505 Y95.737
G3 X24.446 Y95.9 I-0.492 J-0.086
G1 X24.442 Y95.907
G3 X24.182 Y96.127 I-0.433 J-0.249
G1 X24.173 Y96.13
G3 X23.828 I-0.172 J-0.469
G1 X23.818 Y96.127
G3 X23.558 Y95.907 I0.173 J-0.469
G1 X23.554 Y95.9
G3 X23.495 Y95.737 I0.433 J-0.249
G1 X23.444 Y95.446
G3 X23.437 Y95.361 I0.492 J-0.086
G1 Y95.355
G2 X22.844 Y94.465 I-0.964
G3 X22.25 Y93.575 I0.371 J-0.89
G1 X22.251 Y35.777
X22.382 Y35.05
X22.677 Y34.538
X23.139 Y34.152
X23.7 Y33.947
X24.3
X24.861 Y34.152
X25.323 Y34.538
X25.619 Y35.05
X25.75 Y35.777
Y95.506
X25.623 Y96.234
X25.321 Y96.76
X24.87 Y97.138
X24.298 Y97.349
X23.702
X23.13 Y97.138
X22.679 Y96.76
X22.377 Y96.234
X22.25 Y95.506
Y93.575
G3 X22.542 Y93.525 I0.15
G1 X23.429 Y96.049
G3 X23.166 Y96.187 I-0.142 J0.05
X25.481 Y94.524 Z-19.156 I1.157 J-0.831
X23.166 Y96.187 Z-19.313 I-1.157 J0.831
X25.481 Y94.524 Z-19.469 I1.157 J-0.831
X25.748 Y95.355 Z-19.5 I-1.157 J0.831
X23.437 I-1.156
G1 X23.438 Y35.928
G3 X23.445 Y35.839 I0.499
G1 X23.497 Y35.551
G3 X23.668 Y35.256 I0.491 J0.088
G1 X23.673 Y35.252
G3 X23.823 Y35.166 I0.321 J0.383
X23.998 Y35.134 I0.174 J0.468
X24.173 Y35.164 I0.005 J0.499
X24.327 Y35.252 I-0.167 J0.471
G1 X24.332 Y35.256
G3 X24.503 Y35.551 I-0.32 J0.383
G1 X24.555 Y35.839
G3 X24.563 Y35.928 I-0.491 J0.088
G1 Y95.361
G3 X24.556 Y95.446 I-0.499
G1 X24.505 Y95.737
G3 X24.446 Y95.9 I-0.492 J-0.086
G1 X24.442 Y95.907
G3 X24.182 Y96.127 I-0.433 J-0.249
G1 X24.173 Y96.13
G3 X23.828 I-0.172 J-0.469
G1 X23.818 Y96.127
G3 X23.558 Y95.907 I0.173 J-0.469
G1 X23.554 Y95.9
G3 X23.495 Y95.737 I0.433 J-0.249
G1 X23.444 Y95.446
G3 X23.437 Y95.361 I0.492 J-0.086
G1 Y95.355
G2 X22.844 Y94.465 I-0.964
G3 X22.25 Y93.575 I0.371 J-0.89
G1 X22.251 Y35.777
X22.382 Y35.05
X22.677 Y34.538
X23.139 Y34.152
X23.7 Y33.947
X24.3
X24.861 Y34.152
X25.323 Y34.538
X25.619 Y35.05
X25.75 Y35.777
Y95.506
X25.623 Y96.234
X25.321 Y96.76
X24.87 Y97.138
X24.298 Y97.349
X23.702
X23.13 Y97.138
X22.679 Y96.76
X22.377 Y96.234
X22.25 Y95.506
Y93.575
G3 X22.542 Y93.525 I0.15
G1 X23.429 Y96.049
G3 X23.166 Y96.187 I-0.142 J0.05
X25.481 Y94.524 Z-19.656 I1.157 J-0.831
X23.166 Y96.187 Z-19.813 I-1.157 J0.831
X25.481 Y94.524 Z-19.969 I1.157 J-0.831
X25.748 Y95.355 Z-20 I-1.157 J0.831
X23.437 I-1.156
G1 X23.438 Y35.928
G3 X23.445 Y35.839 I0.499
G1 X23.497 Y35.551
G3 X23.668 Y35.256 I0.491 J0.088
G1 X23.673 Y35.252
G3 X23.823 Y35.166 I0.321 J0.383
X23.998 Y35.134 I0.174 J0.468
X24.173 Y35.164 I0.005 J0.499
X24.327 Y35.252 I-0.167 J0.471
G1 X24.332 Y35.256
G3 X24.503 Y35.551 I-0.32 J0.383
G1 X24.555 Y35.839
G3 X24.563 Y35.928 I-0.491 J0.088
G1 Y95.361
G3 X24.556 Y95.446 I-0.499
G1 X24.505 Y95.737
G3 X24.446 Y95.9 I-0.492 J-0.086
G1 X24.442 Y95.907
G3 X24.182 Y96.127 I-0.433 J-0.249
G1 X24.173 Y96.13
G3 X23.828 I-0.172 J-0.469
G1 X23.818 Y96.127
G3 X23.558 Y95.907 I0.173 J-0.469
G1 X23.554 Y95.9
G3 X23.495 Y95.737 I0.433 J-0.249
G1 X23.444 Y95.446
G3 X23.437 Y95.361 I0.492 J-0.086
G1 Y95.355
G2 X22.844 Y94.465 I-0.964
G3 X22.25 Y93.575 I0.371 J-0.89
G1 X22.251 Y35.777
X22.382 Y35.05
X22.677 Y34.538
X23.139 Y34.152
X23.7 Y33.947
X24.3
X24.861 Y34.152
X25.323 Y34.538
X25.619 Y35.05
X25.75 Y35.777
Y95.506
X25.623 Y96.234
X25.321 Y96.76
X24.87 Y97.138
X24.298 Y97.349
X23.702
X23.13 Y97.138
X22.679 Y96.76
X22.377 Y96.234
X22.25 Y95.506
Y93.575
G3 X22.264 Y93.484 Z-19.985 I0.3
X22.301 Y93.409 Z-19.943 I0.286 J0.091
X22.343 Y93.358 Z-19.876 I0.25 J0.166
X22.376 Y93.331 Z-19.793 I0.207 J0.217
X22.388 Y93.323 Z-19.7 I0.174 J0.244
G0 Z5
X26.186 Y121.764
Z0.825
G3 X26.191 Y121.777 Z0.734 I-1.323 J0.53 F600
X26.205 Y121.815 Z0.652 I-1.328 J0.517
X26.225 Y121.876 Z0.586 I-1.342 J0.478
X26.247 Y121.954 Z0.542 I-1.362 J0.418
X26.266 Y122.042 Z0.525 I-1.384 J0.34
X23.46 Y122.545 Z0.369 I-1.403 J0.252
X26.266 Y122.042 Z0.212 I1.403 J-0.252
X23.46 Y122.545 Z0.056 I-1.403 J0.252
X26.266 Y122.042 Z-0.1 I1.403 J-0.252
X23.46 Y122.545 Z-0.257 I-1.403 J0.252
X26.266 Y122.042 Z-0.413 I1.403 J-0.252
X24.863 Y123.719 Z-0.5 I-1.403 J0.252
G1 X22.955
G3 X22.284 Y123.048 J-0.671
G1 Y122.684
G3 X22.955 Y122.014 I0.671
G1 X25.045
G3 X25.716 Y122.684 J0.671
G1 X25.715 Y123.048
G3 X25.045 Y123.719 I-0.671
G1 X24.863
G2 X23.204 Y124.824 J1.797
G3 X21.546 Y125.93 I-1.659 J-0.691
G1 X20.983
G3 X20.073 Y125.02 J-0.91
G1 Y120.712
G3 X20.983 Y119.802 I0.91
G1 X27.017
G3 X27.927 Y120.712 J0.91
G1 Y125.02
G3 X27.017 Y125.93 I-0.91
G1 X21.546
G2 X19.813 Y126.958 J1.974
G3 X17.861 Y126.46 I-0.912 J-0.498
G1 Y118.5
G3 X18.771 Y117.59 I0.91
G1 X29.229
G3 X30.139 Y118.5 J0.91
G1 Y127.232
G3 X29.228 Y128.142 I-0.91
G1 X18.771
G3 X17.861 Y127.232 J-0.91
G1 Y126.46
G2 X16.755 Y124.801 I-1.797
G3 X15.649 Y123.142 I0.691 J-1.659
G1 Y116.289
G3 X16.559 Y115.379 I0.91
G1 X31.441
G3 X32.351 Y116.289 J0.91
G1 X32.35 Y129.443
G3 X31.44 Y130.353 I-0.91
G1 X16.559
G3 X15.649 Y129.443 J-0.91
G1 Y123.142
G2 X14.543 Y121.483 I-1.797
G3 X13.438 Y119.825 I0.691 J-1.659
G1 Y114.077
G3 X14.348 Y113.167 I0.91
G1 X33.652
G3 X34.562 Y114.077 J0.91
G1 Y131.655
G3 X33.651 Y132.565 I-0.91
G1 X14.348
G3 X13.438 Y131.655 J-0.91
G1 Y119.825
G2 X12.332 Y118.166 I-1.797
G3 X11.226 Y116.507 I0.691 J-1.659
G1 Y111.866
G3 X12.136 Y110.955 I0.91
G1 X35.864
G3 X36.774 Y111.866 J0.91
G1 X36.773 Y133.866
G3 X35.863 Y134.777 I-0.91
G1 X12.136
G3 X11.226 Y133.866 J-0.91
G1 Y116.507
G2 X10.113 Y114.838 I-1.809
G3 X9 Y113.169 I0.696 J-1.669
G1 Y108.722
X9.741 Y108.729
X9.748 Y108.73
X38.683
G2 X38.699 Y108.729 J-0.75
G1 X39 Y108.723
X38.999 Y136.986
X38.996 Y137.001
X38.989 Y137.003
X9.011 Y137.002
X9.005 Y137.001
X9 Y136.96
Y113.169
G3 X9.014 Y113.077 Z-0.485 I0.3
X9.051 Y113.002 Z-0.443 I0.286 J0.091
X9.093 Y112.951 Z-0.376 I0.25 J0.166
X9.126 Y112.924 Z-0.293 I0.207 J0.217
X9.138 Y112.916 Z-0.2 I0.174 J0.244
G0 Z5
X23.761 Y121.976
Z0.325
G3 X23.774 Y121.971 Z0.234 I0.53 J1.323 F600
X23.812 Y121.957 Z0.152 I0.517 J1.328
X23.873 Y121.937 Z0.086 I0.478 J1.342
X23.951 Y121.915 Z0.042 I0.418 J1.362
X24.039 Y121.896 Z0.025 I0.34 J1.384
X24.542 Y124.702 Z-0.131 I0.252 J1.403
X24.039 Y121.896 Z-0.288 I-0.252 J-1.403
X24.542 Y124.702 Z-0.444 I0.252 J1.403
X24.039 Y121.896 Z-0.6 I-0.252 J-1.403
X24.542 Y124.702 Z-0.757 I0.252 J1.403
X24.039 Y121.896 Z-0.913 I-0.252 J-1.403
X25.716 Y123.299 Z-1 I0.252 J1.403
G1 Y123.348
G3 X25.345 Y123.719 I-0.371
G1 X22.655
G3 X22.284 Y123.348 J-0.371
G1 Y123.25
G3 X22.655 Y122.88 I0.371
G1 X25.345
G3 X25.716 Y123.25 J0.371
G1 Y123.299
G2 X26.551 Y124.494 I1.272
G3 X26.297 Y125.93 I-0.254 J0.696
G1 X20.983
G3 X20.073 Y125.02 J-0.91
G1 Y121.578
G3 X20.983 Y120.668 I0.91
G1 X27.017
G3 X27.927 Y121.578 J0.91
G1 Y125.02
G3 X27.017 Y125.93 I-0.91
G1 X26.297
G2 X24.638 Y127.036 J1.797
G3 X22.98 Y128.142 I-1.659 J-0.691
G1 X18.771
G3 X17.861 Y127.232 J-0.91
G1 Y119.366
G3 X18.771 Y118.456 I0.91
G1 X29.229
G3 X30.139 Y119.366 J0.91
G1 Y127.232
G3 X29.228 Y128.142 I-0.91
G1 X22.98
G2 X21.321 Y129.248 J1.797
G3 X19.662 Y130.353 I-1.659 J-0.691
G1 X16.559
G3 X15.649 Y129.443 J-0.91
G1 Y117.155
G3 X16.559 Y116.245 I0.91
G1 X31.441
G3 X32.351 Y117.155 J0.91
G1 X32.35 Y129.443
G3 X31.44 Y130.353 I-0.91
G1 X19.662
G2 X18.003 Y131.459 J1.797
G3 X16.345 Y132.565 I-1.659 J-0.691
G1 X14.348
G3 X13.438 Y131.655 J-0.91
G1 Y114.943
G3 X14.348 Y114.033 I0.91
G1 X33.652
G3 X34.562 Y114.943 J0.91
G1 Y131.655
G3 X33.651 Y132.565 I-0.91
G1 X16.345
G2 X14.686 Y133.671 J1.797
G3 X13.027 Y134.777 I-1.659 J-0.691
G1 X12.136
G3 X11.226 Y133.866 J-0.91
G1 Y112.732
G3 X12.136 Y111.821 I0.91
G1 X35.864
G3 X36.774 Y112.732 J0.91
G1 X36.773 Y133.866
G3 X35.863 Y134.777 I-0.91
G1 X13.027
G2 X11.358 Y135.89 J1.809
G3 X9.689 Y137.002 I-1.669 J-0.696
G1 X9.011
X9.005 Y137.001
X9 Y136.96
Y109.588
X9.741 Y109.596
X9.748
X38.683
G2 X38.699 Y109.595 J-0.75
G1 X39 Y109.589
X38.999 Y136.986
X38.996 Y137.001
X38.989 Y137.003
X9.689 Y137.002
G3 X9.597 Y136.988 Z-0.985 J-0.3
X9.522 Y136.952 Z-0.943 I0.091 J-0.286
X9.471 Y136.91 Z-0.876 I0.166 J-0.25
X9.444 Y136.877 Z-0.793 I0.217 J-0.207
X9.436 Y136.865 Z-0.7 I0.244 J-0.174
G0 Z5
X27.052 Y122.493
Z1.5
G1 Z-0.175 F600
G3 X27.057 Y122.506 Z-0.266 I-1.323 J0.53
X27.071 Y122.545 Z-0.348 I-1.328 J0.517
X27.091 Y122.605 Z-0.414 I-1.342 J0.478
X27.113 Y122.683 Z-0.458 I-1.362 J0.418
X27.132 Y122.771 Z-0.475 I-1.384 J0.34
X24.326 Y123.275 Z-0.631 I-1.403 J0.252
X27.132 Y122.771 Z-0.788 I1.403 J-0.252
X24.326 Y123.275 Z-0.944 I-1.403 J0.252
X27.132 Y122.771 Z-1.1 I1.403 J-0.252
X24.326 Y123.275 Z-1.257 I-1.403 J0.252
X27.132 Y122.771 Z-1.413 I1.403 J-0.252
X25.729 Y124.448 Z-1.5 I-1.403 J0.252
G1 X22.225
G3 X21.555 Y123.777 J-0.671
G1 Y123.687
G3 X22.225 Y123.016 I0.671
G1 X25.774
G3 X26.445 Y123.687 J0.671
G1 Y123.777
G3 X25.774 Y124.448 I-0.671
G1 X25.729
G2 X24.617 Y125.189 J1.204
G3 X23.506 Y125.93 I-1.112 J-0.463
G1 X20.971
G3 X20.073 Y125.031 J-0.899
G1 Y122.444
G3 X20.983 Y121.534 I0.91
G1 X27.017
G3 X27.927 Y122.444 J0.91
G1 Y125.02
G3 X27.017 Y125.93 I-0.91
G1 X23.506
G2 X21.847 Y127.036 J1.797
G3 X20.188 Y128.142 I-1.659 J-0.691
G1 X18.76
G3 X17.861 Y127.243 J-0.899
G1 Y120.232
G3 X18.771 Y119.322 I0.91
G1 X29.229
G3 X30.139 Y120.232 J0.91
G1 Y127.232
G3 X29.228 Y128.142 I-0.91
G1 X20.188
G2 X18.529 Y129.248 J1.797
G3 X16.871 Y130.353 I-1.659 J-0.691
G1 X16.548
G3 X15.649 Y129.455 J-0.899
G1 Y118.021
G3 X16.559 Y117.111 I0.91
G1 X31.441
G3 X32.351 Y118.021 J0.91
G1 X32.35 Y129.443
G3 X31.44 Y130.353 I-0.91
G1 X16.871
G2 X15.213 Y131.206 J2.039
G3 X13.438 Y130.636 I-0.796 J-0.57
G1 Y115.809
G3 X14.348 Y114.899 I0.91
G1 X33.652
G3 X34.562 Y115.809 J0.91
G1 Y131.655
G3 X33.651 Y132.565 I-0.91
G1 X14.336
G3 X13.438 Y131.666 J-0.899
G1 Y130.636
G2 X12.332 Y128.977 I-1.797
G3 X11.226 Y127.319 I0.691 J-1.659
G1 Y113.598
G3 X12.136 Y112.687 I0.91
G1 X35.864
G3 X36.774 Y113.598 J0.91
G1 X36.773 Y133.866
G3 X35.863 Y134.777 I-0.91
G1 X12.125
G3 X11.226 Y133.878 J-0.899
G1 Y127.319
G2 X10.113 Y125.649 I-1.809
G3 X9 Y123.98 I0.696 J-1.669
G1 Y110.454
X9.741 Y110.462
X9.748
X38.683
G2 X38.699 Y110.461 J-0.75
G1 X39 Y110.455
X38.999 Y136.986
X38.996 Y137.001
X38.989 Y137.003
X9.011 Y137.002
X9.005 Y137.001
X9 Y136.96
Y123.98
G3 X9.014 Y123.889 Z-1.485 I0.3
X9.051 Y123.814 Z-1.443 I0.286 J0.091
X9.093 Y123.763 Z-1.376 I0.25 J0.166
X9.126 Y123.736 Z-1.293 I0.207 J0.217
X9.138 Y123.727 Z-1.2 I0.174 J0.244
G0 Z5
X27.485 Y122.783
Z-0.675
G3 X27.49 Y122.796 Z-0.766 I-1.323 J0.53 F600
X27.504 Y122.835 Z-0.848 I-1.328 J0.517
X27.524 Y122.895 Z-0.914 I-1.342 J0.478
X27.546 Y122.973 Z-0.958 I-1.362 J0.418
X27.565 Y123.061 Z-0.975 I-1.384 J0.34
X24.759 Y123.565 Z-1.131 I-1.403 J0.252
X27.565 Y123.061 Z-1.288 I1.403 J-0.252
X24.759 Y123.565 Z-1.444 I-1.403 J0.252
X27.565 Y123.061 Z-1.6 I1.403 J-0.252
X24.759 Y123.565 Z-1.757 I-1.403 J0.252
X27.565 Y123.061 Z-1.913 I1.403 J-0.252
X26.162 Y124.738 Z-2 I-1.403 J0.252
G1 X22.016
G3 Y123.592 J-0.573
G1 X26.236
G3 X26.735 Y124.091 J0.499
G1 Y124.239
G3 X26.236 Y124.738 I-0.499
G1 X26.162
G2 X25.268 Y125.334 J0.969
G3 X24.374 Y125.93 I-0.894 J-0.373
G1 X20.983
G3 X20.073 Y125.02 J-0.91
G1 Y123.31
G3 X20.983 Y122.4 I0.91
G1 X27.017
G3 X27.927 Y123.31 J0.91
G1 Y125.02
G3 X27.017 Y125.93 I-0.91
G1 X24.374
G2 X22.715 Y127.036 J1.797
G3 X21.056 Y128.142 I-1.659 J-0.691
G1 X18.771
G3 X17.861 Y127.232 J-0.91
G1 Y121.098
G3 X18.771 Y120.188 I0.91
G1 X29.229
G3 X30.139 Y121.098 J0.91
G1 Y127.232
G3 X29.228 Y128.142 I-0.91
G1 X21.056
G2 X19.398 Y129.248 J1.797
G3 X17.739 Y130.353 I-1.659 J-0.691
G1 X16.559
G3 X15.649 Y129.443 J-0.91
G1 Y118.887
G3 X16.559 Y117.977 I0.91
G1 X31.441
G3 X32.351 Y118.887 J0.91
G1 X32.35 Y129.443
G3 X31.44 Y130.353 I-0.91
G1 X17.739
G2 X16.08 Y131.459 J1.797
G3 X14.421 Y132.565 I-1.659 J-0.691
G1 X14.348
G3 X13.438 Y131.655 J-0.91
G1 Y116.675
G3 X14.348 Y115.765 I0.91
G1 X33.652
G3 X34.562 Y116.675 J0.91
G1 Y131.655
G3 X33.651 Y132.565 I-0.91
G1 X14.421
G2 X12.947 Y133.523 J1.614
G3 X11.226 Y133.158 I-0.822 J-0.365
G1 Y114.464
G3 X12.136 Y113.553 I0.91
G1 X35.864
G3 X36.774 Y114.464 J0.91
G1 X36.773 Y133.866
G3 X35.863 Y134.777 I-0.91
G1 X12.136
G3 X11.226 Y133.866 J-0.91
G1 Y133.158
G2 X10.113 Y131.489 I-1.809
G3 X9 Y129.819 I0.696 J-1.669
G1 Y111.32
X9.741 Y111.328
X9.748
X38.683
G2 X38.699 Y111.327 J-0.75
G1 X39 Y111.321
X38.999 Y136.986
X38.996 Y137.001
X38.989 Y137.003
X9.011 Y137.002
X9.005 Y137.001
X9 Y136.96
Y129.819
G3 X9.014 Y129.728 Z-1.985 I0.3
X9.051 Y129.653 Z-1.943 I0.286 J0.091
X9.093 Y129.602 Z-1.876 I0.25 J0.166
X9.126 Y129.575 Z-1.793 I0.207 J0.217
X9.138 Y129.567 Z-1.7 I0.174 J0.244
G0 Z5
X27.918 Y123.975
Z-1.175
G3 X27.923 Y123.989 Z-1.266 I-1.323 J0.53 F600
X27.937 Y124.027 Z-1.348 I-1.328 J0.517
X27.957 Y124.087 Z-1.414 I-1.342 J0.478
X27.979 Y124.165 Z-1.458 I-1.362 J0.418
X27.998 Y124.253 Z-1.475 I-1.384 J0.34
X25.192 Y124.757 Z-1.631 I-1.403 J0.252
X27.998 Y124.253 Z-1.788 I1.403 J-0.252
X25.192 Y124.757 Z-1.944 I-1.403 J0.252
X27.998 Y124.253 Z-2.1 I1.403 J-0.252
X25.192 Y124.757 Z-2.257 I-1.403 J0.252
X27.998 Y124.253 Z-2.413 I1.403 J-0.252
X26.595 Y125.93 Z-2.5 I-1.403 J0.252
G1 X20.983
G3 X20.073 Y125.02 J-0.91
G1 Y124.176
G3 X20.983 Y123.266 I0.91
G1 X27.017
G3 X27.927 Y124.176 J0.91
G1 Y125.02
G3 X27.017 Y125.93 I-0.91
G1 X26.595
G2 X24.936 Y127.036 J1.797
G3 X23.278 Y128.142 I-1.659 J-0.691
G1 X18.771
G3 X17.861 Y127.232 J-0.91
G1 Y121.965
G3 X18.771 Y121.054 I0.91
G1 X29.229
G3 X30.139 Y121.964 J0.91
G1 Y127.232
G3 X29.228 Y128.142 I-0.91
G1 X23.278
G2 X21.619 Y129.248 J1.797
G3 X19.96 Y130.353 I-1.659 J-0.691
G1 X16.559
G3 X15.649 Y129.443 J-0.91
G1 Y119.753
G3 X16.559 Y118.843 I0.91
G1 X31.441
G3 X32.351 Y119.753 J0.91
G1 X32.35 Y129.443
G3 X31.44 Y130.353 I-0.91
G1 X19.96
G2 X18.301 Y131.459 J1.797
G3 X16.643 Y132.565 I-1.659 J-0.691
G1 X14.348
G3 X13.438 Y131.655 J-0.91
G1 Y117.541
G3 X14.348 Y116.631 I0.91
G1 X33.652
G3 X34.562 Y117.541 J0.91
G1 Y131.655
G3 X33.651 Y132.565 I-0.91
G1 X16.643
G2 X14.984 Y133.671 J1.797
G3 X13.325 Y134.777 I-1.659 J-0.691
G1 X12.136
G3 X11.226 Y133.866 J-0.91
G1 Y115.33
G3 X12.136 Y114.42 I0.91
G1 X35.864
G3 X36.774 Y115.33 J0.91
G1 X36.773 Y133.866
G3 X35.863 Y134.777 I-0.91
G1 X13.325
G2 X11.656 Y135.89 J1.809
G3 X9.987 Y137.002 I-1.669 J-0.696
G1 X9.011
X9.005 Y137.001
X9 Y136.96
Y112.186
X9.741 Y112.194
X9.748
X38.683
G2 X38.699 Y112.193 J-0.75
G1 X39 Y112.187
X38.999 Y136.986
X38.996 Y137.001
X38.989 Y137.003
X9.987 Y137.002
G3 X9.895 Y136.988 Z-2.485 J-0.3
X9.82 Y136.952 Z-2.443 I0.091 J-0.286
X9.769 Y136.91 Z-2.376 I0.166 J-0.25
X9.742 Y136.877 Z-2.293 I0.217 J-0.207
X9.734 Y136.865 Z-2.2 I0.244 J-0.174
G0 Z5
X28.351 Y123.976
Z-1.675
G3 X28.356 Y123.989 Z-1.766 I-1.323 J0.53 F600
X28.37 Y124.027 Z-1.848 I-1.328 J0.517
X28.39 Y124.087 Z-1.914 I-1.342 J0.478
X28.412 Y124.165 Z-1.958 I-1.362 J0.418
X28.431 Y124.253 Z-1.975 I-1.384 J0.34
X25.625 Y124.757 Z-2.131 I-1.403 J0.252
X28.431 Y124.253 Z-2.288 I1.403 J-0.252
X25.625 Y124.757 Z-2.444 I-1.403 J0.252
X28.431 Y124.253 Z-2.6 I1.403 J-0.252
X25.625 Y124.757 Z-2.757 I-1.403 J0.252
X28.431 Y124.253 Z-2.913 I1.403 J-0.252
X27.028 Y125.93 Z-3 I-1.403 J0.252
G1 X20.971
G3 Y124.132 J-0.899
G1 X27.028
G3 X27.927 Y125.031 J0.899
X27.028 Y125.93 I-0.899 J0.001
G2 X25.369 Y127.036 J1.797
G3 X23.711 Y128.142 I-1.659 J-0.691
G1 X18.771
G3 X17.861 Y127.232 J-0.91
G1 Y122.831
G3 X18.771 Y121.92 I0.91
G1 X29.229
G3 X30.139 Y122.831 J0.91
G1 Y127.232
G3 X29.228 Y128.142 I-0.91
G1 X23.711
G2 X22.052 Y129.248 J1.797
G3 X20.393 Y130.353 I-1.659 J-0.691
G1 X16.559
G3 X15.649 Y129.443 J-0.91
G1 Y120.619
G3 X16.559 Y119.709 I0.91
G1 X31.441
G3 X32.351 Y120.619 J0.91
G1 X32.35 Y129.443
G3 X31.44 Y130.353 I-0.91
G1 X20.393
G2 X18.734 Y131.459 J1.797
G3 X17.076 Y132.565 I-1.659 J-0.691
G1 X14.348
G3 X13.438 Y131.655 J-0.91
G1 Y118.407
G3 X14.348 Y117.497 I0.91
G1 X33.652
G3 X34.562 Y118.407 J0.91
G1 Y131.655
G3 X33.651 Y132.565 I-0.91
G1 X17.076
G2 X15.417 Y133.671 J1.797
G3 X13.758 Y134.777 I-1.659 J-0.691
G1 X12.136
G3 X11.226 Y133.866 J-0.91
G1 Y116.196
G3 X12.136 Y115.286 I0.91
G1 X35.864
G3 X36.774 Y116.196 J0.91
G1 X36.773 Y133.866
G3 X35.863 Y134.777 I-0.91
G1 X13.758
G2 X12.089 Y135.89 J1.809
G3 X10.42 Y137.002 I-1.669 J-0.696
G1 X9.011
X9.005 Y137.001
X9 Y136.96
Y113.052
X9.741 Y113.06
X9.748
X38.683
G2 X38.699 J-0.75
G1 X39 Y113.053
X38.999 Y136.986
X38.996 Y137.001
X38.989 Y137.003
X10.42 Y137.002
G3 X10.328 Y136.988 Z-2.985 J-0.3
X10.253 Y136.952 Z-2.943 I0.091 J-0.286
X10.202 Y136.91 Z-2.876 I0.166 J-0.25
X10.175 Y136.877 Z-2.793 I0.217 J-0.207
X10.167 Y136.865 Z-2.7 I0.244 J-0.174
G0 Z5
X25.973 Y124.141
Z-2.175
G3 X25.986 Y124.136 Z-2.266 I0.53 J1.323 F600
X26.024 Y124.122 Z-2.348 I0.517 J1.328
X26.084 Y124.102 Z-2.414 I0.478 J1.342
X26.162 Y124.08 Z-2.458 I0.418 J1.362
X26.25 Y124.061 Z-2.475 I0.34 J1.384
X26.754 Y126.867 Z-2.631 I0.252 J1.403
X26.25 Y124.061 Z-2.788 I-0.252 J-1.403
X26.754 Y126.867 Z-2.944 I0.252 J1.403
X26.25 Y124.061 Z-3.1 I-0.252 J-1.403
X26.754 Y126.867 Z-3.257 I0.252 J1.403
X26.25 Y124.061 Z-3.413 I-0.252 J-1.403
X27.927 Y125.464 Z-3.5 I0.252 J1.403
G1 Y125.559
G3 X27.556 Y125.93 I-0.371
G1 X20.443
G3 X20.073 Y125.559 J-0.371
G1 Y125.369
G3 X20.443 Y124.998 I0.371
G1 X27.556
G3 X27.927 Y125.369 J0.371
G1 Y125.464
G2 X28.796 Y126.673 I1.275
G3 X28.555 Y128.142 I-0.241 J0.715
G1 X18.771
G3 X17.861 Y127.232 J-0.91
G1 Y123.697
G3 X18.771 Y122.786 I0.91
G1 X29.229
G3 X30.139 Y123.697 J0.91
G1 Y127.232
G3 X29.228 Y128.142 I-0.91
G1 X28.555
G2 X26.896 Y129.248 J1.797
G3 X25.238 Y130.353 I-1.659 J-0.691
G1 X16.559
G3 X15.649 Y129.443 J-0.91
G1 Y121.485
G3 X16.559 Y120.575 I0.91
G1 X31.441
G3 X32.351 Y121.485 J0.91
G1 X32.35 Y129.443
G3 X31.44 Y130.353 I-0.91
G1 X25.238
G2 X23.579 Y131.459 J1.797
G3 X21.92 Y132.565 I-1.659 J-0.691
G1 X14.348
G3 X13.438 Y131.655 J-0.91
G1 Y119.273
G3 X14.348 Y118.363 I0.91
G1 X33.652
G3 X34.562 Y119.273 J0.91
G1 Y131.655
G3 X33.651 Y132.565 I-0.91
G1 X21.92
G2 X20.262 Y133.671 J1.797
G3 X18.603 Y134.777 I-1.659 J-0.691
G1 X12.136
G3 X11.226 Y133.866 J-0.91
G1 Y117.062
G3 X12.136 Y116.152 I0.91
G1 X35.864
G3 X36.774 Y117.062 J0.91
G1 X36.773 Y133.866
G3 X35.863 Y134.777 I-0.91
G1 X18.603
G2 X16.934 Y135.89 J1.809
G3 X15.264 Y137.002 I-1.669 J-0.696
G1 X9.011
X9.005 Y137.001
X9 Y136.96
Y113.918
X9.741 Y113.926
X9.748
X38.683
G2 X38.699 J-0.75
G1 X39 Y113.919
X38.999 Y136.986
X38.996 Y137.001
X38.989 Y137.003
X15.264 Y137.002
G3 X15.173 Y136.988 Z-3.485 J-0.3
X15.098 Y136.952 Z-3.443 I0.091 J-0.286
X15.047 Y136.91 Z-3.376 I0.166 J-0.25
X15.02 Y136.877 Z-3.293 I0.217 J-0.207
X15.012 Y136.865 Z-3.2 I0.244 J-0.174
G0 Z5
X29.217 Y124.674
Z-2.675
G3 X29.222 Y124.687 Z-2.766 I-1.323 J0.53 F600
X29.236 Y124.725 Z-2.848 I-1.328 J0.517
X29.256 Y124.785 Z-2.914 I-1.342 J0.478
X29.278 Y124.863 Z-2.958 I-1.362 J0.418
X29.297 Y124.951 Z-2.975 I-1.384 J0.34
X26.492 Y125.455 Z-3.131 I-1.403 J0.252
X29.297 Y124.951 Z-3.288 I1.403 J-0.252
X26.492 Y125.455 Z-3.444 I-1.403 J0.252
X29.297 Y124.951 Z-3.6 I1.403 J-0.252
X26.491 Y125.455 Z-3.757 I-1.403 J0.252
X29.297 Y124.951 Z-3.913 I1.403 J-0.252
X27.894 Y126.628 Z-4 I-1.403 J0.252
G1 X20.045
G3 X19.374 Y125.958 J-0.671
G1 Y125.836
G3 X20.045 Y125.166 I0.671
G1 X27.955
G3 X28.625 Y125.836 J0.671
G1 Y125.958
G3 X27.955 Y126.628 I-0.671
G1 X27.894
G2 X26.759 Y127.385 J1.23
G3 X25.624 Y128.142 I-1.135 J-0.473
G1 X18.771
G3 X17.861 Y127.232 J-0.91
G1 Y124.563
G3 X18.771 Y123.652 I0.91
G1 X29.229
G3 X30.139 Y124.563 J0.91
G1 Y127.232
G3 X29.228 Y128.142 I-0.91
G1 X25.624
G2 X23.965 Y129.248 J1.797
G3 X22.306 Y130.353 I-1.659 J-0.691
G1 X16.559
G3 X15.649 Y129.443 J-0.91
G1 Y122.351
G3 X16.559 Y121.441 I0.91
G1 X31.441
G3 X32.351 Y122.351 J0.91
G1 X32.35 Y129.443
G3 X31.44 Y130.353 I-0.91
G1 X22.306
G2 X20.648 Y131.459 J1.797
G3 X18.989 Y132.565 I-1.659 J-0.691
G1 X14.348
G3 X13.438 Y131.655 J-0.91
G1 Y120.139
G3 X14.348 Y119.229 I0.91
G1 X33.652
G3 X34.562 Y120.139 J0.91
G1 Y131.655
G3 X33.651 Y132.565 I-0.91
G1 X18.989
G2 X17.33 Y133.671 J1.797
G3 X15.672 Y134.777 I-1.659 J-0.691
G1 X12.136
G3 X11.226 Y133.866 J-0.91
G1 Y117.928
G3 X12.136 Y117.018 I0.91
G1 X35.864
G3 X36.774 Y117.928 J0.91
G1 X36.773 Y133.866
G3 X35.863 Y134.777 I-0.91
G1 X15.672
G2 X14.002 Y135.89 J1.809
G3 X12.333 Y137.002 I-1.669 J-0.696
G1 X9.011
X9.005 Y137.001
X9 Y136.96
Y114.784
X9.741 Y114.792
X9.748
X38.683
G2 X38.699 J-0.75
G1 X39 Y114.785
X38.999 Y136.986
X38.996 Y137.001
X38.989 Y137.003
X12.333 Y137.002
G3 X12.242 Y136.988 Z-3.985 J-0.3
X12.166 Y136.952 Z-3.943 I0.091 J-0.286
X12.116 Y136.91 Z-3.876 I0.166 J-0.25
X12.089 Y136.877 Z-3.793 I0.217 J-0.207
X12.08 Y136.865 Z-3.7 I0.244 J-0.174
G0 Z5
X26.961 Y125.007
Z-3.175
G3 X26.974 Y125.002 Z-3.266 I0.53 J1.323 F600
X27.012 Y124.988 Z-3.348 I0.517 J1.328
X27.073 Y124.968 Z-3.414 I0.478 J1.342
X27.15 Y124.946 Z-3.458 I0.418 J1.362
X27.239 Y124.927 Z-3.475 I0.34 J1.384
X27.742 Y127.733 Z-3.631 I0.252 J1.403
X27.239 Y124.927 Z-3.788 I-0.252 J-1.403
X27.742 Y127.733 Z-3.944 I0.252 J1.403
X27.239 Y124.927 Z-4.1 I-0.252 J-1.403
X27.742 Y127.733 Z-4.257 I0.252 J1.403
X27.239 Y124.927 Z-4.413 I-0.252 J-1.403
X28.915 Y126.33 Z-4.5 I0.252 J1.403
G1 Y126.419
G3 X28.416 Y126.918 I-0.499
G1 X19.584
G3 X19.084 Y126.419 J-0.499
G1 Y126.241
G3 X19.584 Y125.742 I0.499
G1 X28.416
G3 X28.915 Y126.241 J0.499
G1 Y126.33
G2 X29.528 Y127.067 I0.75
G3 X29.7 Y128.01 I-0.094 J0.504
X29.228 Y128.142 I-0.472 J-0.778
G1 X18.771
G3 X17.861 Y127.232 J-0.91
G1 Y125.429
G3 X18.771 Y124.518 I0.91
G1 X29.229
G3 X30.139 Y125.429 J0.91
G1 Y127.232
G3 X29.7 Y128.01 I-0.91
G2 X28.516 Y129.366 I1.54 J2.54
G3 X27.01 Y130.353 I-1.506 J-0.654
G1 X16.559
G3 X15.649 Y129.443 J-0.91
G1 Y123.217
G3 X16.559 Y122.307 I0.91
G1 X31.44
G3 X32.351 Y123.217 J0.91
G1 X32.35 Y129.443
G3 X31.44 Y130.353 I-0.91
G1 X27.01
G2 X25.352 Y131.459 J1.797
G3 X23.693 Y132.565 I-1.659 J-0.691
G1 X14.348
G3 X13.438 Y131.655 J-0.91
G1 Y121.005
G3 X14.348 Y120.095 I0.91
G1 X33.652
G3 X34.562 Y121.005 J0.91
G1 Y131.655
G3 X33.651 Y132.565 I-0.91
G1 X23.693
G2 X22.034 Y133.671 J1.797
G3 X20.375 Y134.777 I-1.659 J-0.691
G1 X12.136
G3 X11.226 Y133.866 J-0.91
G1 Y118.794
G3 X12.136 Y117.884 I0.91
G1 X35.864
G3 X36.774 Y118.794 J0.91
G1 X36.773 Y133.866
G3 X35.863 Y134.777 I-0.91
G1 X20.375
G2 X18.706 Y135.89 J1.809
G3 X17.037 Y137.002 I-1.669 J-0.696
G1 X9.011
X9.005 Y137.001
X9 Y136.96
Y115.65
X9.741 Y115.658
X9.748
X38.683
G2 X38.699 J-0.75
G1 X39 Y115.651
X38.999 Y136.986
X38.996 Y137.001
X38.989 Y137.003
X17.037 Y137.002
G3 X16.945 Y136.988 Z-4.485 J-0.3
X16.87 Y136.952 Z-4.443 I0.091 J-0.286
X16.82 Y136.91 Z-4.376 I0.166 J-0.25
X16.792 Y136.877 Z-4.293 I0.217 J-0.207
X16.784 Y136.865 Z-4.2 I0.244 J-0.174
G0 Z5
X30.083 Y126.187
Z-3.675
G3 X30.088 Y126.2 Z-3.766 I-1.323 J0.53 F600
X30.102 Y126.238 Z-3.848 I-1.328 J0.517
X30.122 Y126.299 Z-3.914 I-1.342 J0.478
X30.144 Y126.377 Z-3.958 I-1.362 J0.418
X30.163 Y126.465 Z-3.975 I-1.384 J0.34
X27.358 Y126.969 Z-4.131 I-1.403 J0.252
X30.163 Y126.465 Z-4.288 I1.403 J-0.252
X27.358 Y126.969 Z-4.444 I-1.403 J0.252
X30.163 Y126.465 Z-4.6 I1.403 J-0.252
X27.358 Y126.969 Z-4.757 I-1.403 J0.252
X30.163 Y126.465 Z-4.913 I1.403 J-0.252
X28.76 Y128.142 Z-5 I-1.403 J0.252
G1 X18.771
G3 X17.861 Y127.232 J-0.91
G1 Y126.295
G3 X18.771 Y125.384 I0.91
G1 X29.229
G3 X30.139 Y126.295 J0.91
G1 Y127.232
G3 X29.229 Y128.142 I-0.91
G1 X28.76
G2 X27.101 Y129.248 J1.797
G3 X25.443 Y130.353 I-1.659 J-0.691
G1 X16.559
G3 X15.649 Y129.443 J-0.91
G1 Y124.083
G3 X16.559 Y123.173 I0.91
G1 X31.44
G3 X32.351 Y124.083 J0.91
G1 X32.35 Y129.443
G3 X31.44 Y130.353 I-0.91
G1 X25.443
G2 X23.784 Y131.459 J1.797
G3 X22.125 Y132.565 I-1.659 J-0.691
G1 X14.348
G3 X13.438 Y131.655 J-0.91
G1 Y121.871
G3 X14.348 Y120.961 I0.91
G1 X33.652
G3 X34.562 Y121.871 J0.91
G1 Y131.655
G3 X33.651 Y132.565 I-0.91
G1 X22.125
G2 X20.467 Y133.671 J1.797
G3 X18.808 Y134.777 I-1.659 J-0.691
G1 X12.136
G3 X11.226 Y133.866 J-0.91
G1 Y119.66
G3 X12.136 Y118.75 I0.91
G1 X35.864
G3 X36.774 Y119.66 J0.91
G1 X36.773 Y133.866
G3 X35.863 Y134.777 I-0.91
G1 X18.808
G2 X17.138 Y135.89 J1.809
G3 X15.469 Y137.002 I-1.669 J-0.696
G1 X9.011
X9.005 Y137.001
X9 Y136.96
Y116.516
X9.741 Y116.524
X9.748
X38.683
G2 X38.699 J-0.75
G1 X39 Y116.517
X38.999 Y136.986
X38.996 Y137.001
X38.989 Y137.003
X15.469 Y137.002
G3 X15.378 Y136.988 Z-4.985 J-0.3
X15.303 Y136.952 Z-4.943 I0.091 J-0.286
X15.252 Y136.91 Z-4.876 I0.166 J-0.25
X15.225 Y136.877 Z-4.793 I0.217 J-0.207
X15.217 Y136.865 Z-4.7 I0.244 J-0.174
G0 Z5
X28.184 Y125.873
Z-4.175
G3 X28.197 Y125.868 Z-4.266 I0.53 J1.323 F600
X28.236 Y125.854 Z-4.348 I0.517 J1.328
X28.296 Y125.834 Z-4.414 I0.478 J1.342
X28.374 Y125.812 Z-4.458 I0.418 J1.362
X28.462 Y125.794 Z-4.475 I0.34 J1.384
X28.966 Y128.599 Z-4.631 I0.252 J1.403
X28.462 Y125.794 Z-4.788 I-0.252 J-1.403
X28.966 Y128.599 Z-4.944 I0.252 J1.403
X28.462 Y125.794 Z-5.1 I-0.252 J-1.403
X28.966 Y128.599 Z-5.257 I0.252 J1.403
X28.462 Y125.794 Z-5.413 I-0.252 J-1.403
X30.139 Y127.196 Z-5.5 I0.252 J1.403
G1 Y127.232
G3 X29.229 Y128.142 I-0.91
G1 X18.771
G3 X17.861 Y127.232 J-0.91
G1 Y127.161
G3 X18.771 Y126.25 I0.91
G1 X29.229
G3 X30.139 Y127.161 J0.91
G1 Y127.196
G2 X31.07 Y128.66 I1.616
G3 X30.693 Y130.353 I-0.377 J0.805
G1 X16.559
G3 X15.649 Y129.443 J-0.91
G1 Y124.949
G3 X16.559 Y124.039 I0.91
G1 X31.44
G3 X32.351 Y124.949 J0.91
G1 X32.35 Y129.443
G3 X31.44 Y130.353 I-0.91
G1 X30.693
G2 X29.035 Y131.459 J1.797
G3 X27.376 Y132.565 I-1.659 J-0.691
G1 X14.348
G3 X13.438 Y131.655 J-0.91
G1 Y122.737
G3 X14.348 Y121.827 I0.91
G1 X33.652
G3 X34.562 Y122.737 J0.91
G1 Y131.655
G3 X33.651 Y132.565 I-0.91
G1 X27.376
G2 X25.717 Y133.671 J1.797
G3 X24.059 Y134.777 I-1.659 J-0.691
G1 X12.136
G3 X11.226 Y133.866 J-0.91
G1 Y120.526
G3 X12.136 Y119.616 I0.91
G1 X35.864
G3 X36.774 Y120.526 J0.91
G1 X36.773 Y133.866
G3 X35.863 Y134.777 I-0.91
G1 X24.059
G2 X22.389 Y135.89 J1.809
G3 X20.72 Y137.002 I-1.669 J-0.696
G1 X9.011
X9.005 Y137.001
X9 Y136.96
Y117.382
X9.741 Y117.39
X9.748
X38.683
G2 X38.699 J-0.75
G1 X39 Y117.383
X38.999 Y136.986
X38.996 Y137.001
X38.989 Y137.003
X20.72 Y137.002
G3 X20.606 Y136.755 J-0.15
G1 X27.549 Y128.646
G2 X27.556 Y128.46 I-0.114 J-0.098
G3 X29.871 Y126.798 Z-5.656 I1.157 J-0.831
X27.556 Y128.46 Z-5.813 I-1.157 J0.831
X29.871 Y126.798 Z-5.969 I1.157 J-0.831
X30.139 Y127.629 Z-6 I-1.157 J0.831
G1 Y127.643
G3 X29.639 Y128.142 I-0.499
G1 X18.374
G3 Y127.116 J-0.513
G1 X29.639 Y127.117
G3 X30.139 Y127.616 J0.499
G1 Y127.629
G2 X30.764 Y128.966 I1.742
G3 X30.26 Y130.353 I-0.503 J0.602
G1 X16.559
G3 X15.649 Y129.443 J-0.91
G1 Y125.815
G3 X16.559 Y124.905 I0.91
G1 X31.44
G3 X32.351 Y125.815 J0.91
G1 X32.35 Y129.443
G3 X31.44 Y130.353 I-0.91
G1 X30.26
G2 X28.602 Y131.459 J1.797
G3 X26.943 Y132.565 I-1.659 J-0.691
G1 X14.348
G3 X13.438 Y131.655 J-0.91
G1 Y123.603
G3 X14.348 Y122.693 I0.91
G1 X33.652
G3 X34.562 Y123.603 J0.91
G1 Y131.655
G3 X33.651 Y132.565 I-0.91
G1 X26.943
G2 X25.284 Y133.671 J1.797
G3 X23.626 Y134.777 I-1.659 J-0.691
G1 X12.136
G3 X11.226 Y133.866 J-0.91
G1 Y121.392
G3 X12.136 Y120.482 I0.91
G1 X35.864
G3 X36.774 Y121.392 J0.91
G1 X36.773 Y133.866
G3 X35.863 Y134.777 I-0.91
G1 X23.626
G2 X21.956 Y135.89 J1.809
G3 X20.287 Y137.002 I-1.669 J-0.696
G1 X9.011
X9.005 Y137.001
X9 Y136.96
Y118.248
X9.741 Y118.256
X9.748
X38.683
G2 X38.699 J-0.75
G1 X39 Y118.249
X38.999 Y136.986
X38.996 Y137.001
X38.989 Y137.003
X20.287 Y137.002
G3 X20.173 Y136.755 J-0.15
G1 X29.201 Y126.251
G3 X29.228 Y126.226 I0.114 J0.098
X30.891 Y128.541 Z-6.156 I0.831 J1.157
X29.228 Y126.226 Z-6.313 I-0.831 J-1.157
X30.891 Y128.541 Z-6.469 I0.831 J1.157
X30.059 Y128.809 Z-6.5 I-0.831 J-1.157
G1 X17.864
G3 X17.194 Y128.138 J-0.671
G1 Y127.986
G3 X17.864 Y127.316 I0.671
G1 X30.135
G3 X30.806 Y127.986 J0.671
G1 Y128.138
G3 X30.135 Y128.809 I-0.671
G1 X30.059
G2 X28.901 Y129.581 J1.255
G3 X27.742 Y130.353 I-1.159 J-0.483
G1 X16.559
G3 X15.649 Y129.443 J-0.91
G1 Y126.681
G3 X16.559 Y125.771 I0.91
G1 X31.44
G3 X32.35 Y126.681 J0.91
G1 Y129.443
G3 X31.44 Y130.353 I-0.91
G1 X27.742
G2 X26.083 Y131.459 J1.797
G3 X24.425 Y132.565 I-1.659 J-0.691
G1 X14.348
G3 X13.438 Y131.655 J-0.91
G1 Y124.469
G3 X14.348 Y123.559 I0.91
G1 X33.652
G3 X34.562 Y124.469 J0.91
G1 Y131.655
G3 X33.652 Y132.565 I-0.91
G1 X24.425
G2 X22.766 Y133.671 J1.797
G3 X21.107 Y134.777 I-1.659 J-0.691
G1 X12.136
G3 X11.226 Y133.866 J-0.91
G1 Y122.258
G3 X12.136 Y121.348 I0.91
G1 X35.864
G3 X36.774 Y122.258 J0.91
G1 X36.773 Y133.866
G3 X35.863 Y134.777 I-0.91
G1 X21.107
G2 X19.438 Y135.89 J1.809
G3 X17.768 Y137.002 I-1.669 J-0.696
G1 X9.011
X9.005 Y137.001
X9 Y136.96
Y119.114
X9.741 Y119.122
X9.748
X38.683
G2 X38.699 J-0.75
G1 X39 Y119.115
X38.999 Y136.986
X38.996 Y137.001
X38.989 Y137.003
X17.768 Y137.002
G3 X17.685 Y136.728 J-0.15
G1 X28.475 Y129.539
G2 X28.513 Y129.327 I-0.083 J-0.125
G3 X30.828 Y127.664 Z-6.656 I1.157 J-0.831
X28.513 Y129.327 Z-6.813 I-1.157 J0.831
X30.828 Y127.664 Z-6.969 I1.157 J-0.831
X31.096 Y128.495 Z-7 I-1.157 J0.831
G1 Y128.6
G3 X30.596 Y129.099 I-0.499
G1 X17.507
G3 Y127.892 J-0.604
G1 X30.596
G3 X31.096 Y128.391 J0.499
G1 Y128.495
G2 X31.73 Y129.251 I0.768
G3 X31.912 Y130.222 I-0.092 J0.519
X31.44 Y130.353 I-0.472 J-0.779
G1 X16.559
G3 X15.649 Y129.443 J-0.91
G1 Y127.547
G3 X16.559 Y126.637 I0.91
G1 X31.44
G3 X32.35 Y127.547 J0.91
G1 Y129.443
G3 X31.912 Y130.222 I-0.91
G2 X30.727 Y131.578 I1.538 J2.539
G3 X29.222 Y132.565 I-1.506 J-0.654
G1 X14.348
G3 X13.438 Y131.655 J-0.91
G1 Y125.335
G3 X14.348 Y124.425 I0.91
G1 X33.652
G3 X34.562 Y125.335 J0.91
G1 Y131.655
G3 X33.652 Y132.565 I-0.91
G1 X29.222
G2 X27.563 Y133.671 J1.797
G3 X25.904 Y134.777 I-1.659 J-0.691
G1 X12.136
G3 X11.226 Y133.866 J-0.91
G1 Y123.124
G3 X12.136 Y122.214 I0.91
G1 X35.864
G3 X36.774 Y123.124 J0.91
G1 X36.773 Y133.866
G3 X35.863 Y134.777 I-0.91
G1 X25.904
G2 X24.235 Y135.89 J1.809
G3 X22.565 Y137.002 I-1.669 J-0.696
G1 X9.011
X9.005 Y137.001
X9 Y136.96
Y119.98
X9.741 Y119.988
X9.748
X38.683
G2 X38.699 J-0.75
G1 X39 Y119.982
X38.999 Y136.986
X38.996 Y137.001
X38.989 Y137.003
X22.565 Y137.002
G3 X22.451 Y136.755 J-0.15
G1 X30.067 Y127.796
G3 X30.094 Y127.771 I0.114 J0.097
X31.757 Y130.086 Z-7.156 I0.831 J1.157
X30.094 Y127.771 Z-7.313 I-0.831 J-1.157
X31.757 Y130.086 Z-7.469 I0.831 J1.157
X30.925 Y130.353 Z-7.5 I-0.831 J-1.157
G1 X16.559
G3 X15.649 Y129.443 J-0.91
G1 Y128.413
G3 X16.559 Y127.503 I0.91
G1 X31.44
G3 X32.35 Y128.413 J0.91
G1 Y129.443
G3 X31.44 Y130.353 I-0.91
G1 X30.925
G2 X29.266 Y131.459 J1.797
G3 X27.608 Y132.565 I-1.659 J-0.691
G1 X14.348
G3 X13.438 Y131.655 J-0.91
G1 Y126.201
G3 X14.348 Y125.291 I0.91
G1 X33.652
G3 X34.562 Y126.201 J0.91
G1 Y131.655
G3 X33.652 Y132.565 I-0.91
G1 X27.608
G2 X25.949 Y133.671 J1.797
G3 X24.29 Y134.777 I-1.659 J-0.691
G1 X12.136
G3 X11.226 Y133.866 J-0.91
G1 Y123.99
G3 X12.136 Y123.08 I0.91
G1 X35.864
G3 X36.774 Y123.99 J0.91
G1 X36.773 Y133.866
G3 X35.863 Y134.777 I-0.91
G1 X24.29
G2 X22.621 Y135.89 J1.809
G3 X20.952 Y137.002 I-1.669 J-0.696
G1 X9.011
X9.005 Y137.001
X9 Y136.96
Y120.846
X9.741 Y120.854
X9.748
X38.683
G2 X38.699 J-0.75
G1 X39 Y120.848
X38.999 Y136.986
X38.996 Y137.001
X38.989 Y137.003
X20.952 Y137.002
G3 X20.85 Y136.742 J-0.15
G1 X30.527 Y127.771
G3 X32.19 Y130.086 Z-7.656 I0.831 J1.157
X31.358 Y130.353 Z-7.687 I-0.831 J-1.157
Y127.503 Z-7.844 J-1.425
X32.498 Y128.073 Z-7.89 J1.425
X31.358 Y130.353 Z-8 I-1.14 J0.855
G1 X16.559
G3 X15.649 Y129.443 J-0.91
G1 Y129.279
G3 X16.559 Y128.369 I0.91
G1 X31.44
G3 X32.35 Y129.279 J0.91
G1 Y129.443
G3 X31.44 Y130.353 I-0.91
G1 X31.358
G2 X29.699 Y131.459 J1.797
G3 X28.041 Y132.565 I-1.659 J-0.691
G1 X14.348
G3 X13.438 Y131.655 J-0.91
G1 Y127.068
G3 X14.348 Y126.157 I0.91
G1 X33.652
G3 X34.562 Y127.067 J0.91
G1 Y131.655
G3 X33.652 Y132.565 I-0.91
G1 X28.041
G2 X26.382 Y133.671 J1.797
G3 X24.723 Y134.777 I-1.659 J-0.691
G1 X12.136
G3 X11.226 Y133.866 J-0.91
G1 Y124.856
G3 X12.136 Y123.946 I0.91
G1 X35.864
G3 X36.774 Y124.856 J0.91
G1 X36.773 Y133.866
G3 X35.863 Y134.777 I-0.91
G1 X24.723
G2 X23.054 Y135.89 J1.809
G3 X21.385 Y137.002 I-1.669 J-0.696
G1 X9.011
X9.005 Y137.001
X9 Y136.96
Y121.712
X9.741 Y121.72
X9.748
X38.683
G2 X38.699 J-0.75
G1 X39 Y121.714
X38.999 Y136.986
X38.996 Y137.001
X38.989 Y137.003
X21.385 Y137.002
G3 X21.322 Y136.716 J-0.15
G1 X32.472 Y131.559
G3 X32.623 Y131.817 I0.063 J0.136
X30.96 Y129.503 Z-8.156 I-0.831 J-1.157
X32.623 Y131.817 Z-8.313 I0.831 J1.157
X30.96 Y129.503 Z-8.469 I-0.831 J-1.157
X31.791 Y129.235 Z-8.5 I0.831 J1.157
G1 X31.851
G3 X32.35 Y129.734 J0.499
G1 Y129.854
G3 X31.851 Y130.353 I-0.499
G1 X16.393
G3 X15.834 Y129.794 J-0.559
X16.393 Y129.235 I0.559
G1 X31.791
G2 X33.142 Y128.577 J-1.714
G3 X34.562 Y129.066 I0.626 J0.489
G1 Y131.655
G3 X33.652 Y132.565 I-0.91
G1 X14.348
G3 X13.438 Y131.655 J-0.91
G1 Y127.934
G3 X14.348 Y127.023 I0.91
G1 X33.652
G3 X34.562 Y127.934 J0.91
G1 Y129.066
G2 X35.668 Y130.725 I1.797
G3 X36.773 Y132.384 I-0.691 J1.659
G1 Y133.866
G3 X35.863 Y134.777 I-0.91
G1 X12.136
G3 X11.226 Y133.866 J-0.91
G1 Y125.722
G3 X12.136 Y124.812 I0.91
G1 X35.864
G3 X36.774 Y125.722 J0.91
G1 X36.773 Y132.384
G2 X37.886 Y134.053 I1.809
G3 X38.999 Y135.723 I-0.696 J1.669
G1 Y136.986
X38.996 Y137.001
X38.989 Y137.003
X9.011 Y137.002
X9.005 Y137.001
X9 Y136.96
Y122.578
X9.741 Y122.586
X9.748
X38.683
G2 X38.699 J-0.75
G1 X39 Y122.58
X38.999 Y135.723
G3 X38.744 Y135.83 I-0.15
G1 X31.375 Y128.636
G3 X31.393 Y128.407 I0.105 J-0.107
X33.056 Y130.721 Z-8.656 I0.831 J1.157
X31.393 Y128.407 Z-8.813 I-0.831 J-1.157
X33.056 Y130.721 Z-8.969 I0.831 J1.157
X32.224 Y130.989 Z-9 I-0.831 J-1.157
G1 X15.684
G3 X15.014 Y130.319 J-0.671
G1 Y130.136
G3 X15.684 Y129.465 I0.671
G1 X32.316
G3 X32.986 Y130.136 J0.671
G1 Y130.319
G3 X32.316 Y130.989 I-0.671
G1 X32.224
G2 X31.042 Y131.777 J1.28
G3 X29.86 Y132.565 I-1.182 J-0.492
G1 X14.348
G3 X13.438 Y131.655 J-0.91
G1 Y128.8
G3 X14.348 Y127.889 I0.91
G1 X33.652
G3 X34.562 Y128.8 J0.91
G1 Y131.655
G3 X33.652 Y132.565 I-0.91
G1 X29.86
G2 X28.202 Y133.671 J1.797
G3 X26.543 Y134.777 I-1.659 J-0.691
G1 X12.136
G3 X11.226 Y133.866 J-0.91
G1 Y126.588
G3 X12.136 Y125.678 I0.91
G1 X35.864
G3 X36.774 Y126.588 J0.91
G1 X36.773 Y133.866
G3 X35.863 Y134.777 I-0.91
G1 X26.543
G2 X24.874 Y135.89 J1.809
G3 X23.204 Y137.002 I-1.669 J-0.696
G1 X9.011
X9.005 Y137.001
X9 Y136.96
Y123.444
X9.741 Y123.452
X9.748
X38.683
G2 X38.699 J-0.75
G1 X39 Y123.446
X38.999 Y136.986
X38.996 Y137.001
X38.989 Y137.003
X23.204 Y137.002
G3 X22.636 Y134.271 Z-9.132 J-1.425
G1 X32.089 Y130.159 Z-9.48
G3 X32.657 Y130.041 Z-9.5 I0.568 J1.307
G1 X32.777
G3 X33.276 Y130.541 J0.499
G1 Y130.78
G3 X32.777 Y131.279 I-0.499
G1 X15.223
G3 X14.723 Y130.78 J-0.499
G1 Y130.541
G3 X15.223 Y130.041 I0.499
G1 X32.657
G2 X33.433 Y129.385 J-0.786
G3 X34.43 Y129.194 I0.534 J0.09
X34.562 Y129.666 I-0.778 J0.472
G1 Y131.655
G3 X33.652 Y132.565 I-0.91
G1 X14.348
G3 X13.438 Y131.655 J-0.91
G1 Y129.666
G3 X14.348 Y128.755 I0.91
G1 X33.652
G3 X34.43 Y129.194 J0.91
G2 X35.786 Y130.378 I2.54 J-1.539
G3 X36.773 Y131.884 I-0.654 J1.506
G1 Y133.866
G3 X35.863 Y134.777 I-0.91
G1 X12.136
G3 X11.226 Y133.866 J-0.91
G1 Y127.454
G3 X12.136 Y126.544 I0.91
G1 X35.864
G3 X36.774 Y127.454 J0.91
G1 X36.773 Y131.884
G2 X37.886 Y133.554 I1.808
G3 X38.999 Y135.223 I-0.696 J1.669
G1 Y136.986
X38.996 Y137.001
X38.989 Y137.003
X9.011 Y137.002
X9.005 Y137.001
X9 Y136.96
Y124.31
X9.741 Y124.318
X9.748
X38.683
G2 X38.699 J-0.75
G1 X39 Y124.312
X38.999 Y135.223
G3 X38.786 Y135.359 I-0.15
G1 X34.072 Y133.185
G2 X33.922 Y133.199 I-0.063 J0.136
G3 X32.259 Y130.885 Z-9.656 I-0.831 J-1.157
X33.922 Y133.199 Z-9.813 I0.831 J1.157
X32.259 Y130.885 Z-9.969 I-0.831 J-1.157
X33.09 Y130.617 Z-10 I0.831 J1.157
G1 X33.195
G3 X33.566 Y130.988 J0.371
G1 Y131.199
G3 X33.195 Y131.569 I-0.371
G1 X15.128
G3 Y130.617 J-0.476
G1 X33.09
G2 X33.687 Y130.162 J-0.618
G3 X34.429 Y130.058 I0.394 J0.108
X34.562 Y130.532 I-0.777 J0.473
G1 Y131.655
G3 X33.652 Y132.565 I-0.91
G1 X14.348
G3 X13.438 Y131.655 J-0.91
G1 Y130.532
G3 X14.348 Y129.621 I0.91
G1 X33.652
G3 X34.429 Y130.058 J0.91
G2 X35.786 Y131.242 I2.548 J-1.552
G3 X36.773 Y132.748 I-0.656 J1.506
G1 Y133.866
G3 X35.863 Y134.777 I-0.91
G1 X12.136
G3 X11.226 Y133.866 J-0.91
G1 Y128.32
G3 X12.136 Y127.41 I0.91
G1 X35.864
G3 X36.774 Y128.32 J0.91
G1 X36.773 Y132.748
G2 X37.886 Y134.417 I1.808
G3 X38.999 Y136.087 I-0.696 J1.669
G1 Y136.986
X38.996 Y137.001
X38.989 Y137.003
X9.011 Y137.002
X9.005 Y137.001
X9 Y136.96
Y125.176
X9.741 Y125.184
X9.748
X38.683
G2 X38.699 J-0.75
G1 X39 Y125.178
X38.999 Y136.087
G3 X38.76 Y136.207 I-0.15
G1 X34.532 Y133.071
G2 X34.355 Y133.07 I-0.089 J0.12
G3 X32.692 Y130.755 Z-10.156 I-0.831 J-1.157
X33.523 Y130.487 Z-10.187 I0.831 J1.157
Y133.337 Z-10.344 J1.425
X32.383 Y132.767 Z-10.39 J-1.425
X33.523 Y130.487 Z-10.5 I1.14 J-0.855
G1 X33.652
G3 X34.562 Y131.398 J0.91
G1 Y131.655
G3 X33.652 Y132.565 I-0.91
G1 X14.348
G3 X13.438 Y131.655 J-0.91
G1 Y131.398
G3 X14.348 Y130.487 I0.91
G1 X33.523
G2 X35.014 Y129.49 J-1.613
G3 X36.774 Y129.839 I0.845 J0.349
G1 X36.773 Y133.867
G3 X35.863 Y134.777 I-0.91
G1 X12.136
G3 X11.226 Y133.866 J-0.91
G1 Y129.186
G3 X12.136 Y128.276 I0.91
G1 X35.864
G3 X36.774 Y129.186 J0.91
G1 Y129.839
G2 X37.887 Y131.508 I1.808
G3 X38.999 Y133.178 I-0.696 J1.669
G1 Y136.986
X38.996 Y137.001
X38.989 Y137.003
X9.011 Y137.002
X9.005 Y137.001
X9 Y136.96
Y126.042
X9.741 Y126.05
X9.748
X38.683
G2 X38.699 J-0.75
G1 X39 Y126.044
X38.999 Y133.178
G3 X38.777 Y133.31 I-0.15
G1 X33.14 Y130.236
G3 X33.125 Y129.983 I0.072 J-0.132
X34.788 Y132.297 Z-10.656 I0.831 J1.157
X33.125 Y129.983 Z-10.813 I-0.831 J-1.157
X34.788 Y132.297 Z-10.969 I0.831 J1.157
X33.956 Y132.565 Z-11 I-0.831 J-1.157
G1 X14.206
G3 X13.601 Y131.959 J-0.606
X14.206 Y131.353 I0.606
G1 X34.063
G3 X34.562 Y131.853 J0.499
G1 Y132.066
G3 X34.063 Y132.565 I-0.499
G1 X33.956
G2 X32.298 Y133.671 J1.797
G3 X30.639 Y134.777 I-1.659 J-0.691
G1 X12.136
G3 X11.226 Y133.867 J-0.91
G1 Y130.052
G3 X12.136 Y129.142 I0.91
G1 X35.864
G3 X36.774 Y130.052 J0.91
G1 X36.773 Y133.867
G3 X35.863 Y134.777 I-0.91
G1 X30.639
G2 X28.969 Y135.89 J1.808
G3 X27.3 Y137.002 I-1.669 J-0.696
G1 X9.011
X9.005 Y137.001
X9 Y136.96
Y126.908
X9.741 Y126.916
X9.748
X38.683
G2 X38.699 J-0.75
G1 X39 Y126.91
X38.999 Y136.986
X38.996 Y137.001
X38.989 Y137.003
X27.3 Y137.002
G3 X27.196 Y136.745 J-0.15
G1 X33.558 Y130.587
G3 X35.221 Y132.902 Z-11.156 I0.831 J1.157
X33.558 Y130.587 Z-11.313 I-0.831 J-1.157
X35.221 Y132.902 Z-11.469 I0.831 J1.157
X34.389 Y133.17 Z-11.5 I-0.831 J-1.157
G1 X13.686
G3 Y131.615 J-0.777
G1 X34.496
G3 X35.167 Y132.286 J0.671
G1 X35.166 Y132.499
G3 X34.496 Y133.17 I-0.671
G1 X34.389
G2 X33.184 Y133.973 J1.306
G3 X31.979 Y134.777 I-1.205 J-0.502
G1 X12.136
G3 X11.226 Y133.867 J-0.91
G1 Y130.918
G3 X12.136 Y130.008 I0.91
G1 X35.864
G3 X36.774 Y130.918 J0.91
G1 X36.773 Y133.867
G3 X35.863 Y134.777 I-0.91
G1 X31.979
G2 X30.309 Y135.89 J1.808
G3 X28.64 Y137.002 I-1.669 J-0.696
G1 X9.011
X9.005 Y137.001
X9 Y136.96
Y127.774
X9.741 Y127.782
X9.748
X38.683
G2 X38.699 J-0.75
G1 X39 Y127.776
X38.999 Y136.986
X38.996 Y137.001
X38.989 Y137.003
X28.64 Y137.002
G3 X28.594 Y136.71 J-0.15
G1 X35.521 Y134.508
G3 X35.654 Y134.773 I0.045 J0.143
X33.991 Y132.459 Z-11.656 I-0.831 J-1.157
X35.654 Y134.773 Z-11.813 I0.831 J1.157
X33.991 Y132.459 Z-11.969 I-0.831 J-1.157
X34.822 Y132.191 Z-12 I0.831 J1.157
G1 X34.957
G3 X35.457 Y132.69 J0.499
G1 Y132.96
G3 X34.957 Y133.46 I-0.499
G1 X13.327
G3 Y132.191 J-0.634
G1 X34.822
G2 X35.617 Y131.513 J-0.805
G3 X36.642 Y131.313 I0.549 J0.088
X36.774 Y131.784 I-0.778 J0.471
G1 X36.773 Y133.867
G3 X35.863 Y134.777 I-0.91
G1 X12.136
G3 X11.226 Y133.867 J-0.91
G1 Y131.784
G3 X12.136 Y130.874 I0.91
G1 X35.864
G3 X36.642 Y131.313 J0.91
G2 X38.006 Y132.504 I2.554 J-1.547
G3 X38.999 Y134.019 I-0.658 J1.515
G1 Y136.986
X38.996 Y137.001
X38.989 Y137.003
X9.011 Y137.002
X9.005 Y137.001
X9 Y136.96
Y128.64
X9.741 Y128.648
X9.748
X38.683
G2 X38.699 J-0.75
G1 X39 Y128.642
X38.999 Y134.019
G3 X38.907 Y134.157 I-0.15
G1 X36.116 Y135.333
G2 X36.087 Y135.349 I0.058 J0.138
G3 X34.424 Y133.035 Z-12.156 I-0.831 J-1.157
X36.087 Y135.349 Z-12.313 I0.831 J1.157
X34.424 Y133.035 Z-12.469 I-0.831 J-1.157
X35.255 Y132.767 Z-12.5 I0.831 J1.157
G1 X35.376
G3 X35.747 Y133.138 J0.371
G1 Y133.379
G3 X35.376 Y133.75 I-0.371
G1 X12.957
G3 Y132.767 J-0.492
G1 X35.255
G2 X35.871 Y132.29 J-0.636
G3 X36.641 Y132.177 I0.409 J0.106
X36.774 Y132.65 I-0.777 J0.473
G1 X36.773 Y133.867
G3 X35.863 Y134.777 I-0.91
G1 X12.136
G3 X11.226 Y133.867 J-0.91
G1 Y132.65
G3 X12.136 Y131.74 I0.91
G1 X35.864
G3 X36.641 Y132.177 J0.91
G2 X38.006 Y133.368 I2.563 J-1.56
G3 X38.999 Y134.883 I-0.66 J1.515
G1 Y136.986
X38.996 Y137.001
X38.989 Y137.003
X9.011 Y137.002
X9.005 Y137.001
X9 Y136.96
Y129.506
X9.741 Y129.514
X9.748
X38.683
G2 X38.699 J-0.75
G1 X39 Y129.508
X38.999 Y134.883
G3 X38.767 Y135.008 I-0.15
G1 X34.862 Y132.442
G3 X34.857 Y132.194 I0.082 J-0.125
X36.52 Y134.509 Z-12.656 I0.831 J1.157
X34.857 Y132.194 Z-12.813 I-0.831 J-1.157
X36.52 Y134.509 Z-12.969 I0.831 J1.157
X35.688 Y134.777 Z-13 I-0.831 J-1.157
G1 X12.136
G3 X11.226 Y133.867 J-0.91
G1 Y133.516
G3 X12.136 Y132.606 I0.91
G1 X35.864
G3 X36.774 Y133.516 J0.91
G1 Y133.867
G3 X35.863 Y134.777 I-0.91
G1 X35.688
G2 X34.019 Y135.89 J1.808
G3 X32.35 Y137.003 I-1.669 J-0.696
G1 X9.011 Y137.002
X9.005 Y137.001
X9 Y136.96
Y130.372
X9.741 Y130.38
X9.748
X38.683
G2 X38.699 J-0.75
G1 X39 Y130.374
X38.999 Y136.986
X38.996 Y137.001
X38.989 Y137.003
X32.35
G3 X32.225 Y136.769 J-0.15
G1 X35.253 Y132.233
G3 X35.29 Y132.194 I0.125 J0.083
X37.261 Y132.497 Z-13.077 I0.831 J1.157
X36.121 Y134.777 Z-13.187 I-1.14 J0.855
Y131.927 Z-13.344 J-1.425
X37.261 Y132.497 Z-13.39 J1.425
X36.121 Y134.777 Z-13.5 I-1.14 J0.855
G1 X12.019
G3 X11.366 Y134.124 J-0.652
X12.019 Y133.472 I0.652
G1 X36.274
G3 X36.774 Y133.971 J0.499
G1 Y134.277
G3 X36.274 Y134.777 I-0.499
G1 X36.121
G2 X34.452 Y135.89 J1.808
G3 X32.783 Y137.003 I-1.669 J-0.696
G1 X9.011 Y137.002
X9.005 Y137.001
X9 Y136.96
Y131.238
X9.741 Y131.246
X9.748
X38.683
G2 X38.699 J-0.75
G1 X39 Y131.24
X38.999 Y136.986
X38.996 Y137.001
X38.989 Y137.003
X32.783
G3 X32.762 Y136.704 J-0.15
G1 X37.278 Y136.077
G3 X37.386 Y136.347 I0.021 J0.149
X35.723 Y134.032 Z-13.656 I-0.831 J-1.157
X36.554 Y133.765 Z-13.687 I0.831 J1.157
Y136.615 Z-13.844 J1.425
X35.414 Y136.045 Z-13.89 J-1.425
X36.554 Y133.765 Z-14 I1.14 J-0.855
G1 X36.676
G3 X37.347 Y134.435 J0.671
G1 Y134.68
G3 X36.676 Y135.35 I-0.671
G1 X11.512
G3 Y133.765 J-0.793
G1 X36.554
G2 X37.697 Y133.065 J-1.283
G3 X39 Y133.378 I0.614 J0.313
G1 X38.999 Y136.986
X38.996 Y137.001
X38.989 Y137.003
X9.011 Y137.002
X9.005 Y137.001
X9 Y136.96
Y132.105
X9.741 Y132.112
X9.748
X38.683
G2 X38.699 J-0.75
G1 X39 Y132.106
Y133.378
G3 X38.982 Y133.45 I-0.15
G1 X37.863 Y135.516
G3 X37.819 Y135.566 I-0.132 J-0.071
X36.156 Y133.252 Z-14.156 I-0.831 J-1.157
X37.819 Y135.566 Z-14.313 I0.831 J1.157
X36.156 Y133.252 Z-14.469 I-0.831 J-1.157
X36.987 Y132.984 Z-14.5 I0.831 J1.157
Y135.64 J1.328
G1 X11.154
G3 X10.504 Y134.99 J-0.65
X11.154 Y134.341 I0.65
G1 X37.138
G3 X37.637 Y134.84 J0.499
G1 Y135.141
G3 X37.138 Y135.64 I-0.499
G1 X36.987
G2 X35.965 Y136.321 J1.107
G3 X34.944 Y137.003 I-1.022 J-0.426
G1 X9.011 Y137.002
X9.005 Y137.001
X9 Y136.96
Y132.971
X9.741 Y132.978
X9.748
X38.683
G2 X38.699 J-0.75
G1 X39 Y132.972
X38.999 Y136.986
X38.996 Y137.001
X38.989 Y137.003
X34.944
G3 X34.823 Y136.763 J-0.15
G1 X36.556 Y134.442
G3 X36.589 Y134.41 I0.12 J0.09
X38.252 Y136.724 Z-14.656 I0.831 J1.157
X36.589 Y134.41 Z-14.813 I-0.831 J-1.157
X38.252 Y136.724 Z-14.969 I0.831 J1.157
X37.42 Y136.992 Z-15 I-0.831 J-1.157
Y134.917 J-1.038
G1 X37.428
G3 X37.927 Y135.416 J0.499
G1 Y135.431
G3 X37.428 Y135.93 I-0.499
G1 X10.786
G3 Y134.917 J-0.507
G1 X37.42
G2 X38.159 Y134.467 J-0.831
G3 X39 Y134.671 I0.395 J0.204
G1 X38.999 Y136.986
X38.996 Y137.001
X38.989 Y137.003
X9.011 Y137.002
X9.005 Y137.001
X9 Y136.96
Y133.837
X9.741 Y133.844
X9.748
X38.683
G2 X38.699 J-0.75
G1 X39 Y133.838
Y134.671
G3 X38.852 Y134.821 I-0.15
G1 X26.122 Y135.01
G3 X25.97 Y134.861 I-0.002 J-0.15
X26.12 Y134.71 I0.15 J-0.001
G1 X38.683 Z-15.439
G2 X38.699 J-0.75
G1 X39 Y134.704 Z-15.45
X38.999 Y136.142 Z-15.5
Y136.986
X38.996 Y137.001
X38.989 Y137.003
X9.011 Y137.002
X9.005 Y137.001
X9 Y136.96
Y134.703
X9.741 Y134.71
X9.748
X38.683
G2 X38.699 J-0.75
G1 X39 Y134.704
X38.999 Y136.142
G3 X38.985 Y136.233 Z-15.485 I-0.3
X38.949 Y136.308 Z-15.443 I-0.286 J-0.091
X38.906 Y136.359 Z-15.376 I-0.25 J-0.166
X38.873 Y136.386 Z-15.293 I-0.207 J-0.217
X38.861 Y136.394 Z-15.2 I-0.174 J-0.244
G0 Z5
X10.006 Y137.002
G1 Z-14.675 F600
G18 G3 X9.709 Z-14.975 I-0.3
G1 X9.011 Z-14.981
X9.005 Y137.001
X9 Y136.96
Y135.569 Z-14.992
X9.741 Y135.576 Z-14.998
X9.748
X38.683 Z-15.228
G17 G2 X38.699 J-0.75
G1 X39 Y135.57 Z-15.231
X38.999 Y136.986 Z-15.242
X38.996 Y137.001
X38.989 Y137.003
X9.011 Y137.002 Z-15.481
X9.005 Y137.001
X9 Y136.96
Y135.569 Z-15.492
X9.741 Y135.576 Z-15.498
X9.748
X38.683 Z-15.728
G2 X38.699 J-0.75
G1 X39 Y135.57 Z-15.731
X38.999 Y136.986 Z-15.742
X38.996 Y137.001
X38.989 Y137.003
X9.011 Y137.002 Z-15.981
X9.005 Y137.001
X9 Y136.96
Y135.569 Z-15.992
X9.741 Y135.576 Z-15.998
X9.748
X10.006 Z-16
X38.683
G2 X38.699 J-0.75
G1 X39 Y135.57
X38.999 Y136.986
X38.996 Y137.001
X38.989 Y137.003
X9.011 Y137.002
X9.005 Y137.001
X9 Y136.96
Y135.569
X9.741 Y135.576
X9.748
X10.006
X22.199 Y136.703
G3 X22.185 Y137.002 I-0.014 J0.149
G1 X9.011 Z-16.46
X9.005 Y137.001
X9 Y136.96 Z-16.462
Y136.435 Z-16.48
X9.571 Y136.441 Z-16.5
X9.741 Y136.442
X9.748
X38.683
G2 X38.699 J-0.75
G1 X38.999 Y136.436
Y136.986
X38.996 Y137.001
X38.989 Y137.003
X9.011 Y137.002
X9.005 Y137.001
X9 Y136.96
Y136.435
X9.571 Y136.441
X9.63 Z-16.494
X9.688 Y136.442 Z-16.476
X9.741 Z-16.447
X9.748 Z-16.442
G18 G2 X9.871 Z-16.2 I-0.178 K0.242
G0 Z15
G17
M9
G28 G91 Z0
G28 X0 Y0
M30
%
