%
(1)
(T3  D=4 CR=0 - ZMIN=0 - flat end mill)
G90 G94
G17
G21
G28 G91 Z0
G90

(2D Contour1)
M9
T3 M6
S8754 M3
G54
M8
G0 X28.2 Y-0.4
Z30.6
Z20.6
G1 Z17.6 F838.6
Z15
G18 G3 X27.8 Z14.6 I-0.4
G1 X27.4
G17 G2 X27 Y0 J0.4
G1 Y16.952
X17
Y33
X27
Y52
X-2
Y-2
X27
Y0
G2 X27.4 Y0.4 I0.4
G1 X27.8
G18 G2 X28.2 Z15 K0.4
G1 Y-0.4
Z14
G3 X27.8 Z13.6 I-0.4
G1 X27.4
G17 G2 X27 Y0 J0.4
G1 Y16.952
X17
Y33
X27
Y52
X-2
Y-2
X27
Y0
G2 X27.4 Y0.4 I0.4
G1 X27.8
G18 G2 X28.2 Z14 K0.4
G1 Y-0.4
Z13
G3 X27.8 Z12.6 I-0.4
G1 X27.4
G17 G2 X27 Y0 J0.4
G1 Y16.952
X17
Y33
X27
Y52
X-2
Y-2
X27
Y0
G2 X27.4 Y0.4 I0.4
G1 X27.8
G18 G2 X28.2 Z13 K0.4
G1 Y-0.4
Z12
G3 X27.8 Z11.6 I-0.4
G1 X27.4
G17 G2 X27 Y0 J0.4
G1 Y16.952
X17
Y33
X27
Y52
X-2
Y-2
X27
Y0
G2 X27.4 Y0.4 I0.4
G1 X27.8
G18 G2 X28.2 Z12 K0.4
G1 Y-0.4
Z11
G3 X27.8 Z10.6 I-0.4
G1 X27.4
G17 G2 X27 Y0 J0.4
G1 Y16.952
X17
Y33
X27
Y52
X-2
Y-2
X27
Y0
G2 X27.4 Y0.4 I0.4
G1 X27.8
G18 G2 X28.2 Z11 K0.4
G1 Y-0.4
Z10
G3 X27.8 Z9.6 I-0.4
G1 X27.4
G17 G2 X27 Y0 J0.4
G1 Y16.952
X17
Y33
X27
Y52
X-2
Y-2
X27
Y0
G2 X27.4 Y0.4 I0.4
G1 X27.8
G18 G2 X28.2 Z10 K0.4
G1 Y-0.4
Z9
G3 X27.8 Z8.6 I-0.4
G1 X27.4
G17 G2 X27 Y0 J0.4
G1 Y16.952
X17
Y33
X27
Y52
X-2
Y-2
X27
Y0
G2 X27.4 Y0.4 I0.4
G1 X27.8
G18 G2 X28.2 Z9 K0.4
G1 Y-0.4
Z8
G3 X27.8 Z7.6 I-0.4
G1 X27.4
G17 G2 X27 Y0 J0.4
G1 Y16.952
X17
Y33
X27
Y52
X-2
Y-2
X27
Y0
G2 X27.4 Y0.4 I0.4
G1 X27.8
G18 G2 X28.2 Z8 K0.4
G1 Y-0.4
Z7
G3 X27.8 Z6.6 I-0.4
G1 X27.4
G17 G2 X27 Y0 J0.4
G1 Y16.952
X17
Y33
X27
Y52
X-2
Y-2
X27
Y0
G2 X27.4 Y0.4 I0.4
G1 X27.8
G18 G2 X28.2 Z7 K0.4
G1 Y-0.4
Z6
G3 X27.8 Z5.6 I-0.4
G1 X27.4
G17 G2 X27 Y0 J0.4
G1 Y16.952
X17
Y33
X27
Y52
X-2
Y-2
X27
Y0
G2 X27.4 Y0.4 I0.4
G1 X27.8
G18 G2 X28.2 Z6 K0.4
G1 Y-0.4
Z5
G3 X27.8 Z4.6 I-0.4
G1 X27.4
G17 G2 X27 Y0 J0.4
G1 Y16.952
X17
Y33
X27
Y52
X-2
Y-2
X27
Y0
G2 X27.4 Y0.4 I0.4
G1 X27.8
G18 G2 X28.2 Z5 K0.4
G1 Y-0.4
Z4
G3 X27.8 Z3.6 I-0.4
G1 X27.4
G17 G2 X27 Y0 J0.4
G1 Y16.952
X17
Y33
X27
Y52
X-2
Y-2
X27
Y0
G2 X27.4 Y0.4 I0.4
G1 X27.8
G18 G2 X28.2 Z4 K0.4
G1 Y-0.4
Z3
G3 X27.8 Z2.6 I-0.4
G1 X27.4
G17 G2 X27 Y0 J0.4
G1 Y16.952
X17
Y33
X27
Y52
X-2
Y-2
X27
Y0
G2 X27.4 Y0.4 I0.4
G1 X27.8
G18 G2 X28.2 Z3 K0.4
G1 Y-0.4
Z2
G3 X27.8 Z1.6 I-0.4
G1 X27.4
G17 G2 X27 Y0 J0.4
G1 Y16.952
X17
Y33
X27
Y52
X-2
Y-2
X27
Y0
G2 X27.4 Y0.4 I0.4
G1 X27.8
G18 G2 X28.2 Z2 K0.4
G1 Y-0.4
Z1
G3 X27.8 Z0.6 I-0.4
G1 X27.4
G17 G2 X27 Y0 J0.4
G1 Y16.952
X17
Y33
X27
Y52
X-2
Y-2
X27
Y0
G2 X27.4 Y0.4 I0.4
G1 X27.8
G18 G2 X28.2 Z1 K0.4
G1 Y-0.4
Z0.4
G3 X27.8 Z0 I-0.4
G1 X27.4
G17 G2 X27 Y0 J0.4
G1 Y16.952
X17
Y33
X27
Y52
X-2
Y-2
X27
Y0
G2 X27.4 Y0.4 I0.4
G1 X27.8
G18 G2 X28.2 Z0.4 K0.4
G0 Z30.6
G17
M9
G28 G91 Z0
G28 X0 Y0
M30
%
