%
(1)
(T2  D=3.175 CR=0 - ZMIN=0 - flat end mill)
G90 G94
G17
G21
G28 G91 Z0
G90

(2D Contour1)
M9
T2 M6
S11028 M3
G54
M8
G0 X15.46 Y35.269
Z30.6
Z20.6
G1 Z17.6 F200
Z14.917
G18 G2 X15.778 Z14.6 I0.318
G1 X16.095
G17 G2 X16.413 Y34.952 J-0.318
G1 Y33.364 F400
X26.587
Y51.588
X-1.587
Y-1.587
X26.587
Y16.539
X16.587
Y33.539
X15
G2 Y36.364 J1.412
X16.413 Y34.952 J-1.412
X16.095 Y34.634 I-0.318 F200
G1 X15.778
G18 G3 X15.46 Z14.917 K0.317
G1 Y35.269
Z13.917
G2 X15.778 Z13.6 I0.318
G1 X16.095
G17 G2 X16.413 Y34.952 J-0.318
G1 Y33.364 F400
X26.587
Y51.588
X-1.587
Y-1.587
X26.587
Y16.539
X16.587
Y33.539
X15
G2 Y36.364 J1.412
X16.413 Y34.952 J-1.412
X16.095 Y34.634 I-0.318 F200
G1 X15.778
G18 G3 X15.46 Z13.917 K0.317
G1 Y35.269
Z12.917
G2 X15.778 Z12.6 I0.318
G1 X16.095
G17 G2 X16.413 Y34.952 J-0.318
G1 Y33.364 F400
X26.587
Y51.588
X-1.587
Y-1.587
X26.587
Y16.539
X16.587
Y33.539
X15
G2 Y36.364 J1.412
X16.413 Y34.952 J-1.412
X16.095 Y34.634 I-0.318 F200
G1 X15.778
G18 G3 X15.46 Z12.917 K0.317
G1 Y35.269
Z11.917
G2 X15.778 Z11.6 I0.318
G1 X16.095
G17 G2 X16.413 Y34.952 J-0.318
G1 Y33.364 F400
X26.587
Y51.588
X-1.587
Y-1.587
X26.587
Y16.539
X16.587
Y33.539
X15
G2 Y36.364 J1.412
X16.413 Y34.952 J-1.412
X16.095 Y34.634 I-0.318 F200
G1 X15.778
G18 G3 X15.46 Z11.917 K0.317
G1 Y35.269
Z10.917
G2 X15.778 Z10.6 I0.318
G1 X16.095
G17 G2 X16.413 Y34.952 J-0.318
G1 Y33.364 F400
X26.587
Y51.588
X-1.587
Y-1.587
X26.587
Y16.539
X16.587
Y33.539
X15
G2 Y36.364 J1.412
X16.413 Y34.952 J-1.412
X16.095 Y34.634 I-0.318 F200
G1 X15.778
G18 G3 X15.46 Z10.917 K0.317
G1 Y35.269
Z9.917
G2 X15.778 Z9.6 I0.318
G1 X16.095
G17 G2 X16.413 Y34.952 J-0.318
G1 Y33.364 F400
X26.587
Y51.588
X-1.587
Y-1.587
X26.587
Y16.539
X16.587
Y33.539
X15
G2 Y36.364 J1.412
X16.413 Y34.952 J-1.412
X16.095 Y34.634 I-0.318 F200
G1 X15.778
G18 G3 X15.46 Z9.917 K0.317
G1 Y35.269
Z8.917
G2 X15.778 Z8.6 I0.318
G1 X16.095
G17 G2 X16.413 Y34.952 J-0.318
G1 Y33.364 F400
X26.587
Y51.588
X-1.587
Y-1.587
X26.587
Y16.539
X16.587
Y33.539
X15
G2 Y36.364 J1.412
X16.413 Y34.952 J-1.412
X16.095 Y34.634 I-0.318 F200
G1 X15.778
G18 G3 X15.46 Z8.917 K0.317
G1 Y35.269
Z7.917
G2 X15.778 Z7.6 I0.318
G1 X16.095
G17 G2 X16.413 Y34.952 J-0.318
G1 Y33.364 F400
X26.587
Y51.588
X-1.587
Y-1.587
X26.587
Y16.539
X16.587
Y33.539
X15
G2 Y36.364 J1.412
X16.413 Y34.952 J-1.412
X16.095 Y34.634 I-0.318 F200
G1 X15.778
G18 G3 X15.46 Z7.917 K0.318
G1 Y35.269
Z6.917
G2 X15.778 Z6.6 I0.318
G1 X16.095
G17 G2 X16.413 Y34.952 J-0.318
G1 Y33.364 F400
X26.587
Y51.588
X-1.587
Y-1.587
X26.587
Y16.539
X16.587
Y33.539
X15
G2 Y36.364 J1.412
X16.413 Y34.952 J-1.412
X16.095 Y34.634 I-0.318 F200
G1 X15.778
G18 G3 X15.46 Z6.917 K0.318
G1 Y35.269
Z5.917
G2 X15.778 Z5.6 I0.318
G1 X16.095
G17 G2 X16.413 Y34.952 J-0.318
G1 Y33.364 F400
X26.587
Y51.588
X-1.587
Y-1.587
X26.587
Y16.539
X16.587
Y33.539
X15
G2 Y36.364 J1.412
X16.413 Y34.952 J-1.412
X16.095 Y34.634 I-0.318 F200
G1 X15.778
G18 G3 X15.46 Z5.917 K0.318
G1 Y35.269
Z4.917
G2 X15.778 Z4.6 I0.318
G1 X16.095
G17 G2 X16.413 Y34.952 J-0.318
G1 Y33.364 F400
X26.587
Y51.588
X-1.587
Y-1.587
X26.587
Y16.539
X16.587
Y33.539
X15
G2 Y36.364 J1.412
X16.413 Y34.952 J-1.412
X16.095 Y34.634 I-0.318 F200
G1 X15.778
G18 G3 X15.46 Z4.917 K0.318
G1 Y35.269
Z3.917
G2 X15.778 Z3.6 I0.318
G1 X16.095
G17 G2 X16.413 Y34.952 J-0.318
G1 Y33.364 F400
X26.587
Y51.588
X-1.587
Y-1.587
X26.587
Y16.539
X16.587
Y33.539
X15
G2 Y36.364 J1.412
X16.413 Y34.952 J-1.412
X16.095 Y34.634 I-0.318 F200
G1 X15.778
G18 G3 X15.46 Z3.917 K0.318
G1 Y35.269
Z2.917
G2 X15.778 Z2.6 I0.318
G1 X16.095
G17 G2 X16.413 Y34.952 J-0.318
G1 Y33.364 F400
X26.587
Y51.588
X-1.587
Y-1.587
X26.587
Y16.539
X16.587
Y33.539
X15
G2 Y36.364 J1.412
X16.413 Y34.952 J-1.412
X16.095 Y34.634 I-0.318 F200
G1 X15.778
G18 G3 X15.46 Z2.917 K0.318
G1 Y35.269
Z1.917
G2 X15.778 Z1.6 I0.318
G1 X16.095
G17 G2 X16.413 Y34.952 J-0.318
G1 Y33.364 F400
X26.587
Y51.588
X-1.587
Y-1.587
X26.587
Y16.539
X16.587
Y33.539
X15
G2 Y36.364 J1.412
X16.413 Y34.952 J-1.412
X16.095 Y34.634 I-0.318 F200
G1 X15.778
G18 G3 X15.46 Z1.917 K0.317
G1 Y35.269
Z0.917
G2 X15.778 Z0.6 I0.318
G1 X16.095
G17 G2 X16.413 Y34.952 J-0.318
G1 Y33.364 F400
X26.587
Y51.588
X-1.587
Y-1.587
X26.587
Y16.539
X16.587
Y33.539
X15
G2 Y36.364 J1.412
X16.413 Y34.952 J-1.412
X16.095 Y34.634 I-0.318 F200
G1 X15.778
G18 G3 X15.46 Z0.917 K0.317
G1 Y35.269
Z0.317
G2 X15.778 Z0 I0.318
G1 X16.095
G17 G2 X16.413 Y34.952 J-0.318
G1 Y33.364 F400
X26.587
Y51.588
X-1.587
Y-1.587
X26.587
Y16.539
X16.587
Y33.539
X15
G2 Y36.364 J1.412
X16.413 Y34.952 J-1.412
X16.095 Y34.634 I-0.318 F200
G1 X15.778
G18 G3 X15.46 Z0.317 K0.317
G0 Z30.6
G17
M9
G28 G91 Z0
G28 X0 Y0
M30
%
