%
(1)
(T4  D=4.34 CR=0 - ZMIN=0 - flat end mill)
G90 G94
G17
G21
G28 G91 Z0
G90

(2D Contour1)
M9
T4 M6
S5000 M3
G54
M8
G0 X28.472 Y-0.434
Z30.6
Z20.6
G1 Z17.6 F200
Z15.034 F333.3
G18 G3 X28.038 Z14.6 I-0.434
G1 X27.604 F200
G17 G2 X27.17 Y0 J0.434
G1 Y17.122 F400
X17.17
Y32.83
X27.17
Y52.17
X-2.17
Y-2.17
X27.17
Y0
G2 X27.604 Y0.434 I0.434 F200
G1 X28.038
G18 G2 X28.472 Z15.034 K0.434
G1 Y-0.434
Z14.034 F333.3
G3 X28.038 Z13.6 I-0.434
G1 X27.604 F200
G17 G2 X27.17 Y0 J0.434
G1 Y17.122 F400
X17.17
Y32.83
X27.17
Y52.17
X-2.17
Y-2.17
X27.17
Y0
G2 X27.604 Y0.434 I0.434 F200
G1 X28.038
G18 G2 X28.472 Z14.034 K0.434
G1 Y-0.434
Z13.034 F333.3
G3 X28.038 Z12.6 I-0.434
G1 X27.604 F200
G17 G2 X27.17 Y0 J0.434
G1 Y17.122 F400
X17.17
Y32.83
X27.17
Y52.17
X-2.17
Y-2.17
X27.17
Y0
G2 X27.604 Y0.434 I0.434 F200
G1 X28.038
G18 G2 X28.472 Z13.034 K0.434
G1 Y-0.434
Z12.034 F333.3
G3 X28.038 Z11.6 I-0.434
G1 X27.604 F200
G17 G2 X27.17 Y0 J0.434
G1 Y17.122 F400
X17.17
Y32.83
X27.17
Y52.17
X-2.17
Y-2.17
X27.17
Y0
G2 X27.604 Y0.434 I0.434 F200
G1 X28.038
G18 G2 X28.472 Z12.034 K0.434
G1 Y-0.434
Z11.034 F333.3
G3 X28.038 Z10.6 I-0.434
G1 X27.604 F200
G17 G2 X27.17 Y0 J0.434
G1 Y17.122 F400
X17.17
Y32.83
X27.17
Y52.17
X-2.17
Y-2.17
X27.17
Y0
G2 X27.604 Y0.434 I0.434 F200
G1 X28.038
G18 G2 X28.472 Z11.034 K0.434
G1 Y-0.434
Z10.034 F333.3
G3 X28.038 Z9.6 I-0.434
G1 X27.604 F200
G17 G2 X27.17 Y0 J0.434
G1 Y17.122 F400
X17.17
Y32.83
X27.17
Y52.17
X-2.17
Y-2.17
X27.17
Y0
G2 X27.604 Y0.434 I0.434 F200
G1 X28.038
G18 G2 X28.472 Z10.034 K0.434
G1 Y-0.434
Z9.034 F333.3
G3 X28.038 Z8.6 I-0.434
G1 X27.604 F200
G17 G2 X27.17 Y0 J0.434
G1 Y17.122 F400
X17.17
Y32.83
X27.17
Y52.17
X-2.17
Y-2.17
X27.17
Y0
G2 X27.604 Y0.434 I0.434 F200
G1 X28.038
G18 G2 X28.472 Z9.034 K0.434
G1 Y-0.434
Z8.034 F333.3
G3 X28.038 Z7.6 I-0.434
G1 X27.604 F200
G17 G2 X27.17 Y0 J0.434
G1 Y17.122 F400
X17.17
Y32.83
X27.17
Y52.17
X-2.17
Y-2.17
X27.17
Y0
G2 X27.604 Y0.434 I0.434 F200
G1 X28.038
G18 G2 X28.472 Z8.034 K0.434
G1 Y-0.434
Z7.034 F333.3
G3 X28.038 Z6.6 I-0.434
G1 X27.604 F200
G17 G2 X27.17 Y0 J0.434
G1 Y17.122 F400
X17.17
Y32.83
X27.17
Y52.17
X-2.17
Y-2.17
X27.17
Y0
G2 X27.604 Y0.434 I0.434 F200
G1 X28.038
G18 G2 X28.472 Z7.034 K0.434
G1 Y-0.434
Z6.034 F333.3
G3 X28.038 Z5.6 I-0.434
G1 X27.604 F200
G17 G2 X27.17 Y0 J0.434
G1 Y17.122 F400
X17.17
Y32.83
X27.17
Y52.17
X-2.17
Y-2.17
X27.17
Y0
G2 X27.604 Y0.434 I0.434 F200
G1 X28.038
G18 G2 X28.472 Z6.034 K0.434
G1 Y-0.434
Z5.034 F333.3
G3 X28.038 Z4.6 I-0.434
G1 X27.604 F200
G17 G2 X27.17 Y0 J0.434
G1 Y17.122 F400
X17.17
Y32.83
X27.17
Y52.17
X-2.17
Y-2.17
X27.17
Y0
G2 X27.604 Y0.434 I0.434 F200
G1 X28.038
G18 G2 X28.472 Z5.034 K0.434
G1 Y-0.434
Z4.034 F333.3
G3 X28.038 Z3.6 I-0.434
G1 X27.604 F200
G17 G2 X27.17 Y0 J0.434
G1 Y17.122 F400
X17.17
Y32.83
X27.17
Y52.17
X-2.17
Y-2.17
X27.17
Y0
G2 X27.604 Y0.434 I0.434 F200
G1 X28.038
G18 G2 X28.472 Z4.034 K0.434
G1 Y-0.434
Z3.034 F333.3
G3 X28.038 Z2.6 I-0.434
G1 X27.604 F200
G17 G2 X27.17 Y0 J0.434
G1 Y17.122 F400
X17.17
Y32.83
X27.17
Y52.17
X-2.17
Y-2.17
X27.17
Y0
G2 X27.604 Y0.434 I0.434 F200
G1 X28.038
G18 G2 X28.472 Z3.034 K0.434
G1 Y-0.434
Z2.034 F333.3
G3 X28.038 Z1.6 I-0.434
G1 X27.604 F200
G17 G2 X27.17 Y0 J0.434
G1 Y17.122 F400
X17.17
Y32.83
X27.17
Y52.17
X-2.17
Y-2.17
X27.17
Y0
G2 X27.604 Y0.434 I0.434 F200
G1 X28.038
G18 G2 X28.472 Z2.034 K0.434
G1 Y-0.434
Z1.034 F333.3
G3 X28.038 Z0.6 I-0.434
G1 X27.604 F200
G17 G2 X27.17 Y0 J0.434
G1 Y17.122 F400
X17.17
Y32.83
X27.17
Y52.17
X-2.17
Y-2.17
X27.17
Y0
G2 X27.604 Y0.434 I0.434 F200
G1 X28.038
G18 G2 X28.472 Z1.034 K0.434
G1 Y-0.434
Z0.434 F333.3
G3 X28.038 Z0 I-0.434
G1 X27.604 F200
G17 G2 X27.17 Y0 J0.434
G1 Y17.122 F400
X17.17
Y32.83
X27.17
Y52.17
X-2.17
Y-2.17
X27.17
Y0
G2 X27.604 Y0.434 I0.434 F200
G1 X28.038
G18 G2 X28.472 Z0.434 K0.434
G0 Z30.6
G17
M9
G28 G91 Z0
G28 X0 Y0
M30
%
