%
(1)
(T1  D=2 CR=0 - ZMIN=0 - flat end mill)
G90 G94
G17
G21
G28 G91 Z0
G90

(2D Contour1)
M9
T1 M6
S26261 M3
G54
M8
G0 X15.4 Y35.152
Z31.6
Z21.6
G1 Z18.6 F400
Z15.8 F200
G18 G2 X15.6 Z15.6 I0.2
G1 X15.8 F400
G17 G2 X16 Y34.952 J-0.2
G1 Y33.952
X26
Y51
X-1
Y-1
X26
Y15.952
X16
Y33.952
X15
G2 Y35.952 J1
X16 Y34.952 J-1
X15.8 Y34.752 I-0.2
G1 X15.6
G18 G3 X15.4 Z15.8 K0.2
G1 Y35.152
Z14.8 F200
G2 X15.6 Z14.6 I0.2
G1 X15.8 F400
G17 G2 X16 Y34.952 J-0.2
G1 Y33.952
X26
Y51
X-1
Y-1
X26
Y15.952
X16
Y33.952
X15
G2 Y35.952 J1
X16 Y34.952 J-1
X15.8 Y34.752 I-0.2
G1 X15.6
G18 G3 X15.4 Z14.8 K0.2
G1 Y35.152
Z13.8 F200
G2 X15.6 Z13.6 I0.2
G1 X15.8 F400
G17 G2 X16 Y34.952 J-0.2
G1 Y33.952
X26
Y51
X-1
Y-1
X26
Y15.952
X16
Y33.952
X15
G2 Y35.952 J1
X16 Y34.952 J-1
X15.8 Y34.752 I-0.2
G1 X15.6
G18 G3 X15.4 Z13.8 K0.2
G1 Y35.152
Z12.8 F200
G2 X15.6 Z12.6 I0.2
G1 X15.8 F400
G17 G2 X16 Y34.952 J-0.2
G1 Y33.952
X26
Y51
X-1
Y-1
X26
Y15.952
X16
Y33.952
X15
G2 Y35.952 J1
X16 Y34.952 J-1
X15.8 Y34.752 I-0.2
G1 X15.6
G18 G3 X15.4 Z12.8 K0.2
G1 Y35.152
Z11.8 F200
G2 X15.6 Z11.6 I0.2
G1 X15.8 F400
G17 G2 X16 Y34.952 J-0.2
G1 Y33.952
X26
Y51
X-1
Y-1
X26
Y15.952
X16
Y33.952
X15
G2 Y35.952 J1
X16 Y34.952 J-1
X15.8 Y34.752 I-0.2
G1 X15.6
G18 G3 X15.4 Z11.8 K0.2
G1 Y35.152
Z10.8 F200
G2 X15.6 Z10.6 I0.2
G1 X15.8 F400
G17 G2 X16 Y34.952 J-0.2
G1 Y33.952
X26
Y51
X-1
Y-1
X26
Y15.952
X16
Y33.952
X15
G2 Y35.952 J1
X16 Y34.952 J-1
X15.8 Y34.752 I-0.2
G1 X15.6
G18 G3 X15.4 Z10.8 K0.2
G1 Y35.152
Z9.8 F200
G2 X15.6 Z9.6 I0.2
G1 X15.8 F400
G17 G2 X16 Y34.952 J-0.2
G1 Y33.952
X26
Y51
X-1
Y-1
X26
Y15.952
X16
Y33.952
X15
G2 Y35.952 J1
X16 Y34.952 J-1
X15.8 Y34.752 I-0.2
G1 X15.6
G18 G3 X15.4 Z9.8 K0.2
G1 Y35.152
Z8.8 F200
G2 X15.6 Z8.6 I0.2
G1 X15.8 F400
G17 G2 X16 Y34.952 J-0.2
G1 Y33.952
X26
Y51
X-1
Y-1
X26
Y15.952
X16
Y33.952
X15
G2 Y35.952 J1
X16 Y34.952 J-1
X15.8 Y34.752 I-0.2
G1 X15.6
G18 G3 X15.4 Z8.8 K0.2
G1 Y35.152
Z7.8 F200
G2 X15.6 Z7.6 I0.2
G1 X15.8 F400
G17 G2 X16 Y34.952 J-0.2
G1 Y33.952
X26
Y51
X-1
Y-1
X26
Y15.952
X16
Y33.952
X15
G2 Y35.952 J1
X16 Y34.952 J-1
X15.8 Y34.752 I-0.2
G1 X15.6
G18 G3 X15.4 Z7.8 K0.2
G1 Y35.152
Z6.8 F200
G2 X15.6 Z6.6 I0.2
G1 X15.8 F400
G17 G2 X16 Y34.952 J-0.2
G1 Y33.952
X26
Y51
X-1
Y-1
X26
Y15.952
X16
Y33.952
X15
G2 Y35.952 J1
X16 Y34.952 J-1
X15.8 Y34.752 I-0.2
G1 X15.6
G18 G3 X15.4 Z6.8 K0.2
G1 Y35.152
Z5.8 F200
G2 X15.6 Z5.6 I0.2
G1 X15.8 F400
G17 G2 X16 Y34.952 J-0.2
G1 Y33.952
X26
Y51
X-1
Y-1
X26
Y15.952
X16
Y33.952
X15
G2 Y35.952 J1
X16 Y34.952 J-1
X15.8 Y34.752 I-0.2
G1 X15.6
G18 G3 X15.4 Z5.8 K0.2
G1 Y35.152
Z4.8 F200
G2 X15.6 Z4.6 I0.2
G1 X15.8 F400
G17 G2 X16 Y34.952 J-0.2
G1 Y33.952
X26
Y51
X-1
Y-1
X26
Y15.952
X16
Y33.952
X15
G2 Y35.952 J1
X16 Y34.952 J-1
X15.8 Y34.752 I-0.2
G1 X15.6
G18 G3 X15.4 Z4.8 K0.2
G1 Y35.152
Z3.8 F200
G2 X15.6 Z3.6 I0.2
G1 X15.8 F400
G17 G2 X16 Y34.952 J-0.2
G1 Y33.952
X26
Y51
X-1
Y-1
X26
Y15.952
X16
Y33.952
X15
G2 Y35.952 J1
X16 Y34.952 J-1
X15.8 Y34.752 I-0.2
G1 X15.6
G18 G3 X15.4 Z3.8 K0.2
G1 Y35.152
Z2.8 F200
G2 X15.6 Z2.6 I0.2
G1 X15.8 F400
G17 G2 X16 Y34.952 J-0.2
G1 Y33.952
X26
Y51
X-1
Y-1
X26
Y15.952
X16
Y33.952
X15
G2 Y35.952 J1
X16 Y34.952 J-1
X15.8 Y34.752 I-0.2
G1 X15.6
G18 G3 X15.4 Z2.8 K0.2
G1 Y35.152
Z1.8 F200
G2 X15.6 Z1.6 I0.2
G1 X15.8 F400
G17 G2 X16 Y34.952 J-0.2
G1 Y33.952
X26
Y51
X-1
Y-1
X26
Y15.952
X16
Y33.952
X15
G2 Y35.952 J1
X16 Y34.952 J-1
X15.8 Y34.752 I-0.2
G1 X15.6
G18 G3 X15.4 Z1.8 K0.2
G1 Y35.152
Z0.8 F200
G2 X15.6 Z0.6 I0.2
G1 X15.8 F400
G17 G2 X16 Y34.952 J-0.2
G1 Y33.952
X26
Y51
X-1
Y-1
X26
Y15.952
X16
Y33.952
X15
G2 Y35.952 J1
X16 Y34.952 J-1
X15.8 Y34.752 I-0.2
G1 X15.6
G18 G3 X15.4 Z0.8 K0.2
G1 Y35.152
Z0.2 F200
G2 X15.6 Z0 I0.2
G1 X15.8 F400
G17 G2 X16 Y34.952 J-0.2
G1 Y33.952
X26
Y51
X-1
Y-1
X26
Y15.952
X16
Y33.952
X15
G2 Y35.952 J1
X16 Y34.952 J-1
X15.8 Y34.752 I-0.2
G1 X15.6
G18 G3 X15.4 Z0.2 K0.2
G0 Z31.6
G17
M9
G28 G91 Z0
G28 X0 Y0
M30
%
