%
(1)
(T1  D=2 CR=0 - ZMIN=-20 - flat end mill)
G90 G94
G17
G21
G28 G91 Z0
G90

(2D Contour1)
M9
T1 M6
S26261 M3
G54
M8
G0 X15.4 Y35.152
Z15
Z5
G1 Z2 F400
Z-0.8 F200
G18 G2 X15.6 Z-1 I0.2
G1 X15.8 F400
G17 G2 X16 Y34.952 J-0.2
G1 Y33.952
X26
Y51
X-1
Y-1
X26
Y15.952
X16
Y33.952
X15
G2 Y35.952 J1
X16 Y34.952 J-1
X15.8 Y34.752 I-0.2
G1 X15.6
G18 G3 X15.4 Z-0.8 K0.2
G1 Y35.152
Z-1.8 F200
G2 X15.6 Z-2 I0.2
G1 X15.8 F400
G17 G2 X16 Y34.952 J-0.2
G1 Y33.952
X26
Y51
X-1
Y-1
X26
Y15.952
X16
Y33.952
X15
G2 Y35.952 J1
X16 Y34.952 J-1
X15.8 Y34.752 I-0.2
G1 X15.6
G18 G3 X15.4 Z-1.8 K0.2
G1 Y35.152
Z-2.8 F200
G2 X15.6 Z-3 I0.2
G1 X15.8 F400
G17 G2 X16 Y34.952 J-0.2
G1 Y33.952
X26
Y51
X-1
Y-1
X26
Y15.952
X16
Y33.952
X15
G2 Y35.952 J1
X16 Y34.952 J-1
X15.8 Y34.752 I-0.2
G1 X15.6
G18 G3 X15.4 Z-2.8 K0.2
G1 Y35.152
Z-3.8 F200
G2 X15.6 Z-4 I0.2
G1 X15.8 F400
G17 G2 X16 Y34.952 J-0.2
G1 Y33.952
X26
Y51
X-1
Y-1
X26
Y15.952
X16
Y33.952
X15
G2 Y35.952 J1
X16 Y34.952 J-1
X15.8 Y34.752 I-0.2
G1 X15.6
G18 G3 X15.4 Z-3.8 K0.2
G1 Y35.152
Z-4.8 F200
G2 X15.6 Z-5 I0.2
G1 X15.8 F400
G17 G2 X16 Y34.952 J-0.2
G1 Y33.952
X26
Y51
X-1
Y-1
X26
Y15.952
X16
Y33.952
X15
G2 Y35.952 J1
X16 Y34.952 J-1
X15.8 Y34.752 I-0.2
G1 X15.6
G18 G3 X15.4 Z-4.8 K0.2
G1 Y35.152
Z-5.8 F200
G2 X15.6 Z-6 I0.2
G1 X15.8 F400
G17 G2 X16 Y34.952 J-0.2
G1 Y33.952
X26
Y51
X-1
Y-1
X26
Y15.952
X16
Y33.952
X15
G2 Y35.952 J1
X16 Y34.952 J-1
X15.8 Y34.752 I-0.2
G1 X15.6
G18 G3 X15.4 Z-5.8 K0.2
G1 Y35.152
Z-6.8 F200
G2 X15.6 Z-7 I0.2
G1 X15.8 F400
G17 G2 X16 Y34.952 J-0.2
G1 Y33.952
X26
Y51
X-1
Y-1
X26
Y15.952
X16
Y33.952
X15
G2 Y35.952 J1
X16 Y34.952 J-1
X15.8 Y34.752 I-0.2
G1 X15.6
G18 G3 X15.4 Z-6.8 K0.2
G1 Y35.152
Z-7.8 F200
G2 X15.6 Z-8 I0.2
G1 X15.8 F400
G17 G2 X16 Y34.952 J-0.2
G1 Y33.952
X26
Y51
X-1
Y-1
X26
Y15.952
X16
Y33.952
X15
G2 Y35.952 J1
X16 Y34.952 J-1
X15.8 Y34.752 I-0.2
G1 X15.6
G18 G3 X15.4 Z-7.8 K0.2
G1 Y35.152
Z-8.8 F200
G2 X15.6 Z-9 I0.2
G1 X15.8 F400
G17 G2 X16 Y34.952 J-0.2
G1 Y33.952
X26
Y51
X-1
Y-1
X26
Y15.952
X16
Y33.952
X15
G2 Y35.952 J1
X16 Y34.952 J-1
X15.8 Y34.752 I-0.2
G1 X15.6
G18 G3 X15.4 Z-8.8 K0.2
G1 Y35.152
Z-9.8 F200
G2 X15.6 Z-10 I0.2
G1 X15.8 F400
G17 G2 X16 Y34.952 J-0.2
G1 Y33.952
X26
Y51
X-1
Y-1
X26
Y15.952
X16
Y33.952
X15
G2 Y35.952 J1
X16 Y34.952 J-1
X15.8 Y34.752 I-0.2
G1 X15.6
G18 G3 X15.4 Z-9.8 K0.2
G1 Y35.152
Z-10.8 F200
G2 X15.6 Z-11 I0.2
G1 X15.8 F400
G17 G2 X16 Y34.952 J-0.2
G1 Y33.952
X26
Y51
X-1
Y-1
X26
Y15.952
X16
Y33.952
X15
G2 Y35.952 J1
X16 Y34.952 J-1
X15.8 Y34.752 I-0.2
G1 X15.6
G18 G3 X15.4 Z-10.8 K0.2
G1 Y35.152
Z-11.8 F200
G2 X15.6 Z-12 I0.2
G1 X15.8 F400
G17 G2 X16 Y34.952 J-0.2
G1 Y33.952
X26
Y51
X-1
Y-1
X26
Y15.952
X16
Y33.952
X15
G2 Y35.952 J1
X16 Y34.952 J-1
X15.8 Y34.752 I-0.2
G1 X15.6
G18 G3 X15.4 Z-11.8 K0.2
G1 Y35.152
Z-12.8 F200
G2 X15.6 Z-13 I0.2
G1 X15.8 F400
G17 G2 X16 Y34.952 J-0.2
G1 Y33.952
X26
Y51
X-1
Y-1
X26
Y15.952
X16
Y33.952
X15
G2 Y35.952 J1
X16 Y34.952 J-1
X15.8 Y34.752 I-0.2
G1 X15.6
G18 G3 X15.4 Z-12.8 K0.2
G1 Y35.152
Z-13.8 F200
G2 X15.6 Z-14 I0.2
G1 X15.8 F400
G17 G2 X16 Y34.952 J-0.2
G1 Y33.952
X26
Y51
X-1
Y-1
X26
Y15.952
X16
Y33.952
X15
G2 Y35.952 J1
X16 Y34.952 J-1
X15.8 Y34.752 I-0.2
G1 X15.6
G18 G3 X15.4 Z-13.8 K0.2
G1 Y35.152
Z-14.8 F200
G2 X15.6 Z-15 I0.2
G1 X15.8 F400
G17 G2 X16 Y34.952 J-0.2
G1 Y33.952
X26
Y51
X-1
Y-1
X26
Y15.952
X16
Y33.952
X15
G2 Y35.952 J1
X16 Y34.952 J-1
X15.8 Y34.752 I-0.2
G1 X15.6
G18 G3 X15.4 Z-14.8 K0.2
G1 Y35.152
Z-15.8 F200
G2 X15.6 Z-16 I0.2
G1 X15.8 F400
G17 G2 X16 Y34.952 J-0.2
G1 Y33.952
X26
Y51
X-1
Y-1
X26
Y15.952
X16
Y33.952
X15
G2 Y35.952 J1
X16 Y34.952 J-1
X15.8 Y34.752 I-0.2
G1 X15.6
G18 G3 X15.4 Z-15.8 K0.2
G1 Y35.152
Z-16.8 F200
G2 X15.6 Z-17 I0.2
G1 X15.8 F400
G17 G2 X16 Y34.952 J-0.2
G1 Y33.952
X26
Y51
X-1
Y-1
X26
Y15.952
X16
Y33.952
X15
G2 Y35.952 J1
X16 Y34.952 J-1
X15.8 Y34.752 I-0.2
G1 X15.6
G18 G3 X15.4 Z-16.8 K0.2
G1 Y35.152
Z-17.8 F200
G2 X15.6 Z-18 I0.2
G1 X15.8 F400
G17 G2 X16 Y34.952 J-0.2
G1 Y33.952
X26
Y51
X-1
Y-1
X26
Y15.952
X16
Y33.952
X15
G2 Y35.952 J1
X16 Y34.952 J-1
X15.8 Y34.752 I-0.2
G1 X15.6
G18 G3 X15.4 Z-17.8 K0.2
G1 Y35.152
Z-18.8 F200
G2 X15.6 Z-19 I0.2
G1 X15.8 F400
G17 G2 X16 Y34.952 J-0.2
G1 Y33.952
X26
Y51
X-1
Y-1
X26
Y15.952
X16
Y33.952
X15
G2 Y35.952 J1
X16 Y34.952 J-1
X15.8 Y34.752 I-0.2
G1 X15.6
G18 G3 X15.4 Z-18.8 K0.2
G1 Y35.152
Z-19.8 F200
G2 X15.6 Z-20 I0.2
G1 X15.8 F400
G17 G2 X16 Y34.952 J-0.2
G1 Y33.952
X26
Y51
X-1
Y-1
X26
Y15.952
X16
Y33.952
X15
G2 Y35.952 J1
X16 Y34.952 J-1
X15.8 Y34.752 I-0.2
G1 X15.6
G18 G3 X15.4 Z-19.8 K0.2
G0 Z15
G17
M9
G28 G91 Z0
G28 X0 Y0
M30
%
