(Created with emc2b post processor 2015/04/09 11:58)
(tool change to 3 mm Slot Cutter)
T1 M06 G43
G17 G90 G21
(Sketch 1)
G00 X72.727 Y138.955 S7000 M03
Z12
G01 Z9 F100
G02 X72.727 Y136.955 I0 J-1
G01 X22.727 Y136.955
G03 X8.5 Y122.727 I0 J-14.227
G01 X8.5 Y22.727
G03 X22.727 Y8.5 I14.227 J0
G01 X122.727 Y8.5
G03 X136.955 Y22.727 I0 J14.227
G01 X136.955 Y122.727
G03 X122.727 Y136.955 I-14.227 J0
G01 X72.727 Y136.955
G02 X72.727 Y138.955 I0 J1
G01 Z8
G02 X72.727 Y136.955 I0 J-1
G01 X22.727 Y136.955
G03 X8.5 Y122.727 I0 J-14.227
G01 X8.5 Y22.727
G03 X22.727 Y8.5 I14.227 J0
G01 X122.727 Y8.5
G03 X136.955 Y22.727 I0 J14.227
G01 X136.955 Y122.727
G03 X122.727 Y136.955 I-14.227 J0
G01 X72.727 Y136.955
G02 X72.727 Y138.955 I0 J1
G01 Z7
G02 X72.727 Y136.955 I0 J-1
G01 X22.727 Y136.955
G03 X8.5 Y122.727 I0 J-14.227
G01 X8.5 Y22.727
G03 X22.727 Y8.5 I14.227 J0
G01 X122.727 Y8.5
G03 X136.955 Y22.727 I0 J14.227
G01 X136.955 Y122.727
G03 X122.727 Y136.955 I-14.227 J0
G01 X72.727 Y136.955
G02 X72.727 Y138.955 I0 J1
G01 Z6
G02 X72.727 Y136.955 I0 J-1
G01 X22.727 Y136.955
G03 X8.5 Y122.727 I0 J-14.227
G01 X8.5 Y22.727
G03 X22.727 Y8.5 I14.227 J0
G01 X122.727 Y8.5
G03 X136.955 Y22.727 I0 J14.227
G01 X136.955 Y122.727
G03 X122.727 Y136.955 I-14.227 J0
G01 X72.727 Y136.955
G02 X72.727 Y138.955 I0 J1
G01 Z5
G02 X72.727 Y136.955 I0 J-1
G01 X22.727 Y136.955
G03 X8.5 Y122.727 I0 J-14.227
G01 X8.5 Y22.727
G03 X22.727 Y8.5 I14.227 J0
G01 X122.727 Y8.5
G03 X136.955 Y22.727 I0 J14.227
G01 X136.955 Y122.727
G03 X122.727 Y136.955 I-14.227 J0
G01 X72.727 Y136.955
G02 X72.727 Y138.955 I0 J1
G90
G00 X52.427 Y70.66 S7000 M03
Z12
G01 Z9
X52.427 Y72.298
G03 X53.264 Y71.48 I6.289 J5.598
X52.427 Y70.66 I5.445 J-6.395
G01 X51.427 Y67.571
X51.427 Y75.387
G03 X54.85 Y71.482 I10.144 J5.439
X51.427 Y67.571 I6.765 J-9.374
G01 X51.027 Y106.791
X51.027 Y80.936
G03 X56.724 Y71.484 I10.675 J-0.008
X51.027 Y62.04 I5.002 J-9.458
G01 X51.027 Y36.191
X50.427 Y36.191
X50.427 Y106.791
X51.027 Y106.791
X52.027 Y107.791
X52.027 Y80.936
G03 X59.572 Y71.487 I9.683 J-0.004
X52.027 Y62.041 I2.16 J-9.461
G01 X52.027 Y35.191
X49.427 Y35.191
X49.427 Y107.791
X52.027 Y107.791
G00 Z5
X93.027 Y72.319
Z12
G01 Z9
X93.027 Y70.639
G03 X92.168 Y71.478 I-6.493 J-5.789
X93.027 Y72.319 I-5.437 J6.413
G01 X94.027 Y75.412
X94.027 Y67.541
G03 X90.583 Y71.48 I-10.181 J-5.426
X94.027 Y75.412 I-6.758 J9.393
G01 X95.027 Y106.791
X95.027 Y36.191
X94.427 Y36.191
X94.427 Y62.046
G03 X88.71 Y71.483 I-10.738 J-0.055
X94.427 Y80.936 I-4.991 J9.473
G01 X94.427 Y106.791
X95.027 Y106.791
X96.027 Y107.791
X96.027 Y35.191
X93.427 Y35.191
X93.427 Y62.046
G03 X85.863 Y71.487 I-9.737 J-0.05
X93.427 Y80.936 I-2.145 J9.469
G01 X93.427 Y107.791
X96.027 Y107.791
X97.027 Y108.791
X97.027 Y34.191
X92.427 Y34.191
X92.427 Y62.046
G03 X83.724 Y70.745 I-8.748 J-0.049
G01 X61.727 Y70.745
G03 X53.027 Y62.041 I0.024 J-8.724
G01 X53.027 Y34.191
X48.427 Y34.191
X48.427 Y108.791
X53.027 Y108.791
X53.027 Y80.936
G03 X61.724 Y72.236 I8.702 J0.002
G01 X83.727 Y72.236
G03 X92.427 Y80.936 I-0.023 J8.723
G01 X92.427 Y108.791
X97.027 Y108.791
X98.027 Y109.791
X98.027 Y33.191
X91.427 Y33.191
X91.427 Y62.046
G03 X83.725 Y69.745 I-7.741 J-0.042
G01 X61.727 Y69.745
G03 X54.027 Y62.042 I0.02 J-7.72
G01 X54.027 Y33.191
X47.427 Y33.191
X47.427 Y109.791
X54.027 Y109.791
X54.027 Y80.936
G03 X61.725 Y73.236 I7.702 J0.002
G01 X83.727 Y73.236
G03 X91.427 Y80.936 I-0.022 J7.722
G01 X91.427 Y109.791
X98.027 Y109.791
X99.027 Y110.791
X99.027 Y32.191
X90.427 Y32.191
X90.427 Y62.046
G03 X83.726 Y68.745 I-6.735 J-0.036
G01 X61.727 Y68.745
G03 X55.027 Y62.043 I0.016 J-6.716
G01 X55.027 Y32.191
X46.427 Y32.191
X46.427 Y110.791
X55.027 Y110.791
X55.027 Y80.936
G03 X61.725 Y74.236 I6.701 J0.001
G01 X83.727 Y74.236
G03 X90.427 Y80.936 I-0.02 J6.72
G01 X90.427 Y110.791
X99.027 Y110.791
X100.027 Y111.791
X100.027 Y31.191
X89.427 Y31.191
X89.427 Y62.046
G03 X83.726 Y67.745 I-5.73 J-0.031
G01 X61.727 Y67.745
G03 X56.027 Y62.044 I0.013 J-5.713
G01 X56.027 Y31.191
X45.427 Y31.191
X45.427 Y111.791
X56.027 Y111.791
X56.027 Y80.936
G03 X61.725 Y75.236 I5.701 J0.001
G01 X83.727 Y75.236
G03 X89.427 Y80.936 I-0.017 J5.717
G01 X89.427 Y111.791
X100.027 Y111.791
X101.027 Y112.791
X101.027 Y30.191
X88.427 Y30.191
X88.427 Y62.046
G03 X83.726 Y66.745 I-4.722 J-0.023
G01 X61.727 Y66.745
G03 X57.027 Y62.045 I0.012 J-4.712
G01 X57.027 Y30.191
X44.427 Y30.191
X44.427 Y112.791
X57.027 Y112.791
X57.027 Y80.936
G03 X61.726 Y76.236 I4.702 J0.002
G01 X83.727 Y76.236
G03 X88.427 Y80.936 I-0.016 J4.716
G01 X88.427 Y112.791
X101.027 Y112.791
X102.027 Y113.791
X102.027 Y29.191
X87.427 Y29.191
X87.427 Y62.046
G03 X83.726 Y65.745 I-3.716 J-0.017
G01 X61.727 Y65.745
G03 X58.027 Y62.046 I0.009 J-3.709
G01 X58.027 Y29.191
X43.427 Y29.191
X43.427 Y113.791
X58.027 Y113.791
X58.027 Y80.936
G03 X61.726 Y77.236 I3.702 J0.002
G01 X83.727 Y77.236
G03 X87.427 Y80.936 I-0.011 J3.711
G01 X87.427 Y113.791
X102.027 Y113.791
X103.027 Y114.791
X103.027 Y28.191
X86.427 Y28.191
X86.427 Y62.046
G03 X83.727 Y64.746 I-2.708 J-0.008
G01 X61.727 Y64.746
G03 X59.027 Y62.046 I0.004 J-2.704
G01 X59.027 Y28.191
X42.427 Y28.191
X42.427 Y114.791
X59.027 Y114.791
X59.027 Y80.936
G03 X61.726 Y78.236 I2.701 J0.001
G01 X83.727 Y78.236
G03 X86.427 Y80.936 I-0.004 J2.704
G01 X86.427 Y114.791
X103.027 Y114.791
X104.027 Y115.791
X104.027 Y27.191
X85.427 Y27.191
X85.427 Y62.046
G03 X83.727 Y63.746 I-1.7 J0
G01 X61.727 Y63.746
G03 X60.027 Y62.046 I-0.001 J-1.698
G01 X60.027 Y27.191
X41.427 Y27.191
X41.427 Y115.791
X60.027 Y115.791
X60.027 Y80.936
G03 X61.727 Y79.236 I1.696 J-0.003
G01 X83.727 Y79.236
G03 X85.427 Y80.936 I0.001 J1.698
G01 X85.427 Y115.791
X104.027 Y115.791
G00 Z5
X52.427 Y70.66
Z11
G01 Z8
X52.427 Y72.298
G03 X53.264 Y71.48 I6.289 J5.598
X52.427 Y70.66 I5.445 J-6.395
G01 X51.427 Y67.571
X51.427 Y75.387
G03 X54.85 Y71.482 I10.144 J5.439
X51.427 Y67.571 I6.765 J-9.374
G01 X51.027 Y106.791
X51.027 Y80.936
G03 X56.724 Y71.484 I10.675 J-0.008
X51.027 Y62.04 I5.002 J-9.458
G01 X51.027 Y36.191
X50.427 Y36.191
X50.427 Y106.791
X51.027 Y106.791
X52.027 Y107.791
X52.027 Y80.936
G03 X59.572 Y71.487 I9.683 J-0.004
X52.027 Y62.041 I2.16 J-9.461
G01 X52.027 Y35.191
X49.427 Y35.191
X49.427 Y107.791
X52.027 Y107.791
G00 Z5
X93.027 Y72.319
Z11
G01 Z8
X93.027 Y70.639
G03 X92.168 Y71.478 I-6.493 J-5.789
X93.027 Y72.319 I-5.437 J6.413
G01 X94.027 Y75.412
X94.027 Y67.541
G03 X90.583 Y71.48 I-10.181 J-5.426
X94.027 Y75.412 I-6.758 J9.393
G01 X95.027 Y106.791
X95.027 Y36.191
X94.427 Y36.191
X94.427 Y62.046
G03 X88.71 Y71.483 I-10.738 J-0.055
X94.427 Y80.936 I-4.991 J9.473
G01 X94.427 Y106.791
X95.027 Y106.791
X96.027 Y107.791
X96.027 Y35.191
X93.427 Y35.191
X93.427 Y62.046
G03 X85.863 Y71.487 I-9.737 J-0.05
X93.427 Y80.936 I-2.145 J9.469
G01 X93.427 Y107.791
X96.027 Y107.791
X97.027 Y108.791
X97.027 Y34.191
X92.427 Y34.191
X92.427 Y62.046
G03 X83.724 Y70.745 I-8.748 J-0.049
G01 X61.727 Y70.745
G03 X53.027 Y62.041 I0.024 J-8.724
G01 X53.027 Y34.191
X48.427 Y34.191
X48.427 Y108.791
X53.027 Y108.791
X53.027 Y80.936
G03 X61.724 Y72.236 I8.702 J0.002
G01 X83.727 Y72.236
G03 X92.427 Y80.936 I-0.023 J8.723
G01 X92.427 Y108.791
X97.027 Y108.791
X98.027 Y109.791
X98.027 Y33.191
X91.427 Y33.191
X91.427 Y62.046
G03 X83.725 Y69.745 I-7.741 J-0.042
G01 X61.727 Y69.745
G03 X54.027 Y62.042 I0.02 J-7.72
G01 X54.027 Y33.191
X47.427 Y33.191
X47.427 Y109.791
X54.027 Y109.791
X54.027 Y80.936
G03 X61.725 Y73.236 I7.702 J0.002
G01 X83.727 Y73.236
G03 X91.427 Y80.936 I-0.022 J7.722
G01 X91.427 Y109.791
X98.027 Y109.791
X99.027 Y110.791
X99.027 Y32.191
X90.427 Y32.191
X90.427 Y62.046
G03 X83.726 Y68.745 I-6.735 J-0.036
G01 X61.727 Y68.745
G03 X55.027 Y62.043 I0.016 J-6.716
G01 X55.027 Y32.191
X46.427 Y32.191
X46.427 Y110.791
X55.027 Y110.791
X55.027 Y80.936
G03 X61.725 Y74.236 I6.701 J0.001
G01 X83.727 Y74.236
G03 X90.427 Y80.936 I-0.02 J6.72
G01 X90.427 Y110.791
X99.027 Y110.791
X100.027 Y111.791
X100.027 Y31.191
X89.427 Y31.191
X89.427 Y62.046
G03 X83.726 Y67.745 I-5.73 J-0.031
G01 X61.727 Y67.745
G03 X56.027 Y62.044 I0.013 J-5.713
G01 X56.027 Y31.191
X45.427 Y31.191
X45.427 Y111.791
X56.027 Y111.791
X56.027 Y80.936
G03 X61.725 Y75.236 I5.701 J0.001
G01 X83.727 Y75.236
G03 X89.427 Y80.936 I-0.017 J5.717
G01 X89.427 Y111.791
X100.027 Y111.791
X101.027 Y112.791
X101.027 Y30.191
X88.427 Y30.191
X88.427 Y62.046
G03 X83.726 Y66.745 I-4.722 J-0.023
G01 X61.727 Y66.745
G03 X57.027 Y62.045 I0.012 J-4.712
G01 X57.027 Y30.191
X44.427 Y30.191
X44.427 Y112.791
X57.027 Y112.791
X57.027 Y80.936
G03 X61.726 Y76.236 I4.702 J0.002
G01 X83.727 Y76.236
G03 X88.427 Y80.936 I-0.016 J4.716
G01 X88.427 Y112.791
X101.027 Y112.791
X102.027 Y113.791
X102.027 Y29.191
X87.427 Y29.191
X87.427 Y62.046
G03 X83.726 Y65.745 I-3.716 J-0.017
G01 X61.727 Y65.745
G03 X58.027 Y62.046 I0.009 J-3.709
G01 X58.027 Y29.191
X43.427 Y29.191
X43.427 Y113.791
X58.027 Y113.791
X58.027 Y80.936
G03 X61.726 Y77.236 I3.702 J0.002
G01 X83.727 Y77.236
G03 X87.427 Y80.936 I-0.011 J3.711
G01 X87.427 Y113.791
X102.027 Y113.791
X103.027 Y114.791
X103.027 Y28.191
X86.427 Y28.191
X86.427 Y62.046
G03 X83.727 Y64.746 I-2.708 J-0.008
G01 X61.727 Y64.746
G03 X59.027 Y62.046 I0.004 J-2.704
G01 X59.027 Y28.191
X42.427 Y28.191
X42.427 Y114.791
X59.027 Y114.791
X59.027 Y80.936
G03 X61.726 Y78.236 I2.701 J0.001
G01 X83.727 Y78.236
G03 X86.427 Y80.936 I-0.004 J2.704
G01 X86.427 Y114.791
X103.027 Y114.791
X104.027 Y115.791
X104.027 Y27.191
X85.427 Y27.191
X85.427 Y62.046
G03 X83.727 Y63.746 I-1.7 J0
G01 X61.727 Y63.746
G03 X60.027 Y62.046 I-0.001 J-1.698
G01 X60.027 Y27.191
X41.427 Y27.191
X41.427 Y115.791
X60.027 Y115.791
X60.027 Y80.936
G03 X61.727 Y79.236 I1.696 J-0.003
G01 X83.727 Y79.236
G03 X85.427 Y80.936 I0.001 J1.698
G01 X85.427 Y115.791
X104.027 Y115.791
G00 Z5
X52.427 Y70.66
Z10
G01 Z7
X52.427 Y72.298
G03 X53.264 Y71.48 I6.289 J5.598
X52.427 Y70.66 I5.445 J-6.395
G01 X51.427 Y67.571
X51.427 Y75.387
G03 X54.85 Y71.482 I10.144 J5.439
X51.427 Y67.571 I6.765 J-9.374
G01 X51.027 Y106.791
X51.027 Y80.936
G03 X56.724 Y71.484 I10.675 J-0.008
X51.027 Y62.04 I5.002 J-9.458
G01 X51.027 Y36.191
X50.427 Y36.191
X50.427 Y106.791
X51.027 Y106.791
X52.027 Y107.791
X52.027 Y80.936
G03 X59.572 Y71.487 I9.683 J-0.004
X52.027 Y62.041 I2.16 J-9.461
G01 X52.027 Y35.191
X49.427 Y35.191
X49.427 Y107.791
X52.027 Y107.791
G00 Z5
X93.027 Y72.319
Z10
G01 Z7
X93.027 Y70.639
G03 X92.168 Y71.478 I-6.493 J-5.789
X93.027 Y72.319 I-5.437 J6.413
G01 X94.027 Y75.412
X94.027 Y67.541
G03 X90.583 Y71.48 I-10.181 J-5.426
X94.027 Y75.412 I-6.758 J9.393
G01 X95.027 Y106.791
X95.027 Y36.191
X94.427 Y36.191
X94.427 Y62.046
G03 X88.71 Y71.483 I-10.738 J-0.055
X94.427 Y80.936 I-4.991 J9.473
G01 X94.427 Y106.791
X95.027 Y106.791
X96.027 Y107.791
X96.027 Y35.191
X93.427 Y35.191
X93.427 Y62.046
G03 X85.863 Y71.487 I-9.737 J-0.05
X93.427 Y80.936 I-2.145 J9.469
G01 X93.427 Y107.791
X96.027 Y107.791
X97.027 Y108.791
X97.027 Y34.191
X92.427 Y34.191
X92.427 Y62.046
G03 X83.724 Y70.745 I-8.748 J-0.049
G01 X61.727 Y70.745
G03 X53.027 Y62.041 I0.024 J-8.724
G01 X53.027 Y34.191
X48.427 Y34.191
X48.427 Y108.791
X53.027 Y108.791
X53.027 Y80.936
G03 X61.724 Y72.236 I8.702 J0.002
G01 X83.727 Y72.236
G03 X92.427 Y80.936 I-0.023 J8.723
G01 X92.427 Y108.791
X97.027 Y108.791
X98.027 Y109.791
X98.027 Y33.191
X91.427 Y33.191
X91.427 Y62.046
G03 X83.725 Y69.745 I-7.741 J-0.042
G01 X61.727 Y69.745
G03 X54.027 Y62.042 I0.02 J-7.72
G01 X54.027 Y33.191
X47.427 Y33.191
X47.427 Y109.791
X54.027 Y109.791
X54.027 Y80.936
G03 X61.725 Y73.236 I7.702 J0.002
G01 X83.727 Y73.236
G03 X91.427 Y80.936 I-0.022 J7.722
G01 X91.427 Y109.791
X98.027 Y109.791
X99.027 Y110.791
X99.027 Y32.191
X90.427 Y32.191
X90.427 Y62.046
G03 X83.726 Y68.745 I-6.735 J-0.036
G01 X61.727 Y68.745
G03 X55.027 Y62.043 I0.016 J-6.716
G01 X55.027 Y32.191
X46.427 Y32.191
X46.427 Y110.791
X55.027 Y110.791
X55.027 Y80.936
G03 X61.725 Y74.236 I6.701 J0.001
G01 X83.727 Y74.236
G03 X90.427 Y80.936 I-0.02 J6.72
G01 X90.427 Y110.791
X99.027 Y110.791
X100.027 Y111.791
X100.027 Y31.191
X89.427 Y31.191
X89.427 Y62.046
G03 X83.726 Y67.745 I-5.73 J-0.031
G01 X61.727 Y67.745
G03 X56.027 Y62.044 I0.013 J-5.713
G01 X56.027 Y31.191
X45.427 Y31.191
X45.427 Y111.791
X56.027 Y111.791
X56.027 Y80.936
G03 X61.725 Y75.236 I5.701 J0.001
G01 X83.727 Y75.236
G03 X89.427 Y80.936 I-0.017 J5.717
G01 X89.427 Y111.791
X100.027 Y111.791
X101.027 Y112.791
X101.027 Y30.191
X88.427 Y30.191
X88.427 Y62.046
G03 X83.726 Y66.745 I-4.722 J-0.023
G01 X61.727 Y66.745
G03 X57.027 Y62.045 I0.012 J-4.712
G01 X57.027 Y30.191
X44.427 Y30.191
X44.427 Y112.791
X57.027 Y112.791
X57.027 Y80.936
G03 X61.726 Y76.236 I4.702 J0.002
G01 X83.727 Y76.236
G03 X88.427 Y80.936 I-0.016 J4.716
G01 X88.427 Y112.791
X101.027 Y112.791
X102.027 Y113.791
X102.027 Y29.191
X87.427 Y29.191
X87.427 Y62.046
G03 X83.726 Y65.745 I-3.716 J-0.017
G01 X61.727 Y65.745
G03 X58.027 Y62.046 I0.009 J-3.709
G01 X58.027 Y29.191
X43.427 Y29.191
X43.427 Y113.791
X58.027 Y113.791
X58.027 Y80.936
G03 X61.726 Y77.236 I3.702 J0.002
G01 X83.727 Y77.236
G03 X87.427 Y80.936 I-0.011 J3.711
G01 X87.427 Y113.791
X102.027 Y113.791
X103.027 Y114.791
X103.027 Y28.191
X86.427 Y28.191
X86.427 Y62.046
G03 X83.727 Y64.746 I-2.708 J-0.008
G01 X61.727 Y64.746
G03 X59.027 Y62.046 I0.004 J-2.704
G01 X59.027 Y28.191
X42.427 Y28.191
X42.427 Y114.791
X59.027 Y114.791
X59.027 Y80.936
G03 X61.726 Y78.236 I2.701 J0.001
G01 X83.727 Y78.236
G03 X86.427 Y80.936 I-0.004 J2.704
G01 X86.427 Y114.791
X103.027 Y114.791
X104.027 Y115.791
X104.027 Y27.191
X85.427 Y27.191
X85.427 Y62.046
G03 X83.727 Y63.746 I-1.7 J0
G01 X61.727 Y63.746
G03 X60.027 Y62.046 I-0.001 J-1.698
G01 X60.027 Y27.191
X41.427 Y27.191
X41.427 Y115.791
X60.027 Y115.791
X60.027 Y80.936
G03 X61.727 Y79.236 I1.696 J-0.003
G01 X83.727 Y79.236
G03 X85.427 Y80.936 I0.001 J1.698
G01 X85.427 Y115.791
X104.027 Y115.791
G00 Z5
X52.427 Y70.66
Z9
G01 Z6
X52.427 Y72.298
G03 X53.264 Y71.48 I6.289 J5.598
X52.427 Y70.66 I5.445 J-6.395
G01 X51.427 Y67.571
X51.427 Y75.387
G03 X54.85 Y71.482 I10.144 J5.439
X51.427 Y67.571 I6.765 J-9.374
G01 X51.027 Y106.791
X51.027 Y80.936
G03 X56.724 Y71.484 I10.675 J-0.008
X51.027 Y62.04 I5.002 J-9.458
G01 X51.027 Y36.191
X50.427 Y36.191
X50.427 Y106.791
X51.027 Y106.791
X52.027 Y107.791
X52.027 Y80.936
G03 X59.572 Y71.487 I9.683 J-0.004
X52.027 Y62.041 I2.16 J-9.461
G01 X52.027 Y35.191
X49.427 Y35.191
X49.427 Y107.791
X52.027 Y107.791
G00 Z5
X93.027 Y72.319
Z9
G01 Z6
X93.027 Y70.639
G03 X92.168 Y71.478 I-6.493 J-5.789
X93.027 Y72.319 I-5.437 J6.413
G01 X94.027 Y75.412
X94.027 Y67.541
G03 X90.583 Y71.48 I-10.181 J-5.426
X94.027 Y75.412 I-6.758 J9.393
G01 X95.027 Y106.791
X95.027 Y36.191
X94.427 Y36.191
X94.427 Y62.046
G03 X88.71 Y71.483 I-10.738 J-0.055
X94.427 Y80.936 I-4.991 J9.473
G01 X94.427 Y106.791
X95.027 Y106.791
X96.027 Y107.791
X96.027 Y35.191
X93.427 Y35.191
X93.427 Y62.046
G03 X85.863 Y71.487 I-9.737 J-0.05
X93.427 Y80.936 I-2.145 J9.469
G01 X93.427 Y107.791
X96.027 Y107.791
X97.027 Y108.791
X97.027 Y34.191
X92.427 Y34.191
X92.427 Y62.046
G03 X83.724 Y70.745 I-8.748 J-0.049
G01 X61.727 Y70.745
G03 X53.027 Y62.041 I0.024 J-8.724
G01 X53.027 Y34.191
X48.427 Y34.191
X48.427 Y108.791
X53.027 Y108.791
X53.027 Y80.936
G03 X61.724 Y72.236 I8.702 J0.002
G01 X83.727 Y72.236
G03 X92.427 Y80.936 I-0.023 J8.723
G01 X92.427 Y108.791
X97.027 Y108.791
X98.027 Y109.791
X98.027 Y33.191
X91.427 Y33.191
X91.427 Y62.046
G03 X83.725 Y69.745 I-7.741 J-0.042
G01 X61.727 Y69.745
G03 X54.027 Y62.042 I0.02 J-7.72
G01 X54.027 Y33.191
X47.427 Y33.191
X47.427 Y109.791
X54.027 Y109.791
X54.027 Y80.936
G03 X61.725 Y73.236 I7.702 J0.002
G01 X83.727 Y73.236
G03 X91.427 Y80.936 I-0.022 J7.722
G01 X91.427 Y109.791
X98.027 Y109.791
X99.027 Y110.791
X99.027 Y32.191
X90.427 Y32.191
X90.427 Y62.046
G03 X83.726 Y68.745 I-6.735 J-0.036
G01 X61.727 Y68.745
G03 X55.027 Y62.043 I0.016 J-6.716
G01 X55.027 Y32.191
X46.427 Y32.191
X46.427 Y110.791
X55.027 Y110.791
X55.027 Y80.936
G03 X61.725 Y74.236 I6.701 J0.001
G01 X83.727 Y74.236
G03 X90.427 Y80.936 I-0.02 J6.72
G01 X90.427 Y110.791
X99.027 Y110.791
X100.027 Y111.791
X100.027 Y31.191
X89.427 Y31.191
X89.427 Y62.046
G03 X83.726 Y67.745 I-5.73 J-0.031
G01 X61.727 Y67.745
G03 X56.027 Y62.044 I0.013 J-5.713
G01 X56.027 Y31.191
X45.427 Y31.191
X45.427 Y111.791
X56.027 Y111.791
X56.027 Y80.936
G03 X61.725 Y75.236 I5.701 J0.001
G01 X83.727 Y75.236
G03 X89.427 Y80.936 I-0.017 J5.717
G01 X89.427 Y111.791
X100.027 Y111.791
X101.027 Y112.791
X101.027 Y30.191
X88.427 Y30.191
X88.427 Y62.046
G03 X83.726 Y66.745 I-4.722 J-0.023
G01 X61.727 Y66.745
G03 X57.027 Y62.045 I0.012 J-4.712
G01 X57.027 Y30.191
X44.427 Y30.191
X44.427 Y112.791
X57.027 Y112.791
X57.027 Y80.936
G03 X61.726 Y76.236 I4.702 J0.002
G01 X83.727 Y76.236
G03 X88.427 Y80.936 I-0.016 J4.716
G01 X88.427 Y112.791
X101.027 Y112.791
X102.027 Y113.791
X102.027 Y29.191
X87.427 Y29.191
X87.427 Y62.046
G03 X83.726 Y65.745 I-3.716 J-0.017
G01 X61.727 Y65.745
G03 X58.027 Y62.046 I0.009 J-3.709
G01 X58.027 Y29.191
X43.427 Y29.191
X43.427 Y113.791
X58.027 Y113.791
X58.027 Y80.936
G03 X61.726 Y77.236 I3.702 J0.002
G01 X83.727 Y77.236
G03 X87.427 Y80.936 I-0.011 J3.711
G01 X87.427 Y113.791
X102.027 Y113.791
X103.027 Y114.791
X103.027 Y28.191
X86.427 Y28.191
X86.427 Y62.046
G03 X83.727 Y64.746 I-2.708 J-0.008
G01 X61.727 Y64.746
G03 X59.027 Y62.046 I0.004 J-2.704
G01 X59.027 Y28.191
X42.427 Y28.191
X42.427 Y114.791
X59.027 Y114.791
X59.027 Y80.936
G03 X61.726 Y78.236 I2.701 J0.001
G01 X83.727 Y78.236
G03 X86.427 Y80.936 I-0.004 J2.704
G01 X86.427 Y114.791
X103.027 Y114.791
X104.027 Y115.791
X104.027 Y27.191
X85.427 Y27.191
X85.427 Y62.046
G03 X83.727 Y63.746 I-1.7 J0
G01 X61.727 Y63.746
G03 X60.027 Y62.046 I-0.001 J-1.698
G01 X60.027 Y27.191
X41.427 Y27.191
X41.427 Y115.791
X60.027 Y115.791
X60.027 Y80.936
G03 X61.727 Y79.236 I1.696 J-0.003
G01 X83.727 Y79.236
G03 X85.427 Y80.936 I0.001 J1.698
G01 X85.427 Y115.791
X104.027 Y115.791
G00 Z5
X52.427 Y70.66
Z8
G01 Z5
X52.427 Y72.298
G03 X53.264 Y71.48 I6.289 J5.598
X52.427 Y70.66 I5.445 J-6.395
G01 X51.427 Y67.571
X51.427 Y75.387
G03 X54.85 Y71.482 I10.144 J5.439
X51.427 Y67.571 I6.765 J-9.374
G01 X51.027 Y106.791
X51.027 Y80.936
G03 X56.724 Y71.484 I10.675 J-0.008
X51.027 Y62.04 I5.002 J-9.458
G01 X51.027 Y36.191
X50.427 Y36.191
X50.427 Y106.791
X51.027 Y106.791
X52.027 Y107.791
X52.027 Y80.936
G03 X59.572 Y71.487 I9.683 J-0.004
X52.027 Y62.041 I2.16 J-9.461
G01 X52.027 Y35.191
X49.427 Y35.191
X49.427 Y107.791
X52.027 Y107.791
G00 X93.027 Y72.319
Z8
G01 Z5
X93.027 Y70.639
G03 X92.168 Y71.478 I-6.493 J-5.789
X93.027 Y72.319 I-5.437 J6.413
G01 X94.027 Y75.412
X94.027 Y67.541
G03 X90.583 Y71.48 I-10.181 J-5.426
X94.027 Y75.412 I-6.758 J9.393
G01 X95.027 Y106.791
X95.027 Y36.191
X94.427 Y36.191
X94.427 Y62.046
G03 X88.71 Y71.483 I-10.738 J-0.055
X94.427 Y80.936 I-4.991 J9.473
G01 X94.427 Y106.791
X95.027 Y106.791
X96.027 Y107.791
X96.027 Y35.191
X93.427 Y35.191
X93.427 Y62.046
G03 X85.863 Y71.487 I-9.737 J-0.05
X93.427 Y80.936 I-2.145 J9.469
G01 X93.427 Y107.791
X96.027 Y107.791
X97.027 Y108.791
X97.027 Y34.191
X92.427 Y34.191
X92.427 Y62.046
G03 X83.724 Y70.745 I-8.748 J-0.049
G01 X61.727 Y70.745
G03 X53.027 Y62.041 I0.024 J-8.724
G01 X53.027 Y34.191
X48.427 Y34.191
X48.427 Y108.791
X53.027 Y108.791
X53.027 Y80.936
G03 X61.724 Y72.236 I8.702 J0.002
G01 X83.727 Y72.236
G03 X92.427 Y80.936 I-0.023 J8.723
G01 X92.427 Y108.791
X97.027 Y108.791
X98.027 Y109.791
X98.027 Y33.191
X91.427 Y33.191
X91.427 Y62.046
G03 X83.725 Y69.745 I-7.741 J-0.042
G01 X61.727 Y69.745
G03 X54.027 Y62.042 I0.02 J-7.72
G01 X54.027 Y33.191
X47.427 Y33.191
X47.427 Y109.791
X54.027 Y109.791
X54.027 Y80.936
G03 X61.725 Y73.236 I7.702 J0.002
G01 X83.727 Y73.236
G03 X91.427 Y80.936 I-0.022 J7.722
G01 X91.427 Y109.791
X98.027 Y109.791
X99.027 Y110.791
X99.027 Y32.191
X90.427 Y32.191
X90.427 Y62.046
G03 X83.726 Y68.745 I-6.735 J-0.036
G01 X61.727 Y68.745
G03 X55.027 Y62.043 I0.016 J-6.716
G01 X55.027 Y32.191
X46.427 Y32.191
X46.427 Y110.791
X55.027 Y110.791
X55.027 Y80.936
G03 X61.725 Y74.236 I6.701 J0.001
G01 X83.727 Y74.236
G03 X90.427 Y80.936 I-0.02 J6.72
G01 X90.427 Y110.791
X99.027 Y110.791
X100.027 Y111.791
X100.027 Y31.191
X89.427 Y31.191
X89.427 Y62.046
G03 X83.726 Y67.745 I-5.73 J-0.031
G01 X61.727 Y67.745
G03 X56.027 Y62.044 I0.013 J-5.713
G01 X56.027 Y31.191
X45.427 Y31.191
X45.427 Y111.791
X56.027 Y111.791
X56.027 Y80.936
G03 X61.725 Y75.236 I5.701 J0.001
G01 X83.727 Y75.236
G03 X89.427 Y80.936 I-0.017 J5.717
G01 X89.427 Y111.791
X100.027 Y111.791
X101.027 Y112.791
X101.027 Y30.191
X88.427 Y30.191
X88.427 Y62.046
G03 X83.726 Y66.745 I-4.722 J-0.023
G01 X61.727 Y66.745
G03 X57.027 Y62.045 I0.012 J-4.712
G01 X57.027 Y30.191
X44.427 Y30.191
X44.427 Y112.791
X57.027 Y112.791
X57.027 Y80.936
G03 X61.726 Y76.236 I4.702 J0.002
G01 X83.727 Y76.236
G03 X88.427 Y80.936 I-0.016 J4.716
G01 X88.427 Y112.791
X101.027 Y112.791
X102.027 Y113.791
X102.027 Y29.191
X87.427 Y29.191
X87.427 Y62.046
G03 X83.726 Y65.745 I-3.716 J-0.017
G01 X61.727 Y65.745
G03 X58.027 Y62.046 I0.009 J-3.709
G01 X58.027 Y29.191
X43.427 Y29.191
X43.427 Y113.791
X58.027 Y113.791
X58.027 Y80.936
G03 X61.726 Y77.236 I3.702 J0.002
G01 X83.727 Y77.236
G03 X87.427 Y80.936 I-0.011 J3.711
G01 X87.427 Y113.791
X102.027 Y113.791
X103.027 Y114.791
X103.027 Y28.191
X86.427 Y28.191
X86.427 Y62.046
G03 X83.727 Y64.746 I-2.708 J-0.008
G01 X61.727 Y64.746
G03 X59.027 Y62.046 I0.004 J-2.704
G01 X59.027 Y28.191
X42.427 Y28.191
X42.427 Y114.791
X59.027 Y114.791
X59.027 Y80.936
G03 X61.726 Y78.236 I2.701 J0.001
G01 X83.727 Y78.236
G03 X86.427 Y80.936 I-0.004 J2.704
G01 X86.427 Y114.791
X103.027 Y114.791
X104.027 Y115.791
X104.027 Y27.191
X85.427 Y27.191
X85.427 Y62.046
G03 X83.727 Y63.746 I-1.7 J0
G01 X61.727 Y63.746
G03 X60.027 Y62.046 I-0.001 J-1.698
G01 X60.027 Y27.191
X41.427 Y27.191
X41.427 Y115.791
X60.027 Y115.791
X60.027 Y80.936
G03 X61.727 Y79.236 I1.696 J-0.003
G01 X83.727 Y79.236
G03 X85.427 Y80.936 I0.001 J1.698
G01 X85.427 Y115.791
X104.027 Y115.791
T0 M06 M02
