%
(1)
(T1  D=2 CR=0 - ZMIN=0 - flat end mill)
G90 G94
G17
G21
G28 G91 Z0
G90

(2D Contour1)
M9
T1 M6
S17507 M3
G54
M8
G0 X41.397 Y163.041
Z19
Z9
G1 Z6 F200
Z3.2
G19 G2 Y162.841 Z3 J-0.2
G1 Y162.641
G17 G3 X41.597 Y162.441 I0.2
G1 X157.666 F400
Y162.7
G2 X158.666 Y163.7 I1
G1 X219.4
G2 X220.4 Y162.7 J-1
G1 Y157.7
X229.4
G2 X230.078 Y157.435 J-1
X240.925 Y138.315 I-24.449 J-26.507
G3 X252.903 Y129.414 I11.654 J3.172
G2 X253.525 Y129.218 I0.027 J-1
X252.84 Y121.682 I-2.635 J-3.559
X252.4 Y121.58 I-0.44 J0.898
G1 X247.605
G3 X235.333 Y103.061 I0.425 J-13.607
G1 X251.923 Y60.182
G2 X254.362 Y31.598 I-36.699 J-17.529
X253.4 Y30.869 I-0.962 J0.272
G1 X196.715
G2 X195.747 Y31.62 J1
G1 X195.432 Y32.842
G2 X195.4 Y33.091 I0.968 J0.25
G1 Y44.573
X178.432 Y110.451
G2 X178.411 Y110.552 I0.968 J0.249
G3 X169.307 Y120.061 I-11.28 J-1.687
G1 X121.727
G2 X121.006 Y120.368 J1
G3 X104.317 Y129.2 I-21.769 J-20.95
G1 X57.825
G2 X56.825 Y130.2 J1
G1 Y137.357
X41.597
G2 X40.597 Y138.357 J1
G1 Y161.441
G2 X41.597 Y162.441 I1
G3 X41.797 Y162.641 J0.2 F200
G1 Y162.841
G19 G3 Y163.041 Z3.2 K0.2
G1 X41.397
Z2.2
G2 Y162.841 Z2 J-0.2
G1 Y162.641
G17 G3 X41.597 Y162.441 I0.2
G1 X157.666 F400
Y162.7
G2 X158.666 Y163.7 I1
G1 X219.4
G2 X220.4 Y162.7 J-1
G1 Y157.7
X229.4
G2 X230.078 Y157.435 J-1
X240.925 Y138.315 I-24.449 J-26.507
G3 X252.903 Y129.414 I11.654 J3.172
G2 X253.525 Y129.218 I0.027 J-1
X252.84 Y121.682 I-2.635 J-3.559
X252.4 Y121.58 I-0.44 J0.898
G1 X247.605
G3 X235.333 Y103.061 I0.425 J-13.607
G1 X251.923 Y60.182
G2 X254.362 Y31.598 I-36.699 J-17.529
X253.4 Y30.869 I-0.962 J0.272
G1 X196.715
G2 X195.747 Y31.62 J1
G1 X195.432 Y32.842
G2 X195.4 Y33.091 I0.968 J0.25
G1 Y44.573
X178.432 Y110.451
G2 X178.411 Y110.552 I0.968 J0.249
G3 X169.307 Y120.061 I-11.28 J-1.687
G1 X121.727
G2 X121.006 Y120.368 J1
G3 X104.317 Y129.2 I-21.769 J-20.95
G1 X57.825
G2 X56.825 Y130.2 J1
G1 Y137.357
X41.597
G2 X40.597 Y138.357 J1
G1 Y161.441
G2 X41.597 Y162.441 I1
G3 X41.797 Y162.641 J0.2 F200
G1 Y162.841
G19 G3 Y163.041 Z2.2 K0.2
G1 X41.397
Z1.2
G2 Y162.841 Z1 J-0.2
G1 Y162.641
G17 G3 X41.597 Y162.441 I0.2
G1 X157.666 F400
Y162.7
G2 X158.666 Y163.7 I1
G1 X219.4
G2 X220.4 Y162.7 J-1
G1 Y157.7
X229.4
G2 X230.078 Y157.435 J-1
X240.925 Y138.315 I-24.449 J-26.507
G3 X252.903 Y129.414 I11.654 J3.172
G2 X253.525 Y129.218 I0.027 J-1
X252.84 Y121.682 I-2.635 J-3.559
X252.4 Y121.58 I-0.44 J0.898
G1 X247.605
G3 X235.333 Y103.061 I0.425 J-13.607
G1 X251.923 Y60.182
G2 X254.362 Y31.598 I-36.699 J-17.529
X253.4 Y30.869 I-0.962 J0.272
G1 X196.715
G2 X195.747 Y31.62 J1
G1 X195.432 Y32.842
G2 X195.4 Y33.091 I0.968 J0.25
G1 Y44.573
X178.432 Y110.451
G2 X178.411 Y110.552 I0.968 J0.249
G3 X169.307 Y120.061 I-11.28 J-1.687
G1 X121.727
G2 X121.006 Y120.368 J1
G3 X104.317 Y129.2 I-21.769 J-20.95
G1 X57.825
G2 X56.825 Y130.2 J1
G1 Y137.357
X41.597
G2 X40.597 Y138.357 J1
G1 Y161.441
G2 X41.597 Y162.441 I1
G3 X41.797 Y162.641 J0.2 F200
G1 Y162.841
G19 G3 Y163.041 Z1.2 K0.2
G1 X41.397
Z0.2
G2 Y162.841 Z0 J-0.2
G1 Y162.641
G17 G3 X41.597 Y162.441 I0.2
G1 X157.666 F400
Y162.7
G2 X158.666 Y163.7 I1
G1 X219.4
G2 X220.4 Y162.7 J-1
G1 Y157.7
X229.4
G2 X230.078 Y157.435 J-1
X240.925 Y138.315 I-24.449 J-26.507
G3 X252.903 Y129.414 I11.654 J3.172
G2 X253.525 Y129.218 I0.027 J-1
X252.84 Y121.682 I-2.635 J-3.559
X252.4 Y121.58 I-0.44 J0.898
G1 X247.605
G3 X235.333 Y103.061 I0.425 J-13.607
G1 X251.923 Y60.182
G2 X254.362 Y31.598 I-36.699 J-17.529
X253.4 Y30.869 I-0.962 J0.272
G1 X196.715
G2 X195.747 Y31.62 J1
G1 X195.432 Y32.842
G2 X195.4 Y33.091 I0.968 J0.25
G1 Y44.573
X178.432 Y110.451
G2 X178.411 Y110.552 I0.968 J0.249
G3 X169.307 Y120.061 I-11.28 J-1.687
G1 X121.727
G2 X121.006 Y120.368 J1
G3 X104.317 Y129.2 I-21.769 J-20.95
G1 X57.825
G2 X56.825 Y130.2 J1
G1 Y137.357
X41.597
G2 X40.597 Y138.357 J1
G1 Y161.441
G2 X41.597 Y162.441 I1
G3 X41.797 Y162.641 J0.2 F200
G1 Y162.841
G19 G3 Y163.041 Z0.2 K0.2
G0 Z9
X164.091 Y131.191
G1 Z6 F200
Z3.2
G18 G2 X164.291 Z3 I0.2
G1 X164.491
G17 G3 X164.691 Y131.391 J0.2
X162.691 I-1 F400
X164.691 I1
X164.491 Y131.591 I-0.2 F200
G1 X164.291
G18 G3 X164.091 Z3.2 K0.2
G1 Y131.191
Z2.2
G2 X164.291 Z2 I0.2
G1 X164.491
G17 G3 X164.691 Y131.391 J0.2
X162.691 I-1 F400
X164.691 I1
X164.491 Y131.591 I-0.2 F200
G1 X164.291
G18 G3 X164.091 Z2.2 K0.2
G1 Y131.191
Z1.2
G2 X164.291 Z1 I0.2
G1 X164.491
G17 G3 X164.691 Y131.391 J0.2
X162.691 I-1 F400
X164.691 I1
X164.491 Y131.591 I-0.2 F200
G1 X164.291
G18 G3 X164.091 Z1.2 K0.2
G1 Y131.191
Z0.2
G2 X164.291 Z0 I0.2
G1 X164.491
G17 G3 X164.691 Y131.391 J0.2
X162.691 I-1 F400
X164.691 I1
X164.491 Y131.591 I-0.2 F200
G1 X164.291
G18 G3 X164.091 Z0.2 K0.2
G0 Z9
X201.95 Y123.369
G1 Z6 F200
Z3.2
G2 X202.15 Z3 I0.2
G1 X202.35
G17 G3 X202.55 Y123.569 J0.2
X200.55 I-1 F400
X202.55 I1
X202.35 Y123.769 I-0.2 F200
G1 X202.15
G18 G3 X201.95 Z3.2 K0.2
G1 Y123.369
Z2.2
G2 X202.15 Z2 I0.2
G1 X202.35
G17 G3 X202.55 Y123.569 J0.2
X200.55 I-1 F400
X202.55 I1
X202.35 Y123.769 I-0.2 F200
G1 X202.15
G18 G3 X201.95 Z2.2 K0.2
G1 Y123.369
Z1.2
G2 X202.15 Z1 I0.2
G1 X202.35
G17 G3 X202.55 Y123.569 J0.2
X200.55 I-1 F400
X202.55 I1
X202.35 Y123.769 I-0.2 F200
G1 X202.15
G18 G3 X201.95 Z1.2 K0.2
G1 Y123.369
Z0.2
G2 X202.15 Z0 I0.2
G1 X202.35
G17 G3 X202.55 Y123.569 J0.2
X200.55 I-1 F400
X202.55 I1
X202.35 Y123.769 I-0.2 F200
G1 X202.15
G18 G3 X201.95 Z0.2 K0.2
G0 Z9
X221.94 Y102.299
G1 Z6 F200
Z3.2
X221.947 Y102.301 Z3.148
X221.966 Y102.306 Z3.1
X221.997 Y102.314 Z3.059
X222.037 Y102.324 Z3.027
X222.084 Y102.336 Z3.007
X222.134 Y102.349 Z3
X222.328 Y102.399
G17 G3 X222.472 Y102.642 I-0.05 J0.194
G1 X220.993 Y108.383 F400
X186.614 Y98.995
X189.422 Y88.096
X223.929 Y96.984
X222.472 Y102.642
G3 X222.228 Y102.786 I-0.194 J-0.05 F200
G1 X222.034 Y102.736
X221.984 Y102.723 Z3.007
X221.937 Y102.711 Z3.027
X221.897 Y102.701 Z3.059
X221.867 Y102.693 Z3.1
X221.847 Y102.688 Z3.148
X221.841 Y102.686 Z3.2
X221.94 Y102.299
Z2.2
X221.947 Y102.301 Z2.148
X221.966 Y102.306 Z2.1
X221.997 Y102.314 Z2.059
X222.037 Y102.324 Z2.027
X222.084 Y102.336 Z2.007
X222.134 Y102.349 Z2
X222.328 Y102.399
G3 X222.472 Y102.642 I-0.05 J0.194
G1 X220.993 Y108.383 F400
X186.614 Y98.995
X189.422 Y88.096
X223.929 Y96.984
X222.472 Y102.642
G3 X222.228 Y102.786 I-0.194 J-0.05 F200
G1 X222.034 Y102.736
X221.984 Y102.723 Z2.007
X221.937 Y102.711 Z2.027
X221.897 Y102.701 Z2.059
X221.867 Y102.693 Z2.1
X221.847 Y102.688 Z2.148
X221.841 Y102.686 Z2.2
X221.94 Y102.299
Z1.2
X221.947 Y102.301 Z1.148
X221.966 Y102.306 Z1.1
X221.997 Y102.314 Z1.059
X222.037 Y102.324 Z1.027
X222.084 Y102.336 Z1.007
X222.134 Y102.349 Z1
X222.328 Y102.399
G3 X222.472 Y102.642 I-0.05 J0.194
G1 X220.993 Y108.383 F400
X186.614 Y98.995
X189.422 Y88.096
X223.929 Y96.984
X222.472 Y102.642
G3 X222.228 Y102.786 I-0.194 J-0.05 F200
G1 X222.034 Y102.736
X221.984 Y102.723 Z1.007
X221.937 Y102.711 Z1.027
X221.897 Y102.701 Z1.059
X221.867 Y102.693 Z1.1
X221.847 Y102.688 Z1.148
X221.841 Y102.686 Z1.2
X221.94 Y102.299
Z0.2
X221.947 Y102.301 Z0.148
X221.966 Y102.306 Z0.1
X221.997 Y102.314 Z0.059
X222.037 Y102.324 Z0.027
X222.084 Y102.336 Z0.007
X222.134 Y102.349 Z0
X222.328 Y102.399
G3 X222.472 Y102.642 I-0.05 J0.194
G1 X220.993 Y108.383 F400
X186.614 Y98.995
X189.422 Y88.096
X223.929 Y96.984
X222.472 Y102.642
G3 X222.228 Y102.786 I-0.194 J-0.05 F200
G1 X222.034 Y102.736
X221.984 Y102.723 Z0.007
X221.937 Y102.711 Z0.027
X221.897 Y102.701 Z0.059
X221.867 Y102.693 Z0.1
X221.847 Y102.688 Z0.148
X221.841 Y102.686 Z0.2
G0 Z9
X213.539 Y156.361
G1 Z6 F200
Z3.2
G18 G2 X213.739 Z3 I0.2
G1 X213.939
G17 G3 X214.139 Y156.561 J0.2
X212.139 I-1 F400
X214.139 I1
X213.939 Y156.761 I-0.2 F200
G1 X213.739
G18 G3 X213.539 Z3.2 K0.2
G1 Y156.361
Z2.2
G2 X213.739 Z2 I0.2
G1 X213.939
G17 G3 X214.139 Y156.561 J0.2
X212.139 I-1 F400
X214.139 I1
X213.939 Y156.761 I-0.2 F200
G1 X213.739
G18 G3 X213.539 Z2.2 K0.2
G1 Y156.361
Z1.2
G2 X213.739 Z1 I0.2
G1 X213.939
G17 G3 X214.139 Y156.561 J0.2
X212.139 I-1 F400
X214.139 I1
X213.939 Y156.761 I-0.2 F200
G1 X213.739
G18 G3 X213.539 Z1.2 K0.2
G1 Y156.361
Z0.2
G2 X213.739 Z0 I0.2
G1 X213.939
G17 G3 X214.139 Y156.561 J0.2
X212.139 I-1 F400
X214.139 I1
X213.939 Y156.761 I-0.2 F200
G1 X213.739
G18 G3 X213.539 Z0.2 K0.2
G0 Z19
G17
M9
G28 G91 Z0
G28 X0 Y0
M30
%
