%
(1)
(T3  D=2.6 CR=0 - ZMIN=0 - flat end mill)
G90 G94
G17
G21
G28 G91 Z0
G90

(2D Contour1)
M9
T3 M6
S5000 M3
G54
M8
G0 X41.337 Y163.521
Z19
Z9
G1 Z6 F200
Z3.26 F333.3
G19 G2 Y163.261 Z3 J-0.26
G1 Y163.001 F200
G17 G3 X41.597 Y162.741 I0.26
G1 X157.367 F400
G2 X158.666 Y164 I1.299 J-0.041
G1 X219.4
G2 X220.7 Y162.7 J-1.3
G1 Y158
X229.4
G2 X230.281 Y157.656 J-1.3
X241.217 Y138.385 I-24.652 J-26.728
G3 X252.895 Y129.714 I11.362 J3.103
G2 X253.703 Y129.459 I0.035 J-1.3
X252.973 Y121.413 I-2.813 J-3.801
X252.4 Y121.28 I-0.573 J1.167
G1 X247.61
G3 X235.612 Y103.169 I0.42 J-13.307
G1 X252.198 Y60.301
G2 X254.651 Y31.516 I-36.974 J-17.648
X253.4 Y30.569 I-1.251 J0.353
G1 X196.715
G2 X195.456 Y31.545 J1.3
G1 X195.141 Y32.767
G2 X195.1 Y33.091 I1.259 J0.325
G1 Y44.535
X178.141 Y110.376
G2 X178.114 Y110.508 I1.259 J0.324
G3 X169.277 Y119.761 I-10.983 J-1.643
G1 X121.727
G2 X120.79 Y120.16 J1.3
G3 X104.292 Y128.9 I-21.553 J-20.742
G1 X57.825
G2 X56.525 Y130.2 J1.3
G1 Y137.057
X41.597
G2 X40.297 Y138.357 J1.3
G1 Y161.441
G2 X41.597 Y162.741 I1.3
G3 X41.857 Y163.001 J0.26 F200
G1 Y163.261
G19 G3 Y163.521 Z3.26 K0.26
G1 X41.337
Z2.26 F333.3
G2 Y163.261 Z2 J-0.26
G1 Y163.001 F200
G17 G3 X41.597 Y162.741 I0.26
G1 X157.367 F400
G2 X158.666 Y164 I1.299 J-0.041
G1 X219.4
G2 X220.7 Y162.7 J-1.3
G1 Y158
X229.4
G2 X230.281 Y157.656 J-1.3
X241.217 Y138.385 I-24.652 J-26.728
G3 X252.895 Y129.714 I11.362 J3.103
G2 X253.703 Y129.459 I0.035 J-1.3
X252.973 Y121.413 I-2.813 J-3.801
X252.4 Y121.28 I-0.573 J1.167
G1 X247.61
G3 X235.612 Y103.169 I0.42 J-13.307
G1 X252.198 Y60.301
G2 X254.651 Y31.516 I-36.974 J-17.648
X253.4 Y30.569 I-1.251 J0.353
G1 X196.715
G2 X195.456 Y31.545 J1.3
G1 X195.141 Y32.767
G2 X195.1 Y33.091 I1.259 J0.325
G1 Y44.535
X178.141 Y110.376
G2 X178.114 Y110.508 I1.259 J0.324
G3 X169.277 Y119.761 I-10.983 J-1.643
G1 X121.727
G2 X120.79 Y120.16 J1.3
G3 X104.292 Y128.9 I-21.553 J-20.742
G1 X57.825
G2 X56.525 Y130.2 J1.3
G1 Y137.057
X41.597
G2 X40.297 Y138.357 J1.3
G1 Y161.441
G2 X41.597 Y162.741 I1.3
G3 X41.857 Y163.001 J0.26 F200
G1 Y163.261
G19 G3 Y163.521 Z2.26 K0.26
G1 X41.337
Z1.26 F333.3
G2 Y163.261 Z1 J-0.26
G1 Y163.001 F200
G17 G3 X41.597 Y162.741 I0.26
G1 X157.367 F400
G2 X158.666 Y164 I1.299 J-0.041
G1 X219.4
G2 X220.7 Y162.7 J-1.3
G1 Y158
X229.4
G2 X230.281 Y157.656 J-1.3
X241.217 Y138.385 I-24.652 J-26.728
G3 X252.895 Y129.714 I11.362 J3.103
G2 X253.703 Y129.459 I0.035 J-1.3
X252.973 Y121.413 I-2.813 J-3.801
X252.4 Y121.28 I-0.573 J1.167
G1 X247.61
G3 X235.612 Y103.169 I0.42 J-13.307
G1 X252.198 Y60.301
G2 X254.651 Y31.516 I-36.974 J-17.648
X253.4 Y30.569 I-1.251 J0.353
G1 X196.715
G2 X195.456 Y31.545 J1.3
G1 X195.141 Y32.767
G2 X195.1 Y33.091 I1.259 J0.325
G1 Y44.535
X178.141 Y110.376
G2 X178.114 Y110.508 I1.259 J0.324
G3 X169.277 Y119.761 I-10.983 J-1.643
G1 X121.727
G2 X120.79 Y120.16 J1.3
G3 X104.292 Y128.9 I-21.553 J-20.742
G1 X57.825
G2 X56.525 Y130.2 J1.3
G1 Y137.057
X41.597
G2 X40.297 Y138.357 J1.3
G1 Y161.441
G2 X41.597 Y162.741 I1.3
G3 X41.857 Y163.001 J0.26 F200
G1 Y163.261
G19 G3 Y163.521 Z1.26 K0.26
G1 X41.337
Z0.26 F333.3
G2 Y163.261 Z0 J-0.26
G1 Y163.001 F200
G17 G3 X41.597 Y162.741 I0.26
G1 X157.367 F400
G2 X158.666 Y164 I1.299 J-0.041
G1 X219.4
G2 X220.7 Y162.7 J-1.3
G1 Y158
X229.4
G2 X230.281 Y157.656 J-1.3
X241.217 Y138.385 I-24.652 J-26.728
G3 X252.895 Y129.714 I11.362 J3.103
G2 X253.703 Y129.459 I0.035 J-1.3
X252.973 Y121.413 I-2.813 J-3.801
X252.4 Y121.28 I-0.573 J1.167
G1 X247.61
G3 X235.612 Y103.169 I0.42 J-13.307
G1 X252.198 Y60.301
G2 X254.651 Y31.516 I-36.974 J-17.648
X253.4 Y30.569 I-1.251 J0.353
G1 X196.715
G2 X195.456 Y31.545 J1.3
G1 X195.141 Y32.767
G2 X195.1 Y33.091 I1.259 J0.325
G1 Y44.535
X178.141 Y110.376
G2 X178.114 Y110.508 I1.259 J0.324
G3 X169.277 Y119.761 I-10.983 J-1.643
G1 X121.727
G2 X120.79 Y120.16 J1.3
G3 X104.292 Y128.9 I-21.553 J-20.742
G1 X57.825
G2 X56.525 Y130.2 J1.3
G1 Y137.057
X41.597
G2 X40.297 Y138.357 J1.3
G1 Y161.441
G2 X41.597 Y162.741 I1.3
G3 X41.857 Y163.001 J0.26 F200
G1 Y163.261
G19 G3 Y163.521 Z0.26 K0.26
G0 Z9
X163.611 Y131.131
G1 Z6 F200
Z3.26 F333.3
G18 G2 X163.871 Z3 I0.26
G1 X164.131 F200
G17 G3 X164.391 Y131.391 J0.26
X162.991 I-0.7 F400
X164.391 I0.7
X164.131 Y131.651 I-0.26 F200
G1 X163.871
G18 G3 X163.611 Z3.26 K0.26
G1 Y131.131
Z2.26 F333.3
G2 X163.871 Z2 I0.26
G1 X164.131 F200
G17 G3 X164.391 Y131.391 J0.26
X162.991 I-0.7 F400
X164.391 I0.7
X164.131 Y131.651 I-0.26 F200
G1 X163.871
G18 G3 X163.611 Z2.26 K0.26
G1 Y131.131
Z1.26 F333.3
G2 X163.871 Z1 I0.26
G1 X164.131 F200
G17 G3 X164.391 Y131.391 J0.26
X162.991 I-0.7 F400
X164.391 I0.7
X164.131 Y131.651 I-0.26 F200
G1 X163.871
G18 G3 X163.611 Z1.26 K0.26
G1 Y131.131
Z0.26 F333.3
G2 X163.871 Z0 I0.26
G1 X164.131 F200
G17 G3 X164.391 Y131.391 J0.26
X162.991 I-0.7 F400
X164.391 I0.7
X164.131 Y131.651 I-0.26 F200
G1 X163.871
G18 G3 X163.611 Z0.26 K0.26
G0 Z9
X201.47 Y123.309
G1 Z6 F200
Z3.26 F333.3
G2 X201.73 Z3 I0.26
G1 X201.99 F200
G17 G3 X202.25 Y123.569 J0.26
X200.85 I-0.7 F400
X202.25 I0.7
X201.99 Y123.829 I-0.26 F200
G1 X201.73
G18 G3 X201.47 Z3.26 K0.26
G1 Y123.309
Z2.26 F333.3
G2 X201.73 Z2 I0.26
G1 X201.99 F200
G17 G3 X202.25 Y123.569 J0.26
X200.85 I-0.7 F400
X202.25 I0.7
X201.99 Y123.829 I-0.26 F200
G1 X201.73
G18 G3 X201.47 Z2.26 K0.26
G1 Y123.309
Z1.26 F333.3
G2 X201.73 Z1 I0.26
G1 X201.99 F200
G17 G3 X202.25 Y123.569 J0.26
X200.85 I-0.7 F400
X202.25 I0.7
X201.99 Y123.829 I-0.26 F200
G1 X201.73
G18 G3 X201.47 Z1.26 K0.26
G1 Y123.309
Z0.26 F333.3
G2 X201.73 Z0 I0.26
G1 X201.99 F200
G17 G3 X202.25 Y123.569 J0.26
X200.85 I-0.7 F400
X202.25 I0.7
X201.99 Y123.829 I-0.26 F200
G1 X201.73
G18 G3 X201.47 Z0.26 K0.26
G0 Z9
X221.491 Y102.121
G1 Z6 F200
Z3.26 F333.3
X221.497 Y102.123 Z3.202
X221.515 Y102.128 Z3.147
X221.545 Y102.135 Z3.098
X221.585 Y102.146 Z3.057
X221.633 Y102.158 Z3.026
X221.686 Y102.172 Z3.007
X221.742 Y102.186 Z3
X221.994 Y102.251 F200
G17 G3 X222.181 Y102.568 I-0.065 J0.252
G1 X220.778 Y108.013 F400
X186.979 Y98.783
X189.638 Y88.461
X223.564 Y97.2
X222.181 Y102.568
G3 X221.864 Y102.755 I-0.252 J-0.065 F200
G1 X221.613 Y102.69
X221.557 Y102.675 Z3.007
X221.503 Y102.662 Z3.026
X221.456 Y102.649 Z3.057
X221.416 Y102.639 Z3.098
X221.386 Y102.631 Z3.147
X221.367 Y102.626 Z3.202
X221.361 Y102.625 Z3.26
X221.491 Y102.121
Z2.26 F333.3
X221.497 Y102.123 Z2.202
X221.515 Y102.128 Z2.147
X221.545 Y102.135 Z2.098
X221.585 Y102.146 Z2.057
X221.633 Y102.158 Z2.026
X221.686 Y102.172 Z2.007
X221.742 Y102.186 Z2
X221.994 Y102.251 F200
G3 X222.181 Y102.568 I-0.065 J0.252
G1 X220.778 Y108.013 F400
X186.979 Y98.783
X189.638 Y88.461
X223.564 Y97.2
X222.181 Y102.568
G3 X221.864 Y102.755 I-0.252 J-0.065 F200
G1 X221.613 Y102.69
X221.557 Y102.675 Z2.007
X221.503 Y102.662 Z2.026
X221.456 Y102.649 Z2.057
X221.416 Y102.639 Z2.098
X221.386 Y102.631 Z2.147
X221.367 Y102.626 Z2.202
X221.361 Y102.625 Z2.26
X221.491 Y102.121
Z1.26 F333.3
X221.497 Y102.123 Z1.202
X221.515 Y102.128 Z1.147
X221.545 Y102.135 Z1.098
X221.585 Y102.146 Z1.057
X221.633 Y102.158 Z1.026
X221.686 Y102.172 Z1.007
X221.742 Y102.186 Z1
X221.994 Y102.251 F200
G3 X222.181 Y102.568 I-0.065 J0.252
G1 X220.778 Y108.013 F400
X186.979 Y98.783
X189.638 Y88.461
X223.564 Y97.2
X222.181 Y102.568
G3 X221.864 Y102.755 I-0.252 J-0.065 F200
G1 X221.613 Y102.69
X221.557 Y102.675 Z1.007
X221.503 Y102.662 Z1.026
X221.456 Y102.649 Z1.057
X221.416 Y102.639 Z1.098
X221.386 Y102.631 Z1.147
X221.367 Y102.626 Z1.202
X221.361 Y102.625 Z1.26
X221.491 Y102.121
Z0.26 F333.3
X221.497 Y102.123 Z0.202
X221.515 Y102.128 Z0.147
X221.545 Y102.135 Z0.098
X221.585 Y102.146 Z0.057
X221.633 Y102.158 Z0.026
X221.686 Y102.172 Z0.007
X221.742 Y102.186 Z0
X221.994 Y102.251 F200
G3 X222.181 Y102.568 I-0.065 J0.252
G1 X220.778 Y108.013 F400
X186.979 Y98.783
X189.638 Y88.461
X223.564 Y97.2
X222.181 Y102.568
G3 X221.864 Y102.755 I-0.252 J-0.065 F200
G1 X221.613 Y102.69
X221.557 Y102.675 Z0.007
X221.503 Y102.662 Z0.026
X221.456 Y102.649 Z0.057
X221.416 Y102.639 Z0.098
X221.386 Y102.631 Z0.147
X221.367 Y102.626 Z0.202
X221.361 Y102.625 Z0.26
G0 Z9
X213.059 Y156.301
G1 Z6 F200
Z3.26 F333.3
G18 G2 X213.319 Z3 I0.26
G1 X213.579 F200
G17 G3 X213.839 Y156.561 J0.26
X212.439 I-0.7 F400
X213.839 I0.7
X213.579 Y156.821 I-0.26 F200
G1 X213.319
G18 G3 X213.059 Z3.26 K0.26
G1 Y156.301
Z2.26 F333.3
G2 X213.319 Z2 I0.26
G1 X213.579 F200
G17 G3 X213.839 Y156.561 J0.26
X212.439 I-0.7 F400
X213.839 I0.7
X213.579 Y156.821 I-0.26 F200
G1 X213.319
G18 G3 X213.059 Z2.26 K0.26
G1 Y156.301
Z1.26 F333.3
G2 X213.319 Z1 I0.26
G1 X213.579 F200
G17 G3 X213.839 Y156.561 J0.26
X212.439 I-0.7 F400
X213.839 I0.7
X213.579 Y156.821 I-0.26 F200
G1 X213.319
G18 G3 X213.059 Z1.26 K0.26
G1 Y156.301
Z0.26 F333.3
G2 X213.319 Z0 I0.26
G1 X213.579 F200
G17 G3 X213.839 Y156.561 J0.26
X212.439 I-0.7 F400
X213.839 I0.7
X213.579 Y156.821 I-0.26 F200
G1 X213.319
G18 G3 X213.059 Z0.26 K0.26
G0 Z19
G17
M9
G28 G91 Z0
G28 X0 Y0
M30
%
