%
(1)
(T3  D=2.6 CR=0 - ZMIN=0 - flat end mill)
G90 G94
G17
G21
G28 G91 Z0
G90

(2D Contour1-2)
M9
T3 M6
S5000 M3
G54
M8
G0 X41.337 Y163.521
Z19
Z9
G1 Z6 F200
Z3.26 F333.3
G19 G2 Y163.261 Z3 J-0.26
G1 Y163.001 F200
G17 G3 X41.597 Y162.741 I0.26
G1 X157.367 F400
G2 X158.666 Y164 I1.299 J-0.041
G1 X219.4
G2 X220.7 Y162.7 J-1.3
G1 Y158
X229.4
G2 X230.281 Y157.656 J-1.3
X241.217 Y138.385 I-24.652 J-26.728
G3 X252.895 Y129.714 I11.362 J3.103
G2 X253.703 Y129.459 I0.035 J-1.3
X252.973 Y121.413 I-2.813 J-3.801
X252.4 Y121.28 I-0.573 J1.167
G1 X247.61
G3 X235.612 Y103.169 I0.42 J-13.307
G1 X252.198 Y60.301
G2 X254.651 Y31.516 I-36.974 J-17.648
X253.4 Y30.569 I-1.251 J0.353
G1 X196.715
G2 X195.456 Y31.545 J1.3
G1 X195.141 Y32.767
G2 X195.1 Y33.091 I1.259 J0.325
G1 Y44.535
X178.141 Y110.376
G2 X178.114 Y110.508 I1.259 J0.324
G3 X169.277 Y119.761 I-10.983 J-1.643
G1 X121.727
G2 X120.79 Y120.16 J1.3
G3 X104.292 Y128.9 I-21.553 J-20.742
G1 X57.825
G2 X56.525 Y130.2 J1.3
G1 Y137.057
X41.597
G2 X40.297 Y138.357 J1.3
G1 Y161.441
G2 X41.597 Y162.741 I1.3
G3 X41.857 Y163.001 J0.26 F200
G1 Y163.261
G19 G3 Y163.521 Z3.26 K0.26
G1 X41.337
Z2.26 F333.3
G2 Y163.261 Z2 J-0.26
G1 Y163.001 F200
G17 G3 X41.597 Y162.741 I0.26
G1 X157.367 F400
G2 X158.666 Y164 I1.299 J-0.041
G1 X219.4
G2 X220.7 Y162.7 J-1.3
G1 Y158
X229.4
G2 X230.281 Y157.656 J-1.3
X241.217 Y138.385 I-24.652 J-26.728
G3 X252.895 Y129.714 I11.362 J3.103
G2 X253.703 Y129.459 I0.035 J-1.3
X252.973 Y121.413 I-2.813 J-3.801
X252.4 Y121.28 I-0.573 J1.167
G1 X247.61
G3 X235.612 Y103.169 I0.42 J-13.307
G1 X252.198 Y60.301
G2 X254.651 Y31.516 I-36.974 J-17.648
X253.4 Y30.569 I-1.251 J0.353
G1 X196.715
G2 X195.456 Y31.545 J1.3
G1 X195.141 Y32.767
G2 X195.1 Y33.091 I1.259 J0.325
G1 Y44.535
X178.141 Y110.376
G2 X178.114 Y110.508 I1.259 J0.324
G3 X169.277 Y119.761 I-10.983 J-1.643
G1 X121.727
G2 X120.79 Y120.16 J1.3
G3 X104.292 Y128.9 I-21.553 J-20.742
G1 X57.825
G2 X56.525 Y130.2 J1.3
G1 Y137.057
X41.597
G2 X40.297 Y138.357 J1.3
G1 Y161.441
G2 X41.597 Y162.741 I1.3
G3 X41.857 Y163.001 J0.26 F200
G1 Y163.261
G19 G3 Y163.521 Z2.26 K0.26
G1 X41.337
Z1.26 F333.3
G2 Y163.261 Z1 J-0.26
G1 Y163.001 F200
G17 G3 X41.597 Y162.741 I0.26
G1 X157.367 F400
G2 X158.666 Y164 I1.299 J-0.041
G1 X219.4
G2 X220.7 Y162.7 J-1.3
G1 Y158
X229.4
G2 X230.281 Y157.656 J-1.3
X241.217 Y138.385 I-24.652 J-26.728
G3 X252.895 Y129.714 I11.362 J3.103
G2 X253.703 Y129.459 I0.035 J-1.3
X252.973 Y121.413 I-2.813 J-3.801
X252.4 Y121.28 I-0.573 J1.167
G1 X247.61
G3 X235.612 Y103.169 I0.42 J-13.307
G1 X252.198 Y60.301
G2 X254.651 Y31.516 I-36.974 J-17.648
X253.4 Y30.569 I-1.251 J0.353
G1 X196.715
G2 X195.456 Y31.545 J1.3
G1 X195.141 Y32.767
G2 X195.1 Y33.091 I1.259 J0.325
G1 Y44.535
X178.141 Y110.376
G2 X178.114 Y110.508 I1.259 J0.324
G3 X169.277 Y119.761 I-10.983 J-1.643
G1 X121.727
G2 X120.79 Y120.16 J1.3
G3 X104.292 Y128.9 I-21.553 J-20.742
G1 X57.825
G2 X56.525 Y130.2 J1.3
G1 Y137.057
X41.597
G2 X40.297 Y138.357 J1.3
G1 Y161.441
G2 X41.597 Y162.741 I1.3
G3 X41.857 Y163.001 J0.26 F200
G1 Y163.261
G19 G3 Y163.521 Z1.26 K0.26
G1 X41.337
Z0.26 F333.3
G2 Y163.261 Z0 J-0.26
G1 Y163.001 F200
G17 G3 X41.597 Y162.741 I0.26
G1 X157.367 F400
G2 X158.666 Y164 I1.299 J-0.041
G1 X219.4
G2 X220.7 Y162.7 J-1.3
G1 Y158
X229.4
G2 X230.281 Y157.656 J-1.3
X241.217 Y138.385 I-24.652 J-26.728
G3 X252.895 Y129.714 I11.362 J3.103
G2 X253.703 Y129.459 I0.035 J-1.3
X252.973 Y121.413 I-2.813 J-3.801
X252.4 Y121.28 I-0.573 J1.167
G1 X247.61
G3 X235.612 Y103.169 I0.42 J-13.307
G1 X252.198 Y60.301
G2 X254.651 Y31.516 I-36.974 J-17.648
X253.4 Y30.569 I-1.251 J0.353
G1 X196.715
G2 X195.456 Y31.545 J1.3
G1 X195.141 Y32.767
G2 X195.1 Y33.091 I1.259 J0.325
G1 Y44.535
X178.141 Y110.376
G2 X178.114 Y110.508 I1.259 J0.324
G3 X169.277 Y119.761 I-10.983 J-1.643
G1 X121.727
G2 X120.79 Y120.16 J1.3
G3 X104.292 Y128.9 I-21.553 J-20.742
G1 X57.825
G2 X56.525 Y130.2 J1.3
G1 Y137.057
X41.597
G2 X40.297 Y138.357 J1.3
G1 Y161.441
G2 X41.597 Y162.741 I1.3
G3 X41.857 Y163.001 J0.26 F200
G1 Y163.261
G19 G3 Y163.521 Z0.26 K0.26
G0 Z19
G17
M9
G28 G91 Z0
G28 X0 Y0
M30
%
