%
(1)
(T3  D=2.6 CR=0 - ZMIN=0 - flat end mill)
G90 G94
G17
G21
G28 G91 Z0
G90

(2D Contour2)
M9
T3 M6
S5000 M3
G54
M8
G0 X49.123 Y70.617
Z19
Z9
G1 Z6 F200
Z3.26 F333.3
X49.121 Y70.624 Z3.202
X49.117 Y70.642 Z3.147
X49.109 Y70.672 Z3.098
X49.099 Y70.712 Z3.057
X49.087 Y70.76 Z3.026
X49.074 Y70.814 Z3.007
X49.06 Y70.87 Z3
X48.997 Y71.122 F200
G3 X48.682 Y71.311 I-0.252 J-0.063
X45.818 Y70.469 I8.844 J-35.361 F400
G2 X45.632 Y70.421 I-0.418 J1.231
G3 X37.397 Y64.762 I2.174 J-11.986
X37.148 Y57.065 I11.598 J-4.228
G2 X37.189 Y56.869 I-1.248 J-0.365
G3 X39.084 Y50.237 I23.206 J3.044
G2 X39.124 Y50.137 I-1.184 J-0.537
G3 X41.699 Y46.554 I7.509 J2.68
G2 X42.195 Y45.533 I-0.805 J-1.021
G1 Y40.874
G2 X40.21 Y39.769 I-1.3
G1 X21.273 Y51.507
G2 X20.702 Y52.279 I0.685 J1.105
G1 X17.895 Y62.871
G2 X18.819 Y64.461 I1.257 J0.333
G1 X28.651 Y67.066
X27.066 Y73.049
X17.233 Y70.443
G2 X15.643 Y71.367 I-0.333 J1.257
G1 X-0.257 Y131.367
G2 X1 Y133 I1.257 J0.333
G1 X19.4
G2 X20.7 Y131.7 J-1.3
G1 Y118.864
X30.118 Y82.183
G3 X41.989 Y77.932 I8.59 J5.287
G2 X42.105 Y77.966 I0.423 J-1.229
X88.658 Y73.735 I17.077 J-70.311
X89.041 Y73.473 I-0.53 J-1.187
G1 X90.364 Y72.168
G2 X90.714 Y70.932 I-0.913 J-0.926
G3 X112.423 Y42.159 I22.557 J-5.557
G1 X157.113
G2 X158.377 Y41.161 J-1.3
G1 X158.974 Y38.663
X174.469
G2 X175.769 Y37.363 J-1.3
G1 Y2.259
G2 X174.469 Y0.959 I-1.3
G1 X58.699
G2 X57.4 Y-0.3 I-1.299 J0.041
G1 X22.4
G2 X21.1 Y1 J1.3
G1 Y6.7
G2 X22.4 Y8 I1.3
G1 X114.1
Y27.777
X88.652 Y36.671
X63.4
G2 X62.1 Y37.971 J1.3
G1 Y45.412
G2 X63.4 Y46.713 I1.3
G1 X69.4
G3 X81.449 Y54.141 J13.485
G1 Y54.143
G3 X80.374 Y65.901 I-9.949 J5.018
X72.276 Y70.75 I-10.541 J-8.417
G2 X72.095 Y70.797 I0.235 J1.279
G3 X57.537 Y72.407 I-10.957 J-32.449
G2 X57.404 Y72.4 I-0.137 J1.293
G3 X48.682 Y71.311 I0.121 J-36.45
X48.492 Y70.996 I0.063 J-0.252 F200
G1 X48.556 Y70.743
X48.57 Y70.687 Z3.007
X48.583 Y70.634 Z3.026
X48.595 Y70.586 Z3.057
X48.605 Y70.546 Z3.098
X48.612 Y70.516 Z3.147
X48.617 Y70.498 Z3.202
X48.619 Y70.491 Z3.26
X49.123 Y70.617
Z2.26 F333.3
X49.121 Y70.624 Z2.202
X49.117 Y70.642 Z2.147
X49.109 Y70.672 Z2.098
X49.099 Y70.712 Z2.057
X49.087 Y70.76 Z2.026
X49.074 Y70.814 Z2.007
X49.06 Y70.87 Z2
X48.997 Y71.122 F200
G3 X48.682 Y71.311 I-0.252 J-0.063
X45.818 Y70.469 I8.844 J-35.361 F400
G2 X45.632 Y70.421 I-0.418 J1.231
G3 X37.397 Y64.762 I2.174 J-11.986
X37.148 Y57.065 I11.598 J-4.228
G2 X37.189 Y56.869 I-1.248 J-0.365
G3 X39.084 Y50.237 I23.206 J3.044
G2 X39.124 Y50.137 I-1.184 J-0.537
G3 X41.699 Y46.554 I7.509 J2.68
G2 X42.195 Y45.533 I-0.805 J-1.021
G1 Y40.874
G2 X40.21 Y39.769 I-1.3
G1 X21.273 Y51.507
G2 X20.702 Y52.279 I0.685 J1.105
G1 X17.895 Y62.871
G2 X18.819 Y64.461 I1.257 J0.333
G1 X28.651 Y67.066
X27.066 Y73.049
X17.233 Y70.443
G2 X15.643 Y71.367 I-0.333 J1.257
G1 X-0.257 Y131.367
G2 X1 Y133 I1.257 J0.333
G1 X19.4
G2 X20.7 Y131.7 J-1.3
G1 Y118.864
X30.118 Y82.183
G3 X41.989 Y77.932 I8.59 J5.287
G2 X42.105 Y77.966 I0.423 J-1.229
X88.658 Y73.735 I17.077 J-70.311
X89.041 Y73.473 I-0.53 J-1.187
G1 X90.364 Y72.168
G2 X90.714 Y70.932 I-0.913 J-0.926
G3 X112.423 Y42.159 I22.557 J-5.557
G1 X157.113
G2 X158.377 Y41.161 J-1.3
G1 X158.974 Y38.663
X174.469
G2 X175.769 Y37.363 J-1.3
G1 Y2.259
G2 X174.469 Y0.959 I-1.3
G1 X58.699
G2 X57.4 Y-0.3 I-1.299 J0.041
G1 X22.4
G2 X21.1 Y1 J1.3
G1 Y6.7
G2 X22.4 Y8 I1.3
G1 X114.1
Y27.777
X88.652 Y36.671
X63.4
G2 X62.1 Y37.971 J1.3
G1 Y45.412
G2 X63.4 Y46.713 I1.3
G1 X69.4
G3 X81.449 Y54.141 J13.485
G1 Y54.143
G3 X80.374 Y65.901 I-9.949 J5.018
X72.276 Y70.75 I-10.541 J-8.417
G2 X72.095 Y70.797 I0.235 J1.279
G3 X57.537 Y72.407 I-10.957 J-32.449
G2 X57.404 Y72.4 I-0.137 J1.293
G3 X48.682 Y71.311 I0.121 J-36.45
X48.492 Y70.996 I0.063 J-0.252 F200
G1 X48.556 Y70.743
X48.57 Y70.687 Z2.007
X48.583 Y70.634 Z2.026
X48.595 Y70.586 Z2.057
X48.605 Y70.546 Z2.098
X48.612 Y70.516 Z2.147
X48.617 Y70.498 Z2.202
X48.619 Y70.491 Z2.26
X49.123 Y70.617
Z1.26 F333.3
X49.121 Y70.624 Z1.202
X49.117 Y70.642 Z1.147
X49.109 Y70.672 Z1.098
X49.099 Y70.712 Z1.057
X49.087 Y70.76 Z1.026
X49.074 Y70.814 Z1.007
X49.06 Y70.87 Z1
X48.997 Y71.122 F200
G3 X48.682 Y71.311 I-0.252 J-0.063
X45.818 Y70.469 I8.844 J-35.361 F400
G2 X45.632 Y70.421 I-0.418 J1.231
G3 X37.397 Y64.762 I2.174 J-11.986
X37.148 Y57.065 I11.598 J-4.228
G2 X37.189 Y56.869 I-1.248 J-0.365
G3 X39.084 Y50.237 I23.206 J3.044
G2 X39.124 Y50.137 I-1.184 J-0.537
G3 X41.699 Y46.554 I7.509 J2.68
G2 X42.195 Y45.533 I-0.805 J-1.021
G1 Y40.874
G2 X40.21 Y39.769 I-1.3
G1 X21.273 Y51.507
G2 X20.702 Y52.279 I0.685 J1.105
G1 X17.895 Y62.871
G2 X18.819 Y64.461 I1.257 J0.333
G1 X28.651 Y67.066
X27.066 Y73.049
X17.233 Y70.443
G2 X15.643 Y71.367 I-0.333 J1.257
G1 X-0.257 Y131.367
G2 X1 Y133 I1.257 J0.333
G1 X19.4
G2 X20.7 Y131.7 J-1.3
G1 Y118.864
X30.118 Y82.183
G3 X41.989 Y77.932 I8.59 J5.287
G2 X42.105 Y77.966 I0.423 J-1.229
X88.658 Y73.735 I17.077 J-70.311
X89.041 Y73.473 I-0.53 J-1.187
G1 X90.364 Y72.168
G2 X90.714 Y70.932 I-0.913 J-0.926
G3 X112.423 Y42.159 I22.557 J-5.557
G1 X157.113
G2 X158.377 Y41.161 J-1.3
G1 X158.974 Y38.663
X174.469
G2 X175.769 Y37.363 J-1.3
G1 Y2.259
G2 X174.469 Y0.959 I-1.3
G1 X58.699
G2 X57.4 Y-0.3 I-1.299 J0.041
G1 X22.4
G2 X21.1 Y1 J1.3
G1 Y6.7
G2 X22.4 Y8 I1.3
G1 X114.1
Y27.777
X88.652 Y36.671
X63.4
G2 X62.1 Y37.971 J1.3
G1 Y45.412
G2 X63.4 Y46.713 I1.3
G1 X69.4
G3 X81.449 Y54.141 J13.485
G1 Y54.143
G3 X80.374 Y65.901 I-9.949 J5.018
X72.276 Y70.75 I-10.541 J-8.417
G2 X72.095 Y70.797 I0.235 J1.279
G3 X57.537 Y72.407 I-10.957 J-32.449
G2 X57.404 Y72.4 I-0.137 J1.293
G3 X48.682 Y71.311 I0.121 J-36.45
X48.492 Y70.996 I0.063 J-0.252 F200
G1 X48.556 Y70.743
X48.57 Y70.687 Z1.007
X48.583 Y70.634 Z1.026
X48.595 Y70.586 Z1.057
X48.605 Y70.546 Z1.098
X48.612 Y70.516 Z1.147
X48.617 Y70.498 Z1.202
X48.619 Y70.491 Z1.26
X49.123 Y70.617
Z0.26 F333.3
X49.121 Y70.624 Z0.202
X49.117 Y70.642 Z0.147
X49.109 Y70.672 Z0.098
X49.099 Y70.712 Z0.057
X49.087 Y70.76 Z0.026
X49.074 Y70.814 Z0.007
X49.06 Y70.87 Z0
X48.997 Y71.122 F200
G3 X48.682 Y71.311 I-0.252 J-0.063
X45.818 Y70.469 I8.844 J-35.361 F400
G2 X45.632 Y70.421 I-0.418 J1.231
G3 X37.397 Y64.762 I2.174 J-11.986
X37.148 Y57.065 I11.598 J-4.228
G2 X37.189 Y56.869 I-1.248 J-0.365
G3 X39.084 Y50.237 I23.206 J3.044
G2 X39.124 Y50.137 I-1.184 J-0.537
G3 X41.699 Y46.554 I7.509 J2.68
G2 X42.195 Y45.533 I-0.805 J-1.021
G1 Y40.874
G2 X40.21 Y39.769 I-1.3
G1 X21.273 Y51.507
G2 X20.702 Y52.279 I0.685 J1.105
G1 X17.895 Y62.871
G2 X18.819 Y64.461 I1.257 J0.333
G1 X28.651 Y67.066
X27.066 Y73.049
X17.233 Y70.443
G2 X15.643 Y71.367 I-0.333 J1.257
G1 X-0.257 Y131.367
G2 X1 Y133 I1.257 J0.333
G1 X19.4
G2 X20.7 Y131.7 J-1.3
G1 Y118.864
X30.118 Y82.183
G3 X41.989 Y77.932 I8.59 J5.287
G2 X42.105 Y77.966 I0.423 J-1.229
X88.658 Y73.735 I17.077 J-70.311
X89.041 Y73.473 I-0.53 J-1.187
G1 X90.364 Y72.168
G2 X90.714 Y70.932 I-0.913 J-0.926
G3 X112.423 Y42.159 I22.557 J-5.557
G1 X157.113
G2 X158.377 Y41.161 J-1.3
G1 X158.974 Y38.663
X174.469
G2 X175.769 Y37.363 J-1.3
G1 Y2.259
G2 X174.469 Y0.959 I-1.3
G1 X58.699
G2 X57.4 Y-0.3 I-1.299 J0.041
G1 X22.4
G2 X21.1 Y1 J1.3
G1 Y6.7
G2 X22.4 Y8 I1.3
G1 X114.1
Y27.777
X88.652 Y36.671
X63.4
G2 X62.1 Y37.971 J1.3
G1 Y45.412
G2 X63.4 Y46.713 I1.3
G1 X69.4
G3 X81.449 Y54.141 J13.485
G1 Y54.143
G3 X80.374 Y65.901 I-9.949 J5.018
X72.276 Y70.75 I-10.541 J-8.417
G2 X72.095 Y70.797 I0.235 J1.279
G3 X57.537 Y72.407 I-10.957 J-32.449
G2 X57.404 Y72.4 I-0.137 J1.293
G3 X48.682 Y71.311 I0.121 J-36.45
X48.492 Y70.996 I0.063 J-0.252 F200
G1 X48.556 Y70.743
X48.57 Y70.687 Z0.007
X48.583 Y70.634 Z0.026
X48.595 Y70.586 Z0.057
X48.605 Y70.546 Z0.098
X48.612 Y70.516 Z0.147
X48.617 Y70.498 Z0.202
X48.619 Y70.491 Z0.26
G0 Z19
M9
G28 G91 Z0
G28 X0 Y0
M30
%
