%
(1)
(T1  D=2 CR=0 - ZMIN=0 - flat end mill)
G90 G94
G17
G21
G28 G91 Z0
G90

(2D Contour2)
M9
T1 M6
S17507 M3
G54
M8
G0 X48.948 Y71.069
Z19
Z9
G1 Z6 F200
Z3.2
X48.947 Y71.075 Z3.148
X48.942 Y71.095 Z3.1
X48.934 Y71.125 Z3.059
X48.924 Y71.166 Z3.027
X48.912 Y71.212 Z3.007
X48.9 Y71.263 Z3
X48.851 Y71.457
G3 X48.609 Y71.602 I-0.194 J-0.049
X45.721 Y70.753 I8.916 J-35.652 F400
G2 X45.579 Y70.716 I-0.321 J0.947
G3 X37.125 Y64.893 I2.227 J-12.281
X36.86 Y56.981 I11.87 J-4.358
G2 X36.892 Y56.83 I-0.96 J-0.281
G3 X38.811 Y50.113 I23.504 J3.083
G2 X38.842 Y50.036 I-0.911 J-0.413
G3 X41.514 Y46.318 I7.792 J2.781
G2 X41.895 Y45.533 I-0.619 J-0.786
G1 Y40.874
G2 X40.368 Y40.024 I-1
G1 X21.432 Y51.762
G2 X20.992 Y52.356 I0.527 J0.85
G1 X18.185 Y62.948
G2 X18.895 Y64.171 I0.967 J0.256
G1 X29.018 Y66.853
X27.279 Y73.416
X17.156 Y70.733
G2 X15.933 Y71.444 I-0.256 J0.967
G1 X0.033 Y131.444
G2 X1 Y132.7 I0.967 J0.256
G1 X19.4
G2 X20.4 Y131.7 J-1
G1 Y118.826
X29.839 Y82.065
G3 X42.087 Y77.649 I8.869 J5.405
G2 X42.176 Y77.675 I0.325 J-0.946
X88.536 Y73.461 I17.007 J-70.02
X88.831 Y73.259 I-0.407 J-0.913
G1 X90.154 Y71.955
G2 X90.422 Y71.003 I-0.702 J-0.712
G3 X112.418 Y41.859 I22.848 J-5.629
G1 X157.113
G2 X158.086 Y41.091 J-1
G1 X158.737 Y38.363
X174.469
G2 X175.469 Y37.363 J-1
G1 Y2.259
G2 X174.469 Y1.259 I-1
G1 X58.4
Y1
G2 X57.4 Y0 I-1
G1 X22.4
G2 X21.4 Y1 J1
G1 Y6.7
G2 X22.4 Y7.7 I1
G1 X114.4
Y27.99
X88.703 Y36.971
X63.4
G2 X62.4 Y37.971 J1
G1 Y45.412
G2 X63.4 Y46.412 I1
G1 X69.4
G3 X81.717 Y54.007 J13.785
G1 Y54.008
G3 X80.611 Y66.085 I-10.216 J5.154
X72.33 Y71.045 I-10.777 J-8.601
G2 X72.191 Y71.081 I0.181 J0.983
G3 X57.505 Y72.705 I-11.053 J-32.734
G2 X57.403 Y72.7 I-0.105 J0.994
G3 X48.609 Y71.602 I0.122 J-36.75
X48.463 Y71.36 I0.049 J-0.194 F200
G1 X48.512 Y71.165
X48.524 Y71.115 Z3.007
X48.536 Y71.068 Z3.027
X48.546 Y71.028 Z3.059
X48.554 Y70.997 Z3.1
X48.559 Y70.978 Z3.148
X48.56 Y70.971 Z3.2
X48.948 Y71.069
Z2.2
X48.947 Y71.075 Z2.148
X48.942 Y71.095 Z2.1
X48.934 Y71.125 Z2.059
X48.924 Y71.166 Z2.027
X48.912 Y71.212 Z2.007
X48.9 Y71.263 Z2
X48.851 Y71.457
G3 X48.609 Y71.602 I-0.194 J-0.049
X45.721 Y70.753 I8.916 J-35.652 F400
G2 X45.579 Y70.716 I-0.321 J0.947
G3 X37.125 Y64.893 I2.227 J-12.281
X36.86 Y56.981 I11.87 J-4.358
G2 X36.892 Y56.83 I-0.96 J-0.281
G3 X38.811 Y50.113 I23.504 J3.083
G2 X38.842 Y50.036 I-0.911 J-0.413
G3 X41.514 Y46.318 I7.792 J2.781
G2 X41.895 Y45.533 I-0.619 J-0.786
G1 Y40.874
G2 X40.368 Y40.024 I-1
G1 X21.432 Y51.762
G2 X20.992 Y52.356 I0.527 J0.85
G1 X18.185 Y62.948
G2 X18.895 Y64.171 I0.967 J0.256
G1 X29.018 Y66.853
X27.279 Y73.416
X17.156 Y70.733
G2 X15.933 Y71.444 I-0.256 J0.967
G1 X0.033 Y131.444
G2 X1 Y132.7 I0.967 J0.256
G1 X19.4
G2 X20.4 Y131.7 J-1
G1 Y118.826
X29.839 Y82.065
G3 X42.087 Y77.649 I8.869 J5.405
G2 X42.176 Y77.675 I0.325 J-0.946
X88.536 Y73.461 I17.007 J-70.02
X88.831 Y73.259 I-0.407 J-0.913
G1 X90.154 Y71.955
G2 X90.422 Y71.003 I-0.702 J-0.712
G3 X112.418 Y41.859 I22.848 J-5.629
G1 X157.113
G2 X158.086 Y41.091 J-1
G1 X158.737 Y38.363
X174.469
G2 X175.469 Y37.363 J-1
G1 Y2.259
G2 X174.469 Y1.259 I-1
G1 X58.4
Y1
G2 X57.4 Y0 I-1
G1 X22.4
G2 X21.4 Y1 J1
G1 Y6.7
G2 X22.4 Y7.7 I1
G1 X114.4
Y27.99
X88.703 Y36.971
X63.4
G2 X62.4 Y37.971 J1
G1 Y45.412
G2 X63.4 Y46.412 I1
G1 X69.4
G3 X81.717 Y54.007 J13.785
G1 Y54.008
G3 X80.611 Y66.085 I-10.216 J5.154
X72.33 Y71.045 I-10.777 J-8.601
G2 X72.191 Y71.081 I0.181 J0.983
G3 X57.505 Y72.705 I-11.053 J-32.734
G2 X57.403 Y72.7 I-0.105 J0.994
G3 X48.609 Y71.602 I0.122 J-36.75
X48.463 Y71.36 I0.049 J-0.194 F200
G1 X48.512 Y71.165
X48.524 Y71.115 Z2.007
X48.536 Y71.068 Z2.027
X48.546 Y71.028 Z2.059
X48.554 Y70.997 Z2.1
X48.559 Y70.978 Z2.148
X48.56 Y70.971 Z2.2
X48.948 Y71.069
Z1.2
X48.947 Y71.075 Z1.148
X48.942 Y71.095 Z1.1
X48.934 Y71.125 Z1.059
X48.924 Y71.166 Z1.027
X48.912 Y71.212 Z1.007
X48.9 Y71.263 Z1
X48.851 Y71.457
G3 X48.609 Y71.602 I-0.194 J-0.049
X45.721 Y70.753 I8.916 J-35.652 F400
G2 X45.579 Y70.716 I-0.321 J0.947
G3 X37.125 Y64.893 I2.227 J-12.281
X36.86 Y56.981 I11.87 J-4.358
G2 X36.892 Y56.83 I-0.96 J-0.281
G3 X38.811 Y50.113 I23.504 J3.083
G2 X38.842 Y50.036 I-0.911 J-0.413
G3 X41.514 Y46.318 I7.792 J2.781
G2 X41.895 Y45.533 I-0.619 J-0.786
G1 Y40.874
G2 X40.368 Y40.024 I-1
G1 X21.432 Y51.762
G2 X20.992 Y52.356 I0.527 J0.85
G1 X18.185 Y62.948
G2 X18.895 Y64.171 I0.967 J0.256
G1 X29.018 Y66.853
X27.279 Y73.416
X17.156 Y70.733
G2 X15.933 Y71.444 I-0.256 J0.967
G1 X0.033 Y131.444
G2 X1 Y132.7 I0.967 J0.256
G1 X19.4
G2 X20.4 Y131.7 J-1
G1 Y118.826
X29.839 Y82.065
G3 X42.087 Y77.649 I8.869 J5.405
G2 X42.176 Y77.675 I0.325 J-0.946
X88.536 Y73.461 I17.007 J-70.02
X88.831 Y73.259 I-0.407 J-0.913
G1 X90.154 Y71.955
G2 X90.422 Y71.003 I-0.702 J-0.712
G3 X112.418 Y41.859 I22.848 J-5.629
G1 X157.113
G2 X158.086 Y41.091 J-1
G1 X158.737 Y38.363
X174.469
G2 X175.469 Y37.363 J-1
G1 Y2.259
G2 X174.469 Y1.259 I-1
G1 X58.4
Y1
G2 X57.4 Y0 I-1
G1 X22.4
G2 X21.4 Y1 J1
G1 Y6.7
G2 X22.4 Y7.7 I1
G1 X114.4
Y27.99
X88.703 Y36.971
X63.4
G2 X62.4 Y37.971 J1
G1 Y45.412
G2 X63.4 Y46.412 I1
G1 X69.4
G3 X81.717 Y54.007 J13.785
G1 Y54.008
G3 X80.611 Y66.085 I-10.216 J5.154
X72.33 Y71.045 I-10.777 J-8.601
G2 X72.191 Y71.081 I0.181 J0.983
G3 X57.505 Y72.705 I-11.053 J-32.734
G2 X57.403 Y72.7 I-0.105 J0.994
G3 X48.609 Y71.602 I0.122 J-36.75
X48.463 Y71.36 I0.049 J-0.194 F200
G1 X48.512 Y71.165
X48.524 Y71.115 Z1.007
X48.536 Y71.068 Z1.027
X48.546 Y71.028 Z1.059
X48.554 Y70.997 Z1.1
X48.559 Y70.978 Z1.148
X48.56 Y70.971 Z1.2
X48.948 Y71.069
Z0.2
X48.947 Y71.075 Z0.148
X48.942 Y71.095 Z0.1
X48.934 Y71.125 Z0.059
X48.924 Y71.166 Z0.027
X48.912 Y71.212 Z0.007
X48.9 Y71.263 Z0
X48.851 Y71.457
G3 X48.609 Y71.602 I-0.194 J-0.049
X45.721 Y70.753 I8.916 J-35.652 F400
G2 X45.579 Y70.716 I-0.321 J0.947
G3 X37.125 Y64.893 I2.227 J-12.281
X36.86 Y56.981 I11.87 J-4.358
G2 X36.892 Y56.83 I-0.96 J-0.281
G3 X38.811 Y50.113 I23.504 J3.083
G2 X38.842 Y50.036 I-0.911 J-0.413
G3 X41.514 Y46.318 I7.792 J2.781
G2 X41.895 Y45.533 I-0.619 J-0.786
G1 Y40.874
G2 X40.368 Y40.024 I-1
G1 X21.432 Y51.762
G2 X20.992 Y52.356 I0.527 J0.85
G1 X18.185 Y62.948
G2 X18.895 Y64.171 I0.967 J0.256
G1 X29.018 Y66.853
X27.279 Y73.416
X17.156 Y70.733
G2 X15.933 Y71.444 I-0.256 J0.967
G1 X0.033 Y131.444
G2 X1 Y132.7 I0.967 J0.256
G1 X19.4
G2 X20.4 Y131.7 J-1
G1 Y118.826
X29.839 Y82.065
G3 X42.087 Y77.649 I8.869 J5.405
G2 X42.176 Y77.675 I0.325 J-0.946
X88.536 Y73.461 I17.007 J-70.02
X88.831 Y73.259 I-0.407 J-0.913
G1 X90.154 Y71.955
G2 X90.422 Y71.003 I-0.702 J-0.712
G3 X112.418 Y41.859 I22.848 J-5.629
G1 X157.113
G2 X158.086 Y41.091 J-1
G1 X158.737 Y38.363
X174.469
G2 X175.469 Y37.363 J-1
G1 Y2.259
G2 X174.469 Y1.259 I-1
G1 X58.4
Y1
G2 X57.4 Y0 I-1
G1 X22.4
G2 X21.4 Y1 J1
G1 Y6.7
G2 X22.4 Y7.7 I1
G1 X114.4
Y27.99
X88.703 Y36.971
X63.4
G2 X62.4 Y37.971 J1
G1 Y45.412
G2 X63.4 Y46.412 I1
G1 X69.4
G3 X81.717 Y54.007 J13.785
G1 Y54.008
G3 X80.611 Y66.085 I-10.216 J5.154
X72.33 Y71.045 I-10.777 J-8.601
G2 X72.191 Y71.081 I0.181 J0.983
G3 X57.505 Y72.705 I-11.053 J-32.734
G2 X57.403 Y72.7 I-0.105 J0.994
G3 X48.609 Y71.602 I0.122 J-36.75
X48.463 Y71.36 I0.049 J-0.194 F200
G1 X48.512 Y71.165
X48.524 Y71.115 Z0.007
X48.536 Y71.068 Z0.027
X48.546 Y71.028 Z0.059
X48.554 Y70.997 Z0.1
X48.559 Y70.978 Z0.148
X48.56 Y70.971 Z0.2
G0 Z19
M9
G28 G91 Z0
G28 X0 Y0
M30
%
