%
(1)
(T4  D=4.34 CR=0 - ZMIN=0 - flat end mill)
G90 G94
G17
G21
G28 G91 Z0
G90

(2D Contour1)
M9
T4 M6
S5000 M3
G54
M8
G0 X70.47 Y43.78
Z36
Z26
G1 Z22.5 F200
Z20.934 F333.3
X70.477 Z20.859
X70.496 Y43.779 Z20.786
X70.528 Y43.777 Z20.717
X70.572 Y43.774 Z20.655
X70.625 Y43.771 Z20.602
X70.687 Y43.767 Z20.558
X70.755 Y43.763 Z20.526
X70.828 Y43.758 Z20.507
X70.903 Y43.754 Z20.5
X71.337 Y43.727 F200
G3 X71.796 Y44.133 I0.027 J0.433
G2 X73.12 Y46 I2.166 J-0.133 F400
X71.797 Y47.867 I0.842 J2
G3 X11.204 Y44.133 I-30.297 J-1.867
X23.216 Y21.77 I30.297 J1.867
G2 X25.67 Y16.845 I-3.717 J-4.925
G1 Y11.17
X57.33
Y16.845
G2 X59.783 Y21.77 I6.17
G3 X71.796 Y44.133 I-18.283 J24.23
X71.39 Y44.593 I-0.433 J0.027 F200
G1 X70.957 Y44.62
X70.882 Y44.625 Z20.507
X70.809 Y44.629 Z20.526
X70.74 Y44.633 Z20.558
X70.678 Y44.637 Z20.602
X70.625 Y44.64 Z20.655
X70.582 Y44.643 Z20.717
X70.55 Y44.645 Z20.786
X70.53 Y44.646 Z20.859
X70.524 Y44.647 Z20.934
X70.47 Y43.78
Z20.434 F333.3
X70.477 Z20.359
X70.496 Y43.779 Z20.286
X70.528 Y43.777 Z20.217
X70.572 Y43.774 Z20.155
X70.625 Y43.771 Z20.102
X70.687 Y43.767 Z20.058
X70.755 Y43.763 Z20.026
X70.828 Y43.758 Z20.007
X70.903 Y43.754 Z20
X71.337 Y43.727 F200
G3 X71.796 Y44.133 I0.027 J0.433
G2 X73.12 Y46 I2.166 J-0.133 F400
X71.797 Y47.867 I0.842 J2
G3 X11.204 Y44.133 I-30.297 J-1.867
X23.216 Y21.77 I30.297 J1.867
G2 X25.67 Y16.845 I-3.717 J-4.925
G1 Y11.17
X57.33
Y16.845
G2 X59.783 Y21.77 I6.17
G3 X71.796 Y44.133 I-18.283 J24.23
X71.39 Y44.593 I-0.433 J0.027 F200
G1 X70.957 Y44.62
X70.882 Y44.625 Z20.007
X70.809 Y44.629 Z20.026
X70.74 Y44.633 Z20.058
X70.678 Y44.637 Z20.102
X70.625 Y44.64 Z20.155
X70.582 Y44.643 Z20.217
X70.55 Y44.645 Z20.286
X70.53 Y44.646 Z20.359
X70.524 Y44.647 Z20.434
X70.47 Y43.78
Z19.934 F333.3
X70.477 Z19.859
X70.496 Y43.779 Z19.786
X70.528 Y43.777 Z19.717
X70.572 Y43.774 Z19.655
X70.625 Y43.771 Z19.602
X70.687 Y43.767 Z19.558
X70.755 Y43.763 Z19.526
X70.828 Y43.758 Z19.507
X70.903 Y43.754 Z19.5
X71.337 Y43.727 F200
G3 X71.796 Y44.133 I0.027 J0.433
G2 X73.12 Y46 I2.166 J-0.133 F400
X71.797 Y47.867 I0.842 J2
G3 X11.204 Y44.133 I-30.297 J-1.867
X23.216 Y21.77 I30.297 J1.867
G2 X25.67 Y16.845 I-3.717 J-4.925
G1 Y11.17
X57.33
Y16.845
G2 X59.783 Y21.77 I6.17
G3 X71.796 Y44.133 I-18.283 J24.23
X71.39 Y44.593 I-0.433 J0.027 F200
G1 X70.957 Y44.62
X70.882 Y44.625 Z19.507
X70.809 Y44.629 Z19.526
X70.74 Y44.633 Z19.558
X70.678 Y44.637 Z19.602
X70.625 Y44.64 Z19.655
X70.582 Y44.643 Z19.717
X70.55 Y44.645 Z19.786
X70.53 Y44.646 Z19.859
X70.524 Y44.647 Z19.934
X70.47 Y43.78
Z19.434 F333.3
X70.477 Z19.359
X70.496 Y43.779 Z19.286
X70.528 Y43.777 Z19.217
X70.572 Y43.774 Z19.155
X70.625 Y43.771 Z19.102
X70.687 Y43.767 Z19.058
X70.755 Y43.763 Z19.026
X70.828 Y43.758 Z19.007
X70.903 Y43.754 Z19
X71.337 Y43.727 F200
G3 X71.796 Y44.133 I0.027 J0.433
G2 X73.12 Y46 I2.166 J-0.133 F400
X71.797 Y47.867 I0.842 J2
G3 X11.204 Y44.133 I-30.297 J-1.867
X23.216 Y21.77 I30.297 J1.867
G2 X25.67 Y16.845 I-3.717 J-4.925
G1 Y11.17
X57.33
Y16.845
G2 X59.783 Y21.77 I6.17
G3 X71.796 Y44.133 I-18.283 J24.23
X71.39 Y44.593 I-0.433 J0.027 F200
G1 X70.957 Y44.62
X70.882 Y44.625 Z19.007
X70.809 Y44.629 Z19.026
X70.74 Y44.633 Z19.058
X70.678 Y44.637 Z19.102
X70.625 Y44.64 Z19.155
X70.582 Y44.643 Z19.217
X70.55 Y44.645 Z19.286
X70.53 Y44.646 Z19.359
X70.524 Y44.647 Z19.434
X70.47 Y43.78
Z18.934 F333.3
X70.477 Z18.859
X70.496 Y43.779 Z18.786
X70.528 Y43.777 Z18.717
X70.572 Y43.774 Z18.655
X70.625 Y43.771 Z18.602
X70.687 Y43.767 Z18.558
X70.755 Y43.763 Z18.526
X70.828 Y43.758 Z18.507
X70.903 Y43.754 Z18.5
X71.337 Y43.727 F200
G3 X71.796 Y44.133 I0.027 J0.433
G2 X73.12 Y46 I2.166 J-0.133 F400
X71.797 Y47.867 I0.842 J2
G3 X11.204 Y44.133 I-30.297 J-1.867
X23.216 Y21.77 I30.297 J1.867
G2 X25.67 Y16.845 I-3.717 J-4.925
G1 Y11.17
X57.33
Y16.845
G2 X59.783 Y21.77 I6.17
G3 X71.796 Y44.133 I-18.283 J24.23
X71.39 Y44.593 I-0.433 J0.027 F200
G1 X70.957 Y44.62
X70.882 Y44.625 Z18.507
X70.809 Y44.629 Z18.526
X70.74 Y44.633 Z18.558
X70.678 Y44.637 Z18.602
X70.625 Y44.64 Z18.655
X70.582 Y44.643 Z18.717
X70.55 Y44.645 Z18.786
X70.53 Y44.646 Z18.859
X70.524 Y44.647 Z18.934
X70.47 Y43.78
Z18.434 F333.3
X70.477 Z18.359
X70.496 Y43.779 Z18.286
X70.528 Y43.777 Z18.217
X70.572 Y43.774 Z18.155
X70.625 Y43.771 Z18.102
X70.687 Y43.767 Z18.058
X70.755 Y43.763 Z18.026
X70.828 Y43.758 Z18.007
X70.903 Y43.754 Z18
X71.337 Y43.727 F200
G3 X71.796 Y44.133 I0.027 J0.433
G2 X73.12 Y46 I2.166 J-0.133 F400
X71.797 Y47.867 I0.842 J2
G3 X11.204 Y44.133 I-30.297 J-1.867
X23.216 Y21.77 I30.297 J1.867
G2 X25.67 Y16.845 I-3.717 J-4.925
G1 Y11.17
X57.33
Y16.845
G2 X59.783 Y21.77 I6.17
G3 X71.796 Y44.133 I-18.283 J24.23
X71.39 Y44.593 I-0.433 J0.027 F200
G1 X70.957 Y44.62
X70.882 Y44.625 Z18.007
X70.809 Y44.629 Z18.026
X70.74 Y44.633 Z18.058
X70.678 Y44.637 Z18.102
X70.625 Y44.64 Z18.155
X70.582 Y44.643 Z18.217
X70.55 Y44.645 Z18.286
X70.53 Y44.646 Z18.359
X70.524 Y44.647 Z18.434
X70.47 Y43.78
Z17.934 F333.3
X70.477 Z17.859
X70.496 Y43.779 Z17.786
X70.528 Y43.777 Z17.717
X70.572 Y43.774 Z17.655
X70.625 Y43.771 Z17.602
X70.687 Y43.767 Z17.558
X70.755 Y43.763 Z17.526
X70.828 Y43.758 Z17.507
X70.903 Y43.754 Z17.5
X71.337 Y43.727 F200
G3 X71.796 Y44.133 I0.027 J0.433
G2 X73.12 Y46 I2.166 J-0.133 F400
X71.797 Y47.867 I0.842 J2
G3 X11.204 Y44.133 I-30.297 J-1.867
X23.216 Y21.77 I30.297 J1.867
G2 X25.67 Y16.845 I-3.717 J-4.925
G1 Y11.17
X57.33
Y16.845
G2 X59.783 Y21.77 I6.17
G3 X71.796 Y44.133 I-18.283 J24.23
X71.39 Y44.593 I-0.433 J0.027 F200
G1 X70.957 Y44.62
X70.882 Y44.625 Z17.507
X70.809 Y44.629 Z17.526
X70.74 Y44.633 Z17.558
X70.678 Y44.637 Z17.602
X70.625 Y44.64 Z17.655
X70.582 Y44.643 Z17.717
X70.55 Y44.645 Z17.786
X70.53 Y44.646 Z17.859
X70.524 Y44.647 Z17.934
X70.47 Y43.78
Z17.434 F333.3
X70.477 Z17.359
X70.496 Y43.779 Z17.286
X70.528 Y43.777 Z17.217
X70.572 Y43.774 Z17.155
X70.625 Y43.771 Z17.102
X70.687 Y43.767 Z17.058
X70.755 Y43.763 Z17.026
X70.828 Y43.758 Z17.007
X70.903 Y43.754 Z17
X71.337 Y43.727 F200
G3 X71.796 Y44.133 I0.027 J0.433
G2 X73.12 Y46 I2.166 J-0.133 F400
X71.797 Y47.867 I0.842 J2
G3 X11.204 Y44.133 I-30.297 J-1.867
X23.216 Y21.77 I30.297 J1.867
G2 X25.67 Y16.845 I-3.717 J-4.925
G1 Y11.17
X57.33
Y16.845
G2 X59.783 Y21.77 I6.17
G3 X71.796 Y44.133 I-18.283 J24.23
X71.39 Y44.593 I-0.433 J0.027 F200
G1 X70.957 Y44.62
X70.882 Y44.625 Z17.007
X70.809 Y44.629 Z17.026
X70.74 Y44.633 Z17.058
X70.678 Y44.637 Z17.102
X70.625 Y44.64 Z17.155
X70.582 Y44.643 Z17.217
X70.55 Y44.645 Z17.286
X70.53 Y44.646 Z17.359
X70.524 Y44.647 Z17.434
X70.47 Y43.78
Z16.934 F333.3
X70.477 Z16.859
X70.496 Y43.779 Z16.786
X70.528 Y43.777 Z16.717
X70.572 Y43.774 Z16.655
X70.625 Y43.771 Z16.602
X70.687 Y43.767 Z16.558
X70.755 Y43.763 Z16.526
X70.828 Y43.758 Z16.507
X70.903 Y43.754 Z16.5
X71.337 Y43.727 F200
G3 X71.796 Y44.133 I0.027 J0.433
G2 X73.12 Y46 I2.166 J-0.133 F400
X71.797 Y47.867 I0.842 J2
G3 X11.204 Y44.133 I-30.297 J-1.867
X23.216 Y21.77 I30.297 J1.867
G2 X25.67 Y16.845 I-3.717 J-4.925
G1 Y11.17
X57.33
Y16.845
G2 X59.783 Y21.77 I6.17
G3 X71.796 Y44.133 I-18.283 J24.23
X71.39 Y44.593 I-0.433 J0.027 F200
G1 X70.957 Y44.62
X70.882 Y44.625 Z16.507
X70.809 Y44.629 Z16.526
X70.74 Y44.633 Z16.558
X70.678 Y44.637 Z16.602
X70.625 Y44.64 Z16.655
X70.582 Y44.643 Z16.717
X70.55 Y44.645 Z16.786
X70.53 Y44.646 Z16.859
X70.524 Y44.647 Z16.934
X70.47 Y43.78
Z16.434 F333.3
X70.477 Z16.359
X70.496 Y43.779 Z16.286
X70.528 Y43.777 Z16.217
X70.572 Y43.774 Z16.155
X70.625 Y43.771 Z16.102
X70.687 Y43.767 Z16.058
X70.755 Y43.763 Z16.026
X70.828 Y43.758 Z16.007
X70.903 Y43.754 Z16
X71.337 Y43.727 F200
G3 X71.796 Y44.133 I0.027 J0.433
G2 X73.12 Y46 I2.166 J-0.133 F400
X71.797 Y47.867 I0.842 J2
G3 X11.204 Y44.133 I-30.297 J-1.867
X23.216 Y21.77 I30.297 J1.867
G2 X25.67 Y16.845 I-3.717 J-4.925
G1 Y11.17
X57.33
Y16.845
G2 X59.783 Y21.77 I6.17
G3 X71.796 Y44.133 I-18.283 J24.23
X71.39 Y44.593 I-0.433 J0.027 F200
G1 X70.957 Y44.62
X70.882 Y44.625 Z16.007
X70.809 Y44.629 Z16.026
X70.74 Y44.633 Z16.058
X70.678 Y44.637 Z16.102
X70.625 Y44.64 Z16.155
X70.582 Y44.643 Z16.217
X70.55 Y44.645 Z16.286
X70.53 Y44.646 Z16.359
X70.524 Y44.647 Z16.434
X70.47 Y43.78
Z15.934 F333.3
X70.477 Z15.859
X70.496 Y43.779 Z15.786
X70.528 Y43.777 Z15.717
X70.572 Y43.774 Z15.655
X70.625 Y43.771 Z15.602
X70.687 Y43.767 Z15.558
X70.755 Y43.763 Z15.526
X70.828 Y43.758 Z15.507
X70.903 Y43.754 Z15.5
X71.337 Y43.727 F200
G3 X71.796 Y44.133 I0.027 J0.433
G2 X73.12 Y46 I2.166 J-0.133 F400
X71.797 Y47.867 I0.842 J2
G3 X11.204 Y44.133 I-30.297 J-1.867
X23.216 Y21.77 I30.297 J1.867
G2 X25.67 Y16.845 I-3.717 J-4.925
G1 Y11.17
X57.33
Y16.845
G2 X59.783 Y21.77 I6.17
G3 X71.796 Y44.133 I-18.283 J24.23
X71.39 Y44.593 I-0.433 J0.027 F200
G1 X70.957 Y44.62
X70.882 Y44.625 Z15.507
X70.809 Y44.629 Z15.526
X70.74 Y44.633 Z15.558
X70.678 Y44.637 Z15.602
X70.625 Y44.64 Z15.655
X70.582 Y44.643 Z15.717
X70.55 Y44.645 Z15.786
X70.53 Y44.646 Z15.859
X70.524 Y44.647 Z15.934
X70.47 Y43.78
Z15.434 F333.3
X70.477 Z15.359
X70.496 Y43.779 Z15.286
X70.528 Y43.777 Z15.217
X70.572 Y43.774 Z15.155
X70.625 Y43.771 Z15.102
X70.687 Y43.767 Z15.058
X70.755 Y43.763 Z15.026
X70.828 Y43.758 Z15.007
X70.903 Y43.754 Z15
X71.337 Y43.727 F200
G3 X71.796 Y44.133 I0.027 J0.433
G2 X73.12 Y46 I2.166 J-0.133 F400
X71.797 Y47.867 I0.842 J2
G3 X11.204 Y44.133 I-30.297 J-1.867
X23.216 Y21.77 I30.297 J1.867
G2 X25.67 Y16.845 I-3.717 J-4.925
G1 Y11.17
X57.33
Y16.845
G2 X59.783 Y21.77 I6.17
G3 X71.796 Y44.133 I-18.283 J24.23
X71.39 Y44.593 I-0.433 J0.027 F200
G1 X70.957 Y44.62
X70.882 Y44.625 Z15.007
X70.809 Y44.629 Z15.026
X70.74 Y44.633 Z15.058
X70.678 Y44.637 Z15.102
X70.625 Y44.64 Z15.155
X70.582 Y44.643 Z15.217
X70.55 Y44.645 Z15.286
X70.53 Y44.646 Z15.359
X70.524 Y44.647 Z15.434
X70.47 Y43.78
Z14.934 F333.3
X70.477 Z14.859
X70.496 Y43.779 Z14.786
X70.528 Y43.777 Z14.717
X70.572 Y43.774 Z14.655
X70.625 Y43.771 Z14.602
X70.687 Y43.767 Z14.558
X70.755 Y43.763 Z14.526
X70.828 Y43.758 Z14.507
X70.903 Y43.754 Z14.5
X71.337 Y43.727 F200
G3 X71.796 Y44.133 I0.027 J0.433
G2 X73.12 Y46 I2.166 J-0.133 F400
X71.797 Y47.867 I0.842 J2
G3 X11.204 Y44.133 I-30.297 J-1.867
X23.216 Y21.77 I30.297 J1.867
G2 X25.67 Y16.845 I-3.717 J-4.925
G1 Y11.17
X57.33
Y16.845
G2 X59.783 Y21.77 I6.17
G3 X71.796 Y44.133 I-18.283 J24.23
X71.39 Y44.593 I-0.433 J0.027 F200
G1 X70.957 Y44.62
X70.882 Y44.625 Z14.507
X70.809 Y44.629 Z14.526
X70.74 Y44.633 Z14.558
X70.678 Y44.637 Z14.602
X70.625 Y44.64 Z14.655
X70.582 Y44.643 Z14.717
X70.55 Y44.645 Z14.786
X70.53 Y44.646 Z14.859
X70.524 Y44.647 Z14.934
X70.47 Y43.78
Z14.434 F333.3
X70.477 Z14.359
X70.496 Y43.779 Z14.286
X70.528 Y43.777 Z14.217
X70.572 Y43.774 Z14.155
X70.625 Y43.771 Z14.102
X70.687 Y43.767 Z14.058
X70.755 Y43.763 Z14.026
X70.828 Y43.758 Z14.007
X70.903 Y43.754 Z14
X71.337 Y43.727 F200
G3 X71.796 Y44.133 I0.027 J0.433
G2 X73.12 Y46 I2.166 J-0.133 F400
X71.797 Y47.867 I0.842 J2
G3 X11.204 Y44.133 I-30.297 J-1.867
X23.216 Y21.77 I30.297 J1.867
G2 X25.67 Y16.845 I-3.717 J-4.925
G1 Y11.17
X57.33
Y16.845
G2 X59.783 Y21.77 I6.17
G3 X71.796 Y44.133 I-18.283 J24.23
X71.39 Y44.593 I-0.433 J0.027 F200
G1 X70.957 Y44.62
X70.882 Y44.625 Z14.007
X70.809 Y44.629 Z14.026
X70.74 Y44.633 Z14.058
X70.678 Y44.637 Z14.102
X70.625 Y44.64 Z14.155
X70.582 Y44.643 Z14.217
X70.55 Y44.645 Z14.286
X70.53 Y44.646 Z14.359
X70.524 Y44.647 Z14.434
X70.47 Y43.78
Z13.934 F333.3
X70.477 Z13.859
X70.496 Y43.779 Z13.786
X70.528 Y43.777 Z13.717
X70.572 Y43.774 Z13.655
X70.625 Y43.771 Z13.602
X70.687 Y43.767 Z13.558
X70.755 Y43.763 Z13.526
X70.828 Y43.758 Z13.507
X70.903 Y43.754 Z13.5
X71.337 Y43.727 F200
G3 X71.796 Y44.133 I0.027 J0.433
G2 X73.12 Y46 I2.166 J-0.133 F400
X71.797 Y47.867 I0.842 J2
G3 X11.204 Y44.133 I-30.297 J-1.867
X23.216 Y21.77 I30.297 J1.867
G2 X25.67 Y16.845 I-3.717 J-4.925
G1 Y11.17
X57.33
Y16.845
G2 X59.783 Y21.77 I6.17
G3 X71.796 Y44.133 I-18.283 J24.23
X71.39 Y44.593 I-0.433 J0.027 F200
G1 X70.957 Y44.62
X70.882 Y44.625 Z13.507
X70.809 Y44.629 Z13.526
X70.74 Y44.633 Z13.558
X70.678 Y44.637 Z13.602
X70.625 Y44.64 Z13.655
X70.582 Y44.643 Z13.717
X70.55 Y44.645 Z13.786
X70.53 Y44.646 Z13.859
X70.524 Y44.647 Z13.934
X70.47 Y43.78
Z13.434 F333.3
X70.477 Z13.359
X70.496 Y43.779 Z13.286
X70.528 Y43.777 Z13.217
X70.572 Y43.774 Z13.155
X70.625 Y43.771 Z13.102
X70.687 Y43.767 Z13.058
X70.755 Y43.763 Z13.026
X70.828 Y43.758 Z13.007
X70.903 Y43.754 Z13
X71.337 Y43.727 F200
G3 X71.796 Y44.133 I0.027 J0.433
G2 X73.12 Y46 I2.166 J-0.133 F400
X71.797 Y47.867 I0.842 J2
G3 X11.204 Y44.133 I-30.297 J-1.867
X23.216 Y21.77 I30.297 J1.867
G2 X25.67 Y16.845 I-3.717 J-4.925
G1 Y11.17
X57.33
Y16.845
G2 X59.783 Y21.77 I6.17
G3 X71.796 Y44.133 I-18.283 J24.23
X71.39 Y44.593 I-0.433 J0.027 F200
G1 X70.957 Y44.62
X70.882 Y44.625 Z13.007
X70.809 Y44.629 Z13.026
X70.74 Y44.633 Z13.058
X70.678 Y44.637 Z13.102
X70.625 Y44.64 Z13.155
X70.582 Y44.643 Z13.217
X70.55 Y44.645 Z13.286
X70.53 Y44.646 Z13.359
X70.524 Y44.647 Z13.434
X70.47 Y43.78
Z12.934 F333.3
X70.477 Z12.859
X70.496 Y43.779 Z12.786
X70.528 Y43.777 Z12.717
X70.572 Y43.774 Z12.655
X70.625 Y43.771 Z12.602
X70.687 Y43.767 Z12.558
X70.755 Y43.763 Z12.526
X70.828 Y43.758 Z12.507
X70.903 Y43.754 Z12.5
X71.337 Y43.727 F200
G3 X71.796 Y44.133 I0.027 J0.433
G2 X73.12 Y46 I2.166 J-0.133 F400
X71.797 Y47.867 I0.842 J2
G3 X11.204 Y44.133 I-30.297 J-1.867
X23.216 Y21.77 I30.297 J1.867
G2 X25.67 Y16.845 I-3.717 J-4.925
G1 Y11.17
X57.33
Y16.845
G2 X59.783 Y21.77 I6.17
G3 X71.796 Y44.133 I-18.283 J24.23
X71.39 Y44.593 I-0.433 J0.027 F200
G1 X70.957 Y44.62
X70.882 Y44.625 Z12.507
X70.809 Y44.629 Z12.526
X70.74 Y44.633 Z12.558
X70.678 Y44.637 Z12.602
X70.625 Y44.64 Z12.655
X70.582 Y44.643 Z12.717
X70.55 Y44.645 Z12.786
X70.53 Y44.646 Z12.859
X70.524 Y44.647 Z12.934
X70.47 Y43.78
Z12.434 F333.3
X70.477 Z12.359
X70.496 Y43.779 Z12.286
X70.528 Y43.777 Z12.217
X70.572 Y43.774 Z12.155
X70.625 Y43.771 Z12.102
X70.687 Y43.767 Z12.058
X70.755 Y43.763 Z12.026
X70.828 Y43.758 Z12.007
X70.903 Y43.754 Z12
X71.337 Y43.727 F200
G3 X71.796 Y44.133 I0.027 J0.433
G2 X73.12 Y46 I2.166 J-0.133 F400
X71.797 Y47.867 I0.842 J2
G3 X11.204 Y44.133 I-30.297 J-1.867
X23.216 Y21.77 I30.297 J1.867
G2 X25.67 Y16.845 I-3.717 J-4.925
G1 Y11.17
X57.33
Y16.845
G2 X59.783 Y21.77 I6.17
G3 X71.796 Y44.133 I-18.283 J24.23
X71.39 Y44.593 I-0.433 J0.027 F200
G1 X70.957 Y44.62
X70.882 Y44.625 Z12.007
X70.809 Y44.629 Z12.026
X70.74 Y44.633 Z12.058
X70.678 Y44.637 Z12.102
X70.625 Y44.64 Z12.155
X70.582 Y44.643 Z12.217
X70.55 Y44.645 Z12.286
X70.53 Y44.646 Z12.359
X70.524 Y44.647 Z12.434
X70.47 Y43.78
Z11.934 F333.3
X70.477 Z11.859
X70.496 Y43.779 Z11.786
X70.528 Y43.777 Z11.717
X70.572 Y43.774 Z11.655
X70.625 Y43.771 Z11.602
X70.687 Y43.767 Z11.558
X70.755 Y43.763 Z11.526
X70.828 Y43.758 Z11.507
X70.903 Y43.754 Z11.5
X71.337 Y43.727 F200
G3 X71.796 Y44.133 I0.027 J0.433
G2 X73.12 Y46 I2.166 J-0.133 F400
X71.797 Y47.867 I0.842 J2
G3 X11.204 Y44.133 I-30.297 J-1.867
X23.216 Y21.77 I30.297 J1.867
G2 X25.67 Y16.845 I-3.717 J-4.925
G1 Y11.17
X57.33
Y16.845
G2 X59.783 Y21.77 I6.17
G3 X71.796 Y44.133 I-18.283 J24.23
X71.39 Y44.593 I-0.433 J0.027 F200
G1 X70.957 Y44.62
X70.882 Y44.625 Z11.507
X70.809 Y44.629 Z11.526
X70.74 Y44.633 Z11.558
X70.678 Y44.637 Z11.602
X70.625 Y44.64 Z11.655
X70.582 Y44.643 Z11.717
X70.55 Y44.645 Z11.786
X70.53 Y44.646 Z11.859
X70.524 Y44.647 Z11.934
X70.47 Y43.78
Z11.434 F333.3
X70.477 Z11.359
X70.496 Y43.779 Z11.286
X70.528 Y43.777 Z11.217
X70.572 Y43.774 Z11.155
X70.625 Y43.771 Z11.102
X70.687 Y43.767 Z11.058
X70.755 Y43.763 Z11.026
X70.828 Y43.758 Z11.007
X70.903 Y43.754 Z11
X71.337 Y43.727 F200
G3 X71.796 Y44.133 I0.027 J0.433
G2 X73.12 Y46 I2.166 J-0.133 F400
X71.797 Y47.867 I0.842 J2
G3 X11.204 Y44.133 I-30.297 J-1.867
X23.216 Y21.77 I30.297 J1.867
G2 X25.67 Y16.845 I-3.717 J-4.925
G1 Y11.17
X57.33
Y16.845
G2 X59.783 Y21.77 I6.17
G3 X71.796 Y44.133 I-18.283 J24.23
X71.39 Y44.593 I-0.433 J0.027 F200
G1 X70.957 Y44.62
X70.882 Y44.625 Z11.007
X70.809 Y44.629 Z11.026
X70.74 Y44.633 Z11.058
X70.678 Y44.637 Z11.102
X70.625 Y44.64 Z11.155
X70.582 Y44.643 Z11.217
X70.55 Y44.645 Z11.286
X70.53 Y44.646 Z11.359
X70.524 Y44.647 Z11.434
X70.47 Y43.78
Z10.934 F333.3
X70.477 Z10.859
X70.496 Y43.779 Z10.786
X70.528 Y43.777 Z10.717
X70.572 Y43.774 Z10.655
X70.625 Y43.771 Z10.602
X70.687 Y43.767 Z10.558
X70.755 Y43.763 Z10.526
X70.828 Y43.758 Z10.507
X70.903 Y43.754 Z10.5
X71.337 Y43.727 F200
G3 X71.796 Y44.133 I0.027 J0.433
G2 X73.12 Y46 I2.166 J-0.133 F400
X71.797 Y47.867 I0.842 J2
G3 X11.204 Y44.133 I-30.297 J-1.867
X23.216 Y21.77 I30.297 J1.867
G2 X25.67 Y16.845 I-3.717 J-4.925
G1 Y11.17
X57.33
Y16.845
G2 X59.783 Y21.77 I6.17
G3 X71.796 Y44.133 I-18.283 J24.23
X71.39 Y44.593 I-0.433 J0.027 F200
G1 X70.957 Y44.62
X70.882 Y44.625 Z10.507
X70.809 Y44.629 Z10.526
X70.74 Y44.633 Z10.558
X70.678 Y44.637 Z10.602
X70.625 Y44.64 Z10.655
X70.582 Y44.643 Z10.717
X70.55 Y44.645 Z10.786
X70.53 Y44.646 Z10.859
X70.524 Y44.647 Z10.934
X70.47 Y43.78
Z10.434 F333.3
X70.477 Z10.359
X70.496 Y43.779 Z10.286
X70.528 Y43.777 Z10.217
X70.572 Y43.774 Z10.155
X70.625 Y43.771 Z10.102
X70.687 Y43.767 Z10.058
X70.755 Y43.763 Z10.026
X70.828 Y43.758 Z10.007
X70.903 Y43.754 Z10
X71.337 Y43.727 F200
G3 X71.796 Y44.133 I0.027 J0.433
G2 X73.12 Y46 I2.166 J-0.133 F400
X71.797 Y47.867 I0.842 J2
G3 X11.204 Y44.133 I-30.297 J-1.867
X23.216 Y21.77 I30.297 J1.867
G2 X25.67 Y16.845 I-3.717 J-4.925
G1 Y11.17
X57.33
Y16.845
G2 X59.783 Y21.77 I6.17
G3 X71.796 Y44.133 I-18.283 J24.23
X71.39 Y44.593 I-0.433 J0.027 F200
G1 X70.957 Y44.62
X70.882 Y44.625 Z10.007
X70.809 Y44.629 Z10.026
X70.74 Y44.633 Z10.058
X70.678 Y44.637 Z10.102
X70.625 Y44.64 Z10.155
X70.582 Y44.643 Z10.217
X70.55 Y44.645 Z10.286
X70.53 Y44.646 Z10.359
X70.524 Y44.647 Z10.434
X70.47 Y43.78
Z9.934 F333.3
X70.477 Z9.859
X70.496 Y43.779 Z9.786
X70.528 Y43.777 Z9.717
X70.572 Y43.774 Z9.655
X70.625 Y43.771 Z9.602
X70.687 Y43.767 Z9.558
X70.755 Y43.763 Z9.526
X70.828 Y43.758 Z9.507
X70.903 Y43.754 Z9.5
X71.337 Y43.727 F200
G3 X71.796 Y44.133 I0.027 J0.433
G2 X73.12 Y46 I2.166 J-0.133 F400
X71.797 Y47.867 I0.842 J2
G3 X11.204 Y44.133 I-30.297 J-1.867
X23.216 Y21.77 I30.297 J1.867
G2 X25.67 Y16.845 I-3.717 J-4.925
G1 Y11.17
X57.33
Y16.845
G2 X59.783 Y21.77 I6.17
G3 X71.796 Y44.133 I-18.283 J24.23
X71.39 Y44.593 I-0.433 J0.027 F200
G1 X70.957 Y44.62
X70.882 Y44.625 Z9.507
X70.809 Y44.629 Z9.526
X70.74 Y44.633 Z9.558
X70.678 Y44.637 Z9.602
X70.625 Y44.64 Z9.655
X70.582 Y44.643 Z9.717
X70.55 Y44.645 Z9.786
X70.53 Y44.646 Z9.859
X70.524 Y44.647 Z9.934
X70.47 Y43.78
Z9.434 F333.3
X70.477 Z9.359
X70.496 Y43.779 Z9.286
X70.528 Y43.777 Z9.217
X70.572 Y43.774 Z9.155
X70.625 Y43.771 Z9.102
X70.687 Y43.767 Z9.058
X70.755 Y43.763 Z9.026
X70.828 Y43.758 Z9.007
X70.903 Y43.754 Z9
X71.337 Y43.727 F200
G3 X71.796 Y44.133 I0.027 J0.433
G2 X73.12 Y46 I2.166 J-0.133 F400
X71.797 Y47.867 I0.842 J2
G3 X11.204 Y44.133 I-30.297 J-1.867
X23.216 Y21.77 I30.297 J1.867
G2 X25.67 Y16.845 I-3.717 J-4.925
G1 Y11.17
X57.33
Y16.845
G2 X59.783 Y21.77 I6.17
G3 X71.796 Y44.133 I-18.283 J24.23
X71.39 Y44.593 I-0.433 J0.027 F200
G1 X70.957 Y44.62
X70.882 Y44.625 Z9.007
X70.809 Y44.629 Z9.026
X70.74 Y44.633 Z9.058
X70.678 Y44.637 Z9.102
X70.625 Y44.64 Z9.155
X70.582 Y44.643 Z9.217
X70.55 Y44.645 Z9.286
X70.53 Y44.646 Z9.359
X70.524 Y44.647 Z9.434
X70.47 Y43.78
Z8.934 F333.3
X70.477 Z8.859
X70.496 Y43.779 Z8.786
X70.528 Y43.777 Z8.717
X70.572 Y43.774 Z8.655
X70.625 Y43.771 Z8.602
X70.687 Y43.767 Z8.558
X70.755 Y43.763 Z8.526
X70.828 Y43.758 Z8.507
X70.903 Y43.754 Z8.5
X71.337 Y43.727 F200
G3 X71.796 Y44.133 I0.027 J0.433
G2 X73.12 Y46 I2.166 J-0.133 F400
X71.797 Y47.867 I0.842 J2
G3 X11.204 Y44.133 I-30.297 J-1.867
X23.216 Y21.77 I30.297 J1.867
G2 X25.67 Y16.845 I-3.717 J-4.925
G1 Y11.17
X57.33
Y16.845
G2 X59.783 Y21.77 I6.17
G3 X71.796 Y44.133 I-18.283 J24.23
X71.39 Y44.593 I-0.433 J0.027 F200
G1 X70.957 Y44.62
X70.882 Y44.625 Z8.507
X70.809 Y44.629 Z8.526
X70.74 Y44.633 Z8.558
X70.678 Y44.637 Z8.602
X70.625 Y44.64 Z8.655
X70.582 Y44.643 Z8.717
X70.55 Y44.645 Z8.786
X70.53 Y44.646 Z8.859
X70.524 Y44.647 Z8.934
X70.47 Y43.78
Z8.434 F333.3
X70.477 Z8.359
X70.496 Y43.779 Z8.286
X70.528 Y43.777 Z8.217
X70.572 Y43.774 Z8.155
X70.625 Y43.771 Z8.102
X70.687 Y43.767 Z8.058
X70.755 Y43.763 Z8.026
X70.828 Y43.758 Z8.007
X70.903 Y43.754 Z8
X71.337 Y43.727 F200
G3 X71.796 Y44.133 I0.027 J0.433
G2 X73.12 Y46 I2.166 J-0.133 F400
X71.797 Y47.867 I0.842 J2
G3 X11.204 Y44.133 I-30.297 J-1.867
X23.216 Y21.77 I30.297 J1.867
G2 X25.67 Y16.845 I-3.717 J-4.925
G1 Y11.17
X57.33
Y16.845
G2 X59.783 Y21.77 I6.17
G3 X71.796 Y44.133 I-18.283 J24.23
X71.39 Y44.593 I-0.433 J0.027 F200
G1 X70.957 Y44.62
X70.882 Y44.625 Z8.007
X70.809 Y44.629 Z8.026
X70.74 Y44.633 Z8.058
X70.678 Y44.637 Z8.102
X70.625 Y44.64 Z8.155
X70.582 Y44.643 Z8.217
X70.55 Y44.645 Z8.286
X70.53 Y44.646 Z8.359
X70.524 Y44.647 Z8.434
X70.47 Y43.78
Z7.934 F333.3
X70.477 Z7.859
X70.496 Y43.779 Z7.786
X70.528 Y43.777 Z7.717
X70.572 Y43.774 Z7.655
X70.625 Y43.771 Z7.602
X70.687 Y43.767 Z7.558
X70.755 Y43.763 Z7.526
X70.828 Y43.758 Z7.507
X70.903 Y43.754 Z7.5
X71.337 Y43.727 F200
G3 X71.796 Y44.133 I0.027 J0.433
G2 X73.12 Y46 I2.166 J-0.133 F400
X71.797 Y47.867 I0.842 J2
G3 X11.204 Y44.133 I-30.297 J-1.867
X23.216 Y21.77 I30.297 J1.867
G2 X25.67 Y16.845 I-3.717 J-4.925
G1 Y11.17
X57.33
Y16.845
G2 X59.783 Y21.77 I6.17
G3 X71.796 Y44.133 I-18.283 J24.23
X71.39 Y44.593 I-0.433 J0.027 F200
G1 X70.957 Y44.62
X70.882 Y44.625 Z7.507
X70.809 Y44.629 Z7.526
X70.74 Y44.633 Z7.558
X70.678 Y44.637 Z7.602
X70.625 Y44.64 Z7.655
X70.582 Y44.643 Z7.717
X70.55 Y44.645 Z7.786
X70.53 Y44.646 Z7.859
X70.524 Y44.647 Z7.934
X70.47 Y43.78
Z7.434 F333.3
X70.477 Z7.359
X70.496 Y43.779 Z7.286
X70.528 Y43.777 Z7.217
X70.572 Y43.774 Z7.155
X70.625 Y43.771 Z7.102
X70.687 Y43.767 Z7.058
X70.755 Y43.763 Z7.026
X70.828 Y43.758 Z7.007
X70.903 Y43.754 Z7
X71.337 Y43.727 F200
G3 X71.796 Y44.133 I0.027 J0.433
G2 X73.12 Y46 I2.166 J-0.133 F400
X71.797 Y47.867 I0.842 J2
G3 X11.204 Y44.133 I-30.297 J-1.867
X23.216 Y21.77 I30.297 J1.867
G2 X25.67 Y16.845 I-3.717 J-4.925
G1 Y11.17
X57.33
Y16.845
G2 X59.783 Y21.77 I6.17
G3 X71.796 Y44.133 I-18.283 J24.23
X71.39 Y44.593 I-0.433 J0.027 F200
G1 X70.957 Y44.62
X70.882 Y44.625 Z7.007
X70.809 Y44.629 Z7.026
X70.74 Y44.633 Z7.058
X70.678 Y44.637 Z7.102
X70.625 Y44.64 Z7.155
X70.582 Y44.643 Z7.217
X70.55 Y44.645 Z7.286
X70.53 Y44.646 Z7.359
X70.524 Y44.647 Z7.434
X70.47 Y43.78
Z6.934 F333.3
X70.477 Z6.859
X70.496 Y43.779 Z6.786
X70.528 Y43.777 Z6.717
X70.572 Y43.774 Z6.655
X70.625 Y43.771 Z6.602
X70.687 Y43.767 Z6.558
X70.755 Y43.763 Z6.526
X70.828 Y43.758 Z6.507
X70.903 Y43.754 Z6.5
X71.337 Y43.727 F200
G3 X71.796 Y44.133 I0.027 J0.433
G2 X73.12 Y46 I2.166 J-0.133 F400
X71.797 Y47.867 I0.842 J2
G3 X11.204 Y44.133 I-30.297 J-1.867
X23.216 Y21.77 I30.297 J1.867
G2 X25.67 Y16.845 I-3.717 J-4.925
G1 Y11.17
X57.33
Y16.845
G2 X59.783 Y21.77 I6.17
G3 X71.796 Y44.133 I-18.283 J24.23
X71.39 Y44.593 I-0.433 J0.027 F200
G1 X70.957 Y44.62
X70.882 Y44.625 Z6.507
X70.809 Y44.629 Z6.526
X70.74 Y44.633 Z6.558
X70.678 Y44.637 Z6.602
X70.625 Y44.64 Z6.655
X70.582 Y44.643 Z6.717
X70.55 Y44.645 Z6.786
X70.53 Y44.646 Z6.859
X70.524 Y44.647 Z6.934
X70.47 Y43.78
Z6.434 F333.3
X70.477 Z6.359
X70.496 Y43.779 Z6.286
X70.528 Y43.777 Z6.217
X70.572 Y43.774 Z6.155
X70.625 Y43.771 Z6.102
X70.687 Y43.767 Z6.058
X70.755 Y43.763 Z6.026
X70.828 Y43.758 Z6.007
X70.903 Y43.754 Z6
X71.337 Y43.727 F200
G3 X71.796 Y44.133 I0.027 J0.433
G2 X73.12 Y46 I2.166 J-0.133 F400
X71.797 Y47.867 I0.842 J2
G3 X11.204 Y44.133 I-30.297 J-1.867
X23.216 Y21.77 I30.297 J1.867
G2 X25.67 Y16.845 I-3.717 J-4.925
G1 Y11.17
X57.33
Y16.845
G2 X59.783 Y21.77 I6.17
G3 X71.796 Y44.133 I-18.283 J24.23
X71.39 Y44.593 I-0.433 J0.027 F200
G1 X70.957 Y44.62
X70.882 Y44.625 Z6.007
X70.809 Y44.629 Z6.026
X70.74 Y44.633 Z6.058
X70.678 Y44.637 Z6.102
X70.625 Y44.64 Z6.155
X70.582 Y44.643 Z6.217
X70.55 Y44.645 Z6.286
X70.53 Y44.646 Z6.359
X70.524 Y44.647 Z6.434
X70.47 Y43.78
Z5.934 F333.3
X70.477 Z5.859
X70.496 Y43.779 Z5.786
X70.528 Y43.777 Z5.717
X70.572 Y43.774 Z5.655
X70.625 Y43.771 Z5.602
X70.687 Y43.767 Z5.558
X70.755 Y43.763 Z5.526
X70.828 Y43.758 Z5.507
X70.903 Y43.754 Z5.5
X71.337 Y43.727 F200
G3 X71.796 Y44.133 I0.027 J0.433
G2 X73.12 Y46 I2.166 J-0.133 F400
X71.797 Y47.867 I0.842 J2
G3 X11.204 Y44.133 I-30.297 J-1.867
X23.216 Y21.77 I30.297 J1.867
G2 X25.67 Y16.845 I-3.717 J-4.925
G1 Y11.17
X57.33
Y16.845
G2 X59.783 Y21.77 I6.17
G3 X71.796 Y44.133 I-18.283 J24.23
X71.39 Y44.593 I-0.433 J0.027 F200
G1 X70.957 Y44.62
X70.882 Y44.625 Z5.507
X70.809 Y44.629 Z5.526
X70.74 Y44.633 Z5.558
X70.678 Y44.637 Z5.602
X70.625 Y44.64 Z5.655
X70.582 Y44.643 Z5.717
X70.55 Y44.645 Z5.786
X70.53 Y44.646 Z5.859
X70.524 Y44.647 Z5.934
X70.47 Y43.78
Z5.434 F333.3
X70.477 Z5.359
X70.496 Y43.779 Z5.286
X70.528 Y43.777 Z5.217
X70.572 Y43.774 Z5.155
X70.625 Y43.771 Z5.102
X70.687 Y43.767 Z5.058
X70.755 Y43.763 Z5.026
X70.828 Y43.758 Z5.007
X70.903 Y43.754 Z5
X71.337 Y43.727 F200
G3 X71.796 Y44.133 I0.027 J0.433
G2 X73.12 Y46 I2.166 J-0.133 F400
X71.797 Y47.867 I0.842 J2
G3 X11.204 Y44.133 I-30.297 J-1.867
X23.216 Y21.77 I30.297 J1.867
G2 X25.67 Y16.845 I-3.717 J-4.925
G1 Y11.17
X57.33
Y16.845
G2 X59.783 Y21.77 I6.17
G3 X71.796 Y44.133 I-18.283 J24.23
X71.39 Y44.593 I-0.433 J0.027 F200
G1 X70.957 Y44.62
X70.882 Y44.625 Z5.007
X70.809 Y44.629 Z5.026
X70.74 Y44.633 Z5.058
X70.678 Y44.637 Z5.102
X70.625 Y44.64 Z5.155
X70.582 Y44.643 Z5.217
X70.55 Y44.645 Z5.286
X70.53 Y44.646 Z5.359
X70.524 Y44.647 Z5.434
X70.47 Y43.78
Z4.934 F333.3
X70.477 Z4.859
X70.496 Y43.779 Z4.786
X70.528 Y43.777 Z4.717
X70.572 Y43.774 Z4.655
X70.625 Y43.771 Z4.602
X70.687 Y43.767 Z4.558
X70.755 Y43.763 Z4.526
X70.828 Y43.758 Z4.507
X70.903 Y43.754 Z4.5
X71.337 Y43.727 F200
G3 X71.796 Y44.133 I0.027 J0.433
G2 X73.12 Y46 I2.166 J-0.133 F400
X71.797 Y47.867 I0.842 J2
G3 X11.204 Y44.133 I-30.297 J-1.867
X23.216 Y21.77 I30.297 J1.867
G2 X25.67 Y16.845 I-3.717 J-4.925
G1 Y11.17
X57.33
Y16.845
G2 X59.783 Y21.77 I6.17
G3 X71.796 Y44.133 I-18.283 J24.23
X71.39 Y44.593 I-0.433 J0.027 F200
G1 X70.957 Y44.62
X70.882 Y44.625 Z4.507
X70.809 Y44.629 Z4.526
X70.74 Y44.633 Z4.558
X70.678 Y44.637 Z4.602
X70.625 Y44.64 Z4.655
X70.582 Y44.643 Z4.717
X70.55 Y44.645 Z4.786
X70.53 Y44.646 Z4.859
X70.524 Y44.647 Z4.934
X70.47 Y43.78
Z4.434 F333.3
X70.477 Z4.359
X70.496 Y43.779 Z4.286
X70.528 Y43.777 Z4.217
X70.572 Y43.774 Z4.155
X70.625 Y43.771 Z4.102
X70.687 Y43.767 Z4.058
X70.755 Y43.763 Z4.026
X70.828 Y43.758 Z4.007
X70.903 Y43.754 Z4
X71.337 Y43.727 F200
G3 X71.796 Y44.133 I0.027 J0.433
G2 X73.12 Y46 I2.166 J-0.133 F400
X71.797 Y47.867 I0.842 J2
G3 X11.204 Y44.133 I-30.297 J-1.867
X23.216 Y21.77 I30.297 J1.867
G2 X25.67 Y16.845 I-3.717 J-4.925
G1 Y11.17
X57.33
Y16.845
G2 X59.783 Y21.77 I6.17
G3 X71.796 Y44.133 I-18.283 J24.23
X71.39 Y44.593 I-0.433 J0.027 F200
G1 X70.957 Y44.62
X70.882 Y44.625 Z4.007
X70.809 Y44.629 Z4.026
X70.74 Y44.633 Z4.058
X70.678 Y44.637 Z4.102
X70.625 Y44.64 Z4.155
X70.582 Y44.643 Z4.217
X70.55 Y44.645 Z4.286
X70.53 Y44.646 Z4.359
X70.524 Y44.647 Z4.434
X70.47 Y43.78
Z3.934 F333.3
X70.477 Z3.859
X70.496 Y43.779 Z3.786
X70.528 Y43.777 Z3.717
X70.572 Y43.774 Z3.655
X70.625 Y43.771 Z3.602
X70.687 Y43.767 Z3.558
X70.755 Y43.763 Z3.526
X70.828 Y43.758 Z3.507
X70.903 Y43.754 Z3.5
X71.337 Y43.727 F200
G3 X71.796 Y44.133 I0.027 J0.433
G2 X73.12 Y46 I2.166 J-0.133 F400
X71.797 Y47.867 I0.842 J2
G3 X11.204 Y44.133 I-30.297 J-1.867
X23.216 Y21.77 I30.297 J1.867
G2 X25.67 Y16.845 I-3.717 J-4.925
G1 Y11.17
X57.33
Y16.845
G2 X59.783 Y21.77 I6.17
G3 X71.796 Y44.133 I-18.283 J24.23
X71.39 Y44.593 I-0.433 J0.027 F200
G1 X70.957 Y44.62
X70.882 Y44.625 Z3.507
X70.809 Y44.629 Z3.526
X70.74 Y44.633 Z3.558
X70.678 Y44.637 Z3.602
X70.625 Y44.64 Z3.655
X70.582 Y44.643 Z3.717
X70.55 Y44.645 Z3.786
X70.53 Y44.646 Z3.859
X70.524 Y44.647 Z3.934
X70.47 Y43.78
Z3.434 F333.3
X70.477 Z3.359
X70.496 Y43.779 Z3.286
X70.528 Y43.777 Z3.217
X70.572 Y43.774 Z3.155
X70.625 Y43.771 Z3.102
X70.687 Y43.767 Z3.058
X70.755 Y43.763 Z3.026
X70.828 Y43.758 Z3.007
X70.903 Y43.754 Z3
X71.337 Y43.727 F200
G3 X71.796 Y44.133 I0.027 J0.433
G2 X73.12 Y46 I2.166 J-0.133 F400
X71.797 Y47.867 I0.842 J2
G3 X11.204 Y44.133 I-30.297 J-1.867
X23.216 Y21.77 I30.297 J1.867
G2 X25.67 Y16.845 I-3.717 J-4.925
G1 Y11.17
X57.33
Y16.845
G2 X59.783 Y21.77 I6.17
G3 X71.796 Y44.133 I-18.283 J24.23
X71.39 Y44.593 I-0.433 J0.027 F200
G1 X70.957 Y44.62
X70.882 Y44.625 Z3.007
X70.809 Y44.629 Z3.026
X70.74 Y44.633 Z3.058
X70.678 Y44.637 Z3.102
X70.625 Y44.64 Z3.155
X70.582 Y44.643 Z3.217
X70.55 Y44.645 Z3.286
X70.53 Y44.646 Z3.359
X70.524 Y44.647 Z3.434
X70.47 Y43.78
Z2.934 F333.3
X70.477 Z2.859
X70.496 Y43.779 Z2.786
X70.528 Y43.777 Z2.717
X70.572 Y43.774 Z2.655
X70.625 Y43.771 Z2.602
X70.687 Y43.767 Z2.558
X70.755 Y43.763 Z2.526
X70.828 Y43.758 Z2.507
X70.903 Y43.754 Z2.5
X71.337 Y43.727 F200
G3 X71.796 Y44.133 I0.027 J0.433
G2 X73.12 Y46 I2.166 J-0.133 F400
X71.797 Y47.867 I0.842 J2
G3 X11.204 Y44.133 I-30.297 J-1.867
X23.216 Y21.77 I30.297 J1.867
G2 X25.67 Y16.845 I-3.717 J-4.925
G1 Y11.17
X57.33
Y16.845
G2 X59.783 Y21.77 I6.17
G3 X71.796 Y44.133 I-18.283 J24.23
X71.39 Y44.593 I-0.433 J0.027 F200
G1 X70.957 Y44.62
X70.882 Y44.625 Z2.507
X70.809 Y44.629 Z2.526
X70.74 Y44.633 Z2.558
X70.678 Y44.637 Z2.602
X70.625 Y44.64 Z2.655
X70.582 Y44.643 Z2.717
X70.55 Y44.645 Z2.786
X70.53 Y44.646 Z2.859
X70.524 Y44.647 Z2.934
X70.47 Y43.78
Z2.434 F333.3
X70.477 Z2.359
X70.496 Y43.779 Z2.286
X70.528 Y43.777 Z2.217
X70.572 Y43.774 Z2.155
X70.625 Y43.771 Z2.102
X70.687 Y43.767 Z2.058
X70.755 Y43.763 Z2.026
X70.828 Y43.758 Z2.007
X70.903 Y43.754 Z2
X71.337 Y43.727 F200
G3 X71.796 Y44.133 I0.027 J0.433
G2 X73.12 Y46 I2.166 J-0.133 F400
X71.797 Y47.867 I0.842 J2
G3 X11.204 Y44.133 I-30.297 J-1.867
X23.216 Y21.77 I30.297 J1.867
G2 X25.67 Y16.845 I-3.717 J-4.925
G1 Y11.17
X57.33
Y16.845
G2 X59.783 Y21.77 I6.17
G3 X71.796 Y44.133 I-18.283 J24.23
X71.39 Y44.593 I-0.433 J0.027 F200
G1 X70.957 Y44.62
X70.882 Y44.625 Z2.007
X70.809 Y44.629 Z2.026
X70.74 Y44.633 Z2.058
X70.678 Y44.637 Z2.102
X70.625 Y44.64 Z2.155
X70.582 Y44.643 Z2.217
X70.55 Y44.645 Z2.286
X70.53 Y44.646 Z2.359
X70.524 Y44.647 Z2.434
X70.47 Y43.78
Z1.934 F333.3
X70.477 Z1.859
X70.496 Y43.779 Z1.786
X70.528 Y43.777 Z1.717
X70.572 Y43.774 Z1.655
X70.625 Y43.771 Z1.602
X70.687 Y43.767 Z1.558
X70.755 Y43.763 Z1.526
X70.828 Y43.758 Z1.507
X70.903 Y43.754 Z1.5
X71.337 Y43.727 F200
G3 X71.796 Y44.133 I0.027 J0.433
G2 X73.12 Y46 I2.166 J-0.133 F400
X71.797 Y47.867 I0.842 J2
G3 X11.204 Y44.133 I-30.297 J-1.867
X23.216 Y21.77 I30.297 J1.867
G2 X25.67 Y16.845 I-3.717 J-4.925
G1 Y11.17
X57.33
Y16.845
G2 X59.783 Y21.77 I6.17
G3 X71.796 Y44.133 I-18.283 J24.23
X71.39 Y44.593 I-0.433 J0.027 F200
G1 X70.957 Y44.62
X70.882 Y44.625 Z1.507
X70.809 Y44.629 Z1.526
X70.74 Y44.633 Z1.558
X70.678 Y44.637 Z1.602
X70.625 Y44.64 Z1.655
X70.582 Y44.643 Z1.717
X70.55 Y44.645 Z1.786
X70.53 Y44.646 Z1.859
X70.524 Y44.647 Z1.934
X70.47 Y43.78
Z1.434 F333.3
X70.477 Z1.359
X70.496 Y43.779 Z1.286
X70.528 Y43.777 Z1.217
X70.572 Y43.774 Z1.155
X70.625 Y43.771 Z1.102
X70.687 Y43.767 Z1.058
X70.755 Y43.763 Z1.026
X70.828 Y43.758 Z1.007
X70.903 Y43.754 Z1
X71.337 Y43.727 F200
G3 X71.796 Y44.133 I0.027 J0.433
G2 X73.12 Y46 I2.166 J-0.133 F400
X71.797 Y47.867 I0.842 J2
G3 X11.204 Y44.133 I-30.297 J-1.867
X23.216 Y21.77 I30.297 J1.867
G2 X25.67 Y16.845 I-3.717 J-4.925
G1 Y11.17
X57.33
Y16.845
G2 X59.783 Y21.77 I6.17
G3 X71.796 Y44.133 I-18.283 J24.23
X71.39 Y44.593 I-0.433 J0.027 F200
G1 X70.957 Y44.62
X70.882 Y44.625 Z1.007
X70.809 Y44.629 Z1.026
X70.74 Y44.633 Z1.058
X70.678 Y44.637 Z1.102
X70.625 Y44.64 Z1.155
X70.582 Y44.643 Z1.217
X70.55 Y44.645 Z1.286
X70.53 Y44.646 Z1.359
X70.524 Y44.647 Z1.434
X70.47 Y43.78
Z0.934 F333.3
X70.477 Z0.859
X70.496 Y43.779 Z0.786
X70.528 Y43.777 Z0.717
X70.572 Y43.774 Z0.655
X70.625 Y43.771 Z0.602
X70.687 Y43.767 Z0.558
X70.755 Y43.763 Z0.526
X70.828 Y43.758 Z0.507
X70.903 Y43.754 Z0.5
X71.337 Y43.727 F200
G3 X71.796 Y44.133 I0.027 J0.433
G2 X73.12 Y46 I2.166 J-0.133 F400
X71.797 Y47.867 I0.842 J2
G3 X11.204 Y44.133 I-30.297 J-1.867
X23.216 Y21.77 I30.297 J1.867
G2 X25.67 Y16.845 I-3.717 J-4.925
G1 Y11.17
X57.33
Y16.845
G2 X59.783 Y21.77 I6.17
G3 X71.796 Y44.133 I-18.283 J24.23
X71.39 Y44.593 I-0.433 J0.027 F200
G1 X70.957 Y44.62
X70.882 Y44.625 Z0.507
X70.809 Y44.629 Z0.526
X70.74 Y44.633 Z0.558
X70.678 Y44.637 Z0.602
X70.625 Y44.64 Z0.655
X70.582 Y44.643 Z0.717
X70.55 Y44.645 Z0.786
X70.53 Y44.646 Z0.859
X70.524 Y44.647 Z0.934
X70.47 Y43.78
Z0.434 F333.3
X70.477 Z0.359
X70.496 Y43.779 Z0.286
X70.528 Y43.777 Z0.217
X70.572 Y43.774 Z0.155
X70.625 Y43.771 Z0.102
X70.687 Y43.767 Z0.058
X70.755 Y43.763 Z0.026
X70.828 Y43.758 Z0.007
X70.903 Y43.754 Z0
X71.337 Y43.727 F200
G3 X71.796 Y44.133 I0.027 J0.433
G2 X73.12 Y46 I2.166 J-0.133 F400
X71.797 Y47.867 I0.842 J2
G3 X11.204 Y44.133 I-30.297 J-1.867
X23.216 Y21.77 I30.297 J1.867
G2 X25.67 Y16.845 I-3.717 J-4.925
G1 Y11.17
X57.33
Y16.845
G2 X59.783 Y21.77 I6.17
G3 X71.796 Y44.133 I-18.283 J24.23
X71.39 Y44.593 I-0.433 J0.027 F200
G1 X70.957 Y44.62
X70.882 Y44.625 Z0.007
X70.809 Y44.629 Z0.026
X70.74 Y44.633 Z0.058
X70.678 Y44.637 Z0.102
X70.625 Y44.64 Z0.155
X70.582 Y44.643 Z0.217
X70.55 Y44.645 Z0.286
X70.53 Y44.646 Z0.359
X70.524 Y44.647 Z0.434
G0 Z26
X91.252 Y64.434
G1 Z22.5 F200
Z20.934 F333.3
G18 G3 X90.818 Z20.5 I-0.434
G1 X90.384 F200
G17 G3 X89.95 Y64 J-0.434
G1 Y48 F400
G2 X88.622 Y46 I-2.17
X89.95 Y44 I-0.842 J-2
G1 Y28
G2 X87.78 Y25.83 I-2.17
G1 X79.102
G2 X77.941 Y23.802 I-37.601 J20.171
G3 X79.311 Y13.98 I6.687 J-4.073
G1 X82.974 Y10.593
G2 X83.67 Y9 I-1.474 J-1.593
G1 Y1
G2 X81.5 Y-1.17 I-2.17
G1 X1.5
G2 X-0.67 Y1 J2.17
G1 Y9
G2 X0.026 Y10.593 I2.17
G1 X3.689 Y13.98
G3 X5.059 Y23.802 I-5.317 J5.748
G2 X20.405 Y83.091 I36.441 J22.198
G3 X21.33 Y84.681 I-0.905 J1.591
G1 Y87.28
G2 X23.5 Y89.45 I2.17
G1 X59.5
G2 X61.67 Y87.28 J-2.17
G1 Y84.681
G3 X62.595 Y83.091 I1.83
G2 X79.102 Y66.17 I-21.095 J-37.091
G1 X87.78
G2 X89.95 Y64 J-2.17
G3 X90.384 Y63.566 I0.434 F200
G1 X90.818
G18 G2 X91.252 Z20.934 K0.434
G1 Y64.434
Z20.434 F333.3
G3 X90.818 Z20 I-0.434
G1 X90.384 F200
G17 G3 X89.95 Y64 J-0.434
G1 Y48 F400
G2 X88.622 Y46 I-2.17
X89.95 Y44 I-0.842 J-2
G1 Y28
G2 X87.78 Y25.83 I-2.17
G1 X79.102
G2 X77.941 Y23.802 I-37.601 J20.171
G3 X79.311 Y13.98 I6.687 J-4.073
G1 X82.974 Y10.593
G2 X83.67 Y9 I-1.474 J-1.593
G1 Y1
G2 X81.5 Y-1.17 I-2.17
G1 X1.5
G2 X-0.67 Y1 J2.17
G1 Y9
G2 X0.026 Y10.593 I2.17
G1 X3.689 Y13.98
G3 X5.059 Y23.802 I-5.317 J5.748
G2 X20.405 Y83.091 I36.441 J22.198
G3 X21.33 Y84.681 I-0.905 J1.591
G1 Y87.28
G2 X23.5 Y89.45 I2.17
G1 X59.5
G2 X61.67 Y87.28 J-2.17
G1 Y84.681
G3 X62.595 Y83.091 I1.83
G2 X79.102 Y66.17 I-21.095 J-37.091
G1 X87.78
G2 X89.95 Y64 J-2.17
G3 X90.384 Y63.566 I0.434 F200
G1 X90.818
G18 G2 X91.252 Z20.434 K0.434
G1 Y64.434
Z19.934 F333.3
G3 X90.818 Z19.5 I-0.434
G1 X90.384 F200
G17 G3 X89.95 Y64 J-0.434
G1 Y48 F400
G2 X88.622 Y46 I-2.17
X89.95 Y44 I-0.842 J-2
G1 Y28
G2 X87.78 Y25.83 I-2.17
G1 X79.102
G2 X77.941 Y23.802 I-37.601 J20.171
G3 X79.311 Y13.98 I6.687 J-4.073
G1 X82.974 Y10.593
G2 X83.67 Y9 I-1.474 J-1.593
G1 Y1
G2 X81.5 Y-1.17 I-2.17
G1 X1.5
G2 X-0.67 Y1 J2.17
G1 Y9
G2 X0.026 Y10.593 I2.17
G1 X3.689 Y13.98
G3 X5.059 Y23.802 I-5.317 J5.748
G2 X20.405 Y83.091 I36.441 J22.198
G3 X21.33 Y84.681 I-0.905 J1.591
G1 Y87.28
G2 X23.5 Y89.45 I2.17
G1 X59.5
G2 X61.67 Y87.28 J-2.17
G1 Y84.681
G3 X62.595 Y83.091 I1.83
G2 X79.102 Y66.17 I-21.095 J-37.091
G1 X87.78
G2 X89.95 Y64 J-2.17
G3 X90.384 Y63.566 I0.434 F200
G1 X90.818
G18 G2 X91.252 Z19.934 K0.434
G1 Y64.434
Z19.434 F333.3
G3 X90.818 Z19 I-0.434
G1 X90.384 F200
G17 G3 X89.95 Y64 J-0.434
G1 Y48 F400
G2 X88.622 Y46 I-2.17
X89.95 Y44 I-0.842 J-2
G1 Y28
G2 X87.78 Y25.83 I-2.17
G1 X79.102
G2 X77.941 Y23.802 I-37.601 J20.171
G3 X79.311 Y13.98 I6.687 J-4.073
G1 X82.974 Y10.593
G2 X83.67 Y9 I-1.474 J-1.593
G1 Y1
G2 X81.5 Y-1.17 I-2.17
G1 X1.5
G2 X-0.67 Y1 J2.17
G1 Y9
G2 X0.026 Y10.593 I2.17
G1 X3.689 Y13.98
G3 X5.059 Y23.802 I-5.317 J5.748
G2 X20.405 Y83.091 I36.441 J22.198
G3 X21.33 Y84.681 I-0.905 J1.591
G1 Y87.28
G2 X23.5 Y89.45 I2.17
G1 X59.5
G2 X61.67 Y87.28 J-2.17
G1 Y84.681
G3 X62.595 Y83.091 I1.83
G2 X79.102 Y66.17 I-21.095 J-37.091
G1 X87.78
G2 X89.95 Y64 J-2.17
G3 X90.384 Y63.566 I0.434 F200
G1 X90.818
G18 G2 X91.252 Z19.434 K0.434
G1 Y64.434
Z18.934 F333.3
G3 X90.818 Z18.5 I-0.434
G1 X90.384 F200
G17 G3 X89.95 Y64 J-0.434
G1 Y48 F400
G2 X88.622 Y46 I-2.17
X89.95 Y44 I-0.842 J-2
G1 Y28
G2 X87.78 Y25.83 I-2.17
G1 X79.102
G2 X77.941 Y23.802 I-37.601 J20.171
G3 X79.311 Y13.98 I6.687 J-4.073
G1 X82.974 Y10.593
G2 X83.67 Y9 I-1.474 J-1.593
G1 Y1
G2 X81.5 Y-1.17 I-2.17
G1 X1.5
G2 X-0.67 Y1 J2.17
G1 Y9
G2 X0.026 Y10.593 I2.17
G1 X3.689 Y13.98
G3 X5.059 Y23.802 I-5.317 J5.748
G2 X20.405 Y83.091 I36.441 J22.198
G3 X21.33 Y84.681 I-0.905 J1.591
G1 Y87.28
G2 X23.5 Y89.45 I2.17
G1 X59.5
G2 X61.67 Y87.28 J-2.17
G1 Y84.681
G3 X62.595 Y83.091 I1.83
G2 X79.102 Y66.17 I-21.095 J-37.091
G1 X87.78
G2 X89.95 Y64 J-2.17
G3 X90.384 Y63.566 I0.434 F200
G1 X90.818
G18 G2 X91.252 Z18.934 K0.434
G1 Y64.434
Z18.434 F333.3
G3 X90.818 Z18 I-0.434
G1 X90.384 F200
G17 G3 X89.95 Y64 J-0.434
G1 Y48 F400
G2 X88.622 Y46 I-2.17
X89.95 Y44 I-0.842 J-2
G1 Y28
G2 X87.78 Y25.83 I-2.17
G1 X79.102
G2 X77.941 Y23.802 I-37.601 J20.171
G3 X79.311 Y13.98 I6.687 J-4.073
G1 X82.974 Y10.593
G2 X83.67 Y9 I-1.474 J-1.593
G1 Y1
G2 X81.5 Y-1.17 I-2.17
G1 X1.5
G2 X-0.67 Y1 J2.17
G1 Y9
G2 X0.026 Y10.593 I2.17
G1 X3.689 Y13.98
G3 X5.059 Y23.802 I-5.317 J5.748
G2 X20.405 Y83.091 I36.441 J22.198
G3 X21.33 Y84.681 I-0.905 J1.591
G1 Y87.28
G2 X23.5 Y89.45 I2.17
G1 X59.5
G2 X61.67 Y87.28 J-2.17
G1 Y84.681
G3 X62.595 Y83.091 I1.83
G2 X79.102 Y66.17 I-21.095 J-37.091
G1 X87.78
G2 X89.95 Y64 J-2.17
G3 X90.384 Y63.566 I0.434 F200
G1 X90.818
G18 G2 X91.252 Z18.434 K0.434
G1 Y64.434
Z17.934 F333.3
G3 X90.818 Z17.5 I-0.434
G1 X90.384 F200
G17 G3 X89.95 Y64 J-0.434
G1 Y48 F400
G2 X88.622 Y46 I-2.17
X89.95 Y44 I-0.842 J-2
G1 Y28
G2 X87.78 Y25.83 I-2.17
G1 X79.102
G2 X77.941 Y23.802 I-37.601 J20.171
G3 X79.311 Y13.98 I6.687 J-4.073
G1 X82.974 Y10.593
G2 X83.67 Y9 I-1.474 J-1.593
G1 Y1
G2 X81.5 Y-1.17 I-2.17
G1 X1.5
G2 X-0.67 Y1 J2.17
G1 Y9
G2 X0.026 Y10.593 I2.17
G1 X3.689 Y13.98
G3 X5.059 Y23.802 I-5.317 J5.748
G2 X20.405 Y83.091 I36.441 J22.198
G3 X21.33 Y84.681 I-0.905 J1.591
G1 Y87.28
G2 X23.5 Y89.45 I2.17
G1 X59.5
G2 X61.67 Y87.28 J-2.17
G1 Y84.681
G3 X62.595 Y83.091 I1.83
G2 X79.102 Y66.17 I-21.095 J-37.091
G1 X87.78
G2 X89.95 Y64 J-2.17
G3 X90.384 Y63.566 I0.434 F200
G1 X90.818
G18 G2 X91.252 Z17.934 K0.434
G1 Y64.434
Z17.434 F333.3
G3 X90.818 Z17 I-0.434
G1 X90.384 F200
G17 G3 X89.95 Y64 J-0.434
G1 Y48 F400
G2 X88.622 Y46 I-2.17
X89.95 Y44 I-0.842 J-2
G1 Y28
G2 X87.78 Y25.83 I-2.17
G1 X79.102
G2 X77.941 Y23.802 I-37.601 J20.171
G3 X79.311 Y13.98 I6.687 J-4.073
G1 X82.974 Y10.593
G2 X83.67 Y9 I-1.474 J-1.593
G1 Y1
G2 X81.5 Y-1.17 I-2.17
G1 X1.5
G2 X-0.67 Y1 J2.17
G1 Y9
G2 X0.026 Y10.593 I2.17
G1 X3.689 Y13.98
G3 X5.059 Y23.802 I-5.317 J5.748
G2 X20.405 Y83.091 I36.441 J22.198
G3 X21.33 Y84.681 I-0.905 J1.591
G1 Y87.28
G2 X23.5 Y89.45 I2.17
G1 X59.5
G2 X61.67 Y87.28 J-2.17
G1 Y84.681
G3 X62.595 Y83.091 I1.83
G2 X79.102 Y66.17 I-21.095 J-37.091
G1 X87.78
G2 X89.95 Y64 J-2.17
G3 X90.384 Y63.566 I0.434 F200
G1 X90.818
G18 G2 X91.252 Z17.434 K0.434
G1 Y64.434
Z16.934 F333.3
G3 X90.818 Z16.5 I-0.434
G1 X90.384 F200
G17 G3 X89.95 Y64 J-0.434
G1 Y48 F400
G2 X88.622 Y46 I-2.17
X89.95 Y44 I-0.842 J-2
G1 Y28
G2 X87.78 Y25.83 I-2.17
G1 X79.102
G2 X77.941 Y23.802 I-37.601 J20.171
G3 X79.311 Y13.98 I6.687 J-4.073
G1 X82.974 Y10.593
G2 X83.67 Y9 I-1.474 J-1.593
G1 Y1
G2 X81.5 Y-1.17 I-2.17
G1 X1.5
G2 X-0.67 Y1 J2.17
G1 Y9
G2 X0.026 Y10.593 I2.17
G1 X3.689 Y13.98
G3 X5.059 Y23.802 I-5.317 J5.748
G2 X20.405 Y83.091 I36.441 J22.198
G3 X21.33 Y84.681 I-0.905 J1.591
G1 Y87.28
G2 X23.5 Y89.45 I2.17
G1 X59.5
G2 X61.67 Y87.28 J-2.17
G1 Y84.681
G3 X62.595 Y83.091 I1.83
G2 X79.102 Y66.17 I-21.095 J-37.091
G1 X87.78
G2 X89.95 Y64 J-2.17
G3 X90.384 Y63.566 I0.434 F200
G1 X90.818
G18 G2 X91.252 Z16.934 K0.434
G1 Y64.434
Z16.434 F333.3
G3 X90.818 Z16 I-0.434
G1 X90.384 F200
G17 G3 X89.95 Y64 J-0.434
G1 Y48 F400
G2 X88.622 Y46 I-2.17
X89.95 Y44 I-0.842 J-2
G1 Y28
G2 X87.78 Y25.83 I-2.17
G1 X79.102
G2 X77.941 Y23.802 I-37.601 J20.171
G3 X79.311 Y13.98 I6.687 J-4.073
G1 X82.974 Y10.593
G2 X83.67 Y9 I-1.474 J-1.593
G1 Y1
G2 X81.5 Y-1.17 I-2.17
G1 X1.5
G2 X-0.67 Y1 J2.17
G1 Y9
G2 X0.026 Y10.593 I2.17
G1 X3.689 Y13.98
G3 X5.059 Y23.802 I-5.317 J5.748
G2 X20.405 Y83.091 I36.441 J22.198
G3 X21.33 Y84.681 I-0.905 J1.591
G1 Y87.28
G2 X23.5 Y89.45 I2.17
G1 X59.5
G2 X61.67 Y87.28 J-2.17
G1 Y84.681
G3 X62.595 Y83.091 I1.83
G2 X79.102 Y66.17 I-21.095 J-37.091
G1 X87.78
G2 X89.95 Y64 J-2.17
G3 X90.384 Y63.566 I0.434 F200
G1 X90.818
G18 G2 X91.252 Z16.434 K0.434
G1 Y64.434
Z15.934 F333.3
G3 X90.818 Z15.5 I-0.434
G1 X90.384 F200
G17 G3 X89.95 Y64 J-0.434
G1 Y48 F400
G2 X88.622 Y46 I-2.17
X89.95 Y44 I-0.842 J-2
G1 Y28
G2 X87.78 Y25.83 I-2.17
G1 X79.102
G2 X77.941 Y23.802 I-37.601 J20.171
G3 X79.311 Y13.98 I6.687 J-4.073
G1 X82.974 Y10.593
G2 X83.67 Y9 I-1.474 J-1.593
G1 Y1
G2 X81.5 Y-1.17 I-2.17
G1 X1.5
G2 X-0.67 Y1 J2.17
G1 Y9
G2 X0.026 Y10.593 I2.17
G1 X3.689 Y13.98
G3 X5.059 Y23.802 I-5.317 J5.748
G2 X20.405 Y83.091 I36.441 J22.198
G3 X21.33 Y84.681 I-0.905 J1.591
G1 Y87.28
G2 X23.5 Y89.45 I2.17
G1 X59.5
G2 X61.67 Y87.28 J-2.17
G1 Y84.681
G3 X62.595 Y83.091 I1.83
G2 X79.102 Y66.17 I-21.095 J-37.091
G1 X87.78
G2 X89.95 Y64 J-2.17
G3 X90.384 Y63.566 I0.434 F200
G1 X90.818
G18 G2 X91.252 Z15.934 K0.434
G1 Y64.434
Z15.434 F333.3
G3 X90.818 Z15 I-0.434
G1 X90.384 F200
G17 G3 X89.95 Y64 J-0.434
G1 Y48 F400
G2 X88.622 Y46 I-2.17
X89.95 Y44 I-0.842 J-2
G1 Y28
G2 X87.78 Y25.83 I-2.17
G1 X79.102
G2 X77.941 Y23.802 I-37.601 J20.171
G3 X79.311 Y13.98 I6.687 J-4.073
G1 X82.974 Y10.593
G2 X83.67 Y9 I-1.474 J-1.593
G1 Y1
G2 X81.5 Y-1.17 I-2.17
G1 X1.5
G2 X-0.67 Y1 J2.17
G1 Y9
G2 X0.026 Y10.593 I2.17
G1 X3.689 Y13.98
G3 X5.059 Y23.802 I-5.317 J5.748
G2 X20.405 Y83.091 I36.441 J22.198
G3 X21.33 Y84.681 I-0.905 J1.591
G1 Y87.28
G2 X23.5 Y89.45 I2.17
G1 X59.5
G2 X61.67 Y87.28 J-2.17
G1 Y84.681
G3 X62.595 Y83.091 I1.83
G2 X79.102 Y66.17 I-21.095 J-37.091
G1 X87.78
G2 X89.95 Y64 J-2.17
G3 X90.384 Y63.566 I0.434 F200
G1 X90.818
G18 G2 X91.252 Z15.434 K0.434
G1 Y64.434
Z14.934 F333.3
G3 X90.818 Z14.5 I-0.434
G1 X90.384 F200
G17 G3 X89.95 Y64 J-0.434
G1 Y48 F400
G2 X88.622 Y46 I-2.17
X89.95 Y44 I-0.842 J-2
G1 Y28
G2 X87.78 Y25.83 I-2.17
G1 X79.102
G2 X77.941 Y23.802 I-37.601 J20.171
G3 X79.311 Y13.98 I6.687 J-4.073
G1 X82.974 Y10.593
G2 X83.67 Y9 I-1.474 J-1.593
G1 Y1
G2 X81.5 Y-1.17 I-2.17
G1 X1.5
G2 X-0.67 Y1 J2.17
G1 Y9
G2 X0.026 Y10.593 I2.17
G1 X3.689 Y13.98
G3 X5.059 Y23.802 I-5.317 J5.748
G2 X20.405 Y83.091 I36.441 J22.198
G3 X21.33 Y84.681 I-0.905 J1.591
G1 Y87.28
G2 X23.5 Y89.45 I2.17
G1 X59.5
G2 X61.67 Y87.28 J-2.17
G1 Y84.681
G3 X62.595 Y83.091 I1.83
G2 X79.102 Y66.17 I-21.095 J-37.091
G1 X87.78
G2 X89.95 Y64 J-2.17
G3 X90.384 Y63.566 I0.434 F200
G1 X90.818
G18 G2 X91.252 Z14.934 K0.434
G1 Y64.434
Z14.434 F333.3
G3 X90.818 Z14 I-0.434
G1 X90.384 F200
G17 G3 X89.95 Y64 J-0.434
G1 Y48 F400
G2 X88.622 Y46 I-2.17
X89.95 Y44 I-0.842 J-2
G1 Y28
G2 X87.78 Y25.83 I-2.17
G1 X79.102
G2 X77.941 Y23.802 I-37.601 J20.171
G3 X79.311 Y13.98 I6.687 J-4.073
G1 X82.974 Y10.593
G2 X83.67 Y9 I-1.474 J-1.593
G1 Y1
G2 X81.5 Y-1.17 I-2.17
G1 X1.5
G2 X-0.67 Y1 J2.17
G1 Y9
G2 X0.026 Y10.593 I2.17
G1 X3.689 Y13.98
G3 X5.059 Y23.802 I-5.317 J5.748
G2 X20.405 Y83.091 I36.441 J22.198
G3 X21.33 Y84.681 I-0.905 J1.591
G1 Y87.28
G2 X23.5 Y89.45 I2.17
G1 X59.5
G2 X61.67 Y87.28 J-2.17
G1 Y84.681
G3 X62.595 Y83.091 I1.83
G2 X79.102 Y66.17 I-21.095 J-37.091
G1 X87.78
G2 X89.95 Y64 J-2.17
G3 X90.384 Y63.566 I0.434 F200
G1 X90.818
G18 G2 X91.252 Z14.434 K0.434
G1 Y64.434
Z13.934 F333.3
G3 X90.818 Z13.5 I-0.434
G1 X90.384 F200
G17 G3 X89.95 Y64 J-0.434
G1 Y48 F400
G2 X88.622 Y46 I-2.17
X89.95 Y44 I-0.842 J-2
G1 Y28
G2 X87.78 Y25.83 I-2.17
G1 X79.102
G2 X77.941 Y23.802 I-37.601 J20.171
G3 X79.311 Y13.98 I6.687 J-4.073
G1 X82.974 Y10.593
G2 X83.67 Y9 I-1.474 J-1.593
G1 Y1
G2 X81.5 Y-1.17 I-2.17
G1 X1.5
G2 X-0.67 Y1 J2.17
G1 Y9
G2 X0.026 Y10.593 I2.17
G1 X3.689 Y13.98
G3 X5.059 Y23.802 I-5.317 J5.748
G2 X20.405 Y83.091 I36.441 J22.198
G3 X21.33 Y84.681 I-0.905 J1.591
G1 Y87.28
G2 X23.5 Y89.45 I2.17
G1 X59.5
G2 X61.67 Y87.28 J-2.17
G1 Y84.681
G3 X62.595 Y83.091 I1.83
G2 X79.102 Y66.17 I-21.095 J-37.091
G1 X87.78
G2 X89.95 Y64 J-2.17
G3 X90.384 Y63.566 I0.434 F200
G1 X90.818
G18 G2 X91.252 Z13.934 K0.434
G1 Y64.434
Z13.434 F333.3
G3 X90.818 Z13 I-0.434
G1 X90.384 F200
G17 G3 X89.95 Y64 J-0.434
G1 Y48 F400
G2 X88.622 Y46 I-2.17
X89.95 Y44 I-0.842 J-2
G1 Y28
G2 X87.78 Y25.83 I-2.17
G1 X79.102
G2 X77.941 Y23.802 I-37.601 J20.171
G3 X79.311 Y13.98 I6.687 J-4.073
G1 X82.974 Y10.593
G2 X83.67 Y9 I-1.474 J-1.593
G1 Y1
G2 X81.5 Y-1.17 I-2.17
G1 X1.5
G2 X-0.67 Y1 J2.17
G1 Y9
G2 X0.026 Y10.593 I2.17
G1 X3.689 Y13.98
G3 X5.059 Y23.802 I-5.317 J5.748
G2 X20.405 Y83.091 I36.441 J22.198
G3 X21.33 Y84.681 I-0.905 J1.591
G1 Y87.28
G2 X23.5 Y89.45 I2.17
G1 X59.5
G2 X61.67 Y87.28 J-2.17
G1 Y84.681
G3 X62.595 Y83.091 I1.83
G2 X79.102 Y66.17 I-21.095 J-37.091
G1 X87.78
G2 X89.95 Y64 J-2.17
G3 X90.384 Y63.566 I0.434 F200
G1 X90.818
G18 G2 X91.252 Z13.434 K0.434
G1 Y64.434
Z12.934 F333.3
G3 X90.818 Z12.5 I-0.434
G1 X90.384 F200
G17 G3 X89.95 Y64 J-0.434
G1 Y48 F400
G2 X88.622 Y46 I-2.17
X89.95 Y44 I-0.842 J-2
G1 Y28
G2 X87.78 Y25.83 I-2.17
G1 X79.102
G2 X77.941 Y23.802 I-37.601 J20.171
G3 X79.311 Y13.98 I6.687 J-4.073
G1 X82.974 Y10.593
G2 X83.67 Y9 I-1.474 J-1.593
G1 Y1
G2 X81.5 Y-1.17 I-2.17
G1 X1.5
G2 X-0.67 Y1 J2.17
G1 Y9
G2 X0.026 Y10.593 I2.17
G1 X3.689 Y13.98
G3 X5.059 Y23.802 I-5.317 J5.748
G2 X20.405 Y83.091 I36.441 J22.198
G3 X21.33 Y84.681 I-0.905 J1.591
G1 Y87.28
G2 X23.5 Y89.45 I2.17
G1 X59.5
G2 X61.67 Y87.28 J-2.17
G1 Y84.681
G3 X62.595 Y83.091 I1.83
G2 X79.102 Y66.17 I-21.095 J-37.091
G1 X87.78
G2 X89.95 Y64 J-2.17
G3 X90.384 Y63.566 I0.434 F200
G1 X90.818
G18 G2 X91.252 Z12.934 K0.434
G1 Y64.434
Z12.434 F333.3
G3 X90.818 Z12 I-0.434
G1 X90.384 F200
G17 G3 X89.95 Y64 J-0.434
G1 Y48 F400
G2 X88.622 Y46 I-2.17
X89.95 Y44 I-0.842 J-2
G1 Y28
G2 X87.78 Y25.83 I-2.17
G1 X79.102
G2 X77.941 Y23.802 I-37.601 J20.171
G3 X79.311 Y13.98 I6.687 J-4.073
G1 X82.974 Y10.593
G2 X83.67 Y9 I-1.474 J-1.593
G1 Y1
G2 X81.5 Y-1.17 I-2.17
G1 X1.5
G2 X-0.67 Y1 J2.17
G1 Y9
G2 X0.026 Y10.593 I2.17
G1 X3.689 Y13.98
G3 X5.059 Y23.802 I-5.317 J5.748
G2 X20.405 Y83.091 I36.441 J22.198
G3 X21.33 Y84.681 I-0.905 J1.591
G1 Y87.28
G2 X23.5 Y89.45 I2.17
G1 X59.5
G2 X61.67 Y87.28 J-2.17
G1 Y84.681
G3 X62.595 Y83.091 I1.83
G2 X79.102 Y66.17 I-21.095 J-37.091
G1 X87.78
G2 X89.95 Y64 J-2.17
G3 X90.384 Y63.566 I0.434 F200
G1 X90.818
G18 G2 X91.252 Z12.434 K0.434
G1 Y64.434
Z11.934 F333.3
G3 X90.818 Z11.5 I-0.434
G1 X90.384 F200
G17 G3 X89.95 Y64 J-0.434
G1 Y48 F400
G2 X88.622 Y46 I-2.17
X89.95 Y44 I-0.842 J-2
G1 Y28
G2 X87.78 Y25.83 I-2.17
G1 X79.102
G2 X77.941 Y23.802 I-37.601 J20.171
G3 X79.311 Y13.98 I6.687 J-4.073
G1 X82.974 Y10.593
G2 X83.67 Y9 I-1.474 J-1.593
G1 Y1
G2 X81.5 Y-1.17 I-2.17
G1 X1.5
G2 X-0.67 Y1 J2.17
G1 Y9
G2 X0.026 Y10.593 I2.17
G1 X3.689 Y13.98
G3 X5.059 Y23.802 I-5.317 J5.748
G2 X20.405 Y83.091 I36.441 J22.198
G3 X21.33 Y84.681 I-0.905 J1.591
G1 Y87.28
G2 X23.5 Y89.45 I2.17
G1 X59.5
G2 X61.67 Y87.28 J-2.17
G1 Y84.681
G3 X62.595 Y83.091 I1.83
G2 X79.102 Y66.17 I-21.095 J-37.091
G1 X87.78
G2 X89.95 Y64 J-2.17
G3 X90.384 Y63.566 I0.434 F200
G1 X90.818
G18 G2 X91.252 Z11.934 K0.434
G1 Y64.434
Z11.434 F333.3
G3 X90.818 Z11 I-0.434
G1 X90.384 F200
G17 G3 X89.95 Y64 J-0.434
G1 Y48 F400
G2 X88.622 Y46 I-2.17
X89.95 Y44 I-0.842 J-2
G1 Y28
G2 X87.78 Y25.83 I-2.17
G1 X79.102
G2 X77.941 Y23.802 I-37.601 J20.171
G3 X79.311 Y13.98 I6.687 J-4.073
G1 X82.974 Y10.593
G2 X83.67 Y9 I-1.474 J-1.593
G1 Y1
G2 X81.5 Y-1.17 I-2.17
G1 X1.5
G2 X-0.67 Y1 J2.17
G1 Y9
G2 X0.026 Y10.593 I2.17
G1 X3.689 Y13.98
G3 X5.059 Y23.802 I-5.317 J5.748
G2 X20.405 Y83.091 I36.441 J22.198
G3 X21.33 Y84.681 I-0.905 J1.591
G1 Y87.28
G2 X23.5 Y89.45 I2.17
G1 X59.5
G2 X61.67 Y87.28 J-2.17
G1 Y84.681
G3 X62.595 Y83.091 I1.83
G2 X79.102 Y66.17 I-21.095 J-37.091
G1 X87.78
G2 X89.95 Y64 J-2.17
G3 X90.384 Y63.566 I0.434 F200
G1 X90.818
G18 G2 X91.252 Z11.434 K0.434
G1 Y64.434
Z10.934 F333.3
G3 X90.818 Z10.5 I-0.434
G1 X90.384 F200
G17 G3 X89.95 Y64 J-0.434
G1 Y48 F400
G2 X88.622 Y46 I-2.17
X89.95 Y44 I-0.842 J-2
G1 Y28
G2 X87.78 Y25.83 I-2.17
G1 X79.102
G2 X77.941 Y23.802 I-37.601 J20.171
G3 X79.311 Y13.98 I6.687 J-4.073
G1 X82.974 Y10.593
G2 X83.67 Y9 I-1.474 J-1.593
G1 Y1
G2 X81.5 Y-1.17 I-2.17
G1 X1.5
G2 X-0.67 Y1 J2.17
G1 Y9
G2 X0.026 Y10.593 I2.17
G1 X3.689 Y13.98
G3 X5.059 Y23.802 I-5.317 J5.748
G2 X20.405 Y83.091 I36.441 J22.198
G3 X21.33 Y84.681 I-0.905 J1.591
G1 Y87.28
G2 X23.5 Y89.45 I2.17
G1 X59.5
G2 X61.67 Y87.28 J-2.17
G1 Y84.681
G3 X62.595 Y83.091 I1.83
G2 X79.102 Y66.17 I-21.095 J-37.091
G1 X87.78
G2 X89.95 Y64 J-2.17
G3 X90.384 Y63.566 I0.434 F200
G1 X90.818
G18 G2 X91.252 Z10.934 K0.434
G1 Y64.434
Z10.434 F333.3
G3 X90.818 Z10 I-0.434
G1 X90.384 F200
G17 G3 X89.95 Y64 J-0.434
G1 Y48 F400
G2 X88.622 Y46 I-2.17
X89.95 Y44 I-0.842 J-2
G1 Y28
G2 X87.78 Y25.83 I-2.17
G1 X79.102
G2 X77.941 Y23.802 I-37.601 J20.171
G3 X79.311 Y13.98 I6.687 J-4.073
G1 X82.974 Y10.593
G2 X83.67 Y9 I-1.474 J-1.593
G1 Y1
G2 X81.5 Y-1.17 I-2.17
G1 X1.5
G2 X-0.67 Y1 J2.17
G1 Y9
G2 X0.026 Y10.593 I2.17
G1 X3.689 Y13.98
G3 X5.059 Y23.802 I-5.317 J5.748
G2 X20.405 Y83.091 I36.441 J22.198
G3 X21.33 Y84.681 I-0.905 J1.591
G1 Y87.28
G2 X23.5 Y89.45 I2.17
G1 X59.5
G2 X61.67 Y87.28 J-2.17
G1 Y84.681
G3 X62.595 Y83.091 I1.83
G2 X79.102 Y66.17 I-21.095 J-37.091
G1 X87.78
G2 X89.95 Y64 J-2.17
G3 X90.384 Y63.566 I0.434 F200
G1 X90.818
G18 G2 X91.252 Z10.434 K0.434
G1 Y64.434
Z9.934 F333.3
G3 X90.818 Z9.5 I-0.434
G1 X90.384 F200
G17 G3 X89.95 Y64 J-0.434
G1 Y48 F400
G2 X88.622 Y46 I-2.17
X89.95 Y44 I-0.842 J-2
G1 Y28
G2 X87.78 Y25.83 I-2.17
G1 X79.102
G2 X77.941 Y23.802 I-37.601 J20.171
G3 X79.311 Y13.98 I6.687 J-4.073
G1 X82.974 Y10.593
G2 X83.67 Y9 I-1.474 J-1.593
G1 Y1
G2 X81.5 Y-1.17 I-2.17
G1 X1.5
G2 X-0.67 Y1 J2.17
G1 Y9
G2 X0.026 Y10.593 I2.17
G1 X3.689 Y13.98
G3 X5.059 Y23.802 I-5.317 J5.748
G2 X20.405 Y83.091 I36.441 J22.198
G3 X21.33 Y84.681 I-0.905 J1.591
G1 Y87.28
G2 X23.5 Y89.45 I2.17
G1 X59.5
G2 X61.67 Y87.28 J-2.17
G1 Y84.681
G3 X62.595 Y83.091 I1.83
G2 X79.102 Y66.17 I-21.095 J-37.091
G1 X87.78
G2 X89.95 Y64 J-2.17
G3 X90.384 Y63.566 I0.434 F200
G1 X90.818
G18 G2 X91.252 Z9.934 K0.434
G1 Y64.434
Z9.434 F333.3
G3 X90.818 Z9 I-0.434
G1 X90.384 F200
G17 G3 X89.95 Y64 J-0.434
G1 Y48 F400
G2 X88.622 Y46 I-2.17
X89.95 Y44 I-0.842 J-2
G1 Y28
G2 X87.78 Y25.83 I-2.17
G1 X79.102
G2 X77.941 Y23.802 I-37.601 J20.171
G3 X79.311 Y13.98 I6.687 J-4.073
G1 X82.974 Y10.593
G2 X83.67 Y9 I-1.474 J-1.593
G1 Y1
G2 X81.5 Y-1.17 I-2.17
G1 X1.5
G2 X-0.67 Y1 J2.17
G1 Y9
G2 X0.026 Y10.593 I2.17
G1 X3.689 Y13.98
G3 X5.059 Y23.802 I-5.317 J5.748
G2 X20.405 Y83.091 I36.441 J22.198
G3 X21.33 Y84.681 I-0.905 J1.591
G1 Y87.28
G2 X23.5 Y89.45 I2.17
G1 X59.5
G2 X61.67 Y87.28 J-2.17
G1 Y84.681
G3 X62.595 Y83.091 I1.83
G2 X79.102 Y66.17 I-21.095 J-37.091
G1 X87.78
G2 X89.95 Y64 J-2.17
G3 X90.384 Y63.566 I0.434 F200
G1 X90.818
G18 G2 X91.252 Z9.434 K0.434
G1 Y64.434
Z8.934 F333.3
G3 X90.818 Z8.5 I-0.434
G1 X90.384 F200
G17 G3 X89.95 Y64 J-0.434
G1 Y48 F400
G2 X88.622 Y46 I-2.17
X89.95 Y44 I-0.842 J-2
G1 Y28
G2 X87.78 Y25.83 I-2.17
G1 X79.102
G2 X77.941 Y23.802 I-37.601 J20.171
G3 X79.311 Y13.98 I6.687 J-4.073
G1 X82.974 Y10.593
G2 X83.67 Y9 I-1.474 J-1.593
G1 Y1
G2 X81.5 Y-1.17 I-2.17
G1 X1.5
G2 X-0.67 Y1 J2.17
G1 Y9
G2 X0.026 Y10.593 I2.17
G1 X3.689 Y13.98
G3 X5.059 Y23.802 I-5.317 J5.748
G2 X20.405 Y83.091 I36.441 J22.198
G3 X21.33 Y84.681 I-0.905 J1.591
G1 Y87.28
G2 X23.5 Y89.45 I2.17
G1 X59.5
G2 X61.67 Y87.28 J-2.17
G1 Y84.681
G3 X62.595 Y83.091 I1.83
G2 X79.102 Y66.17 I-21.095 J-37.091
G1 X87.78
G2 X89.95 Y64 J-2.17
G3 X90.384 Y63.566 I0.434 F200
G1 X90.818
G18 G2 X91.252 Z8.934 K0.434
G1 Y64.434
Z8.434 F333.3
G3 X90.818 Z8 I-0.434
G1 X90.384 F200
G17 G3 X89.95 Y64 J-0.434
G1 Y48 F400
G2 X88.622 Y46 I-2.17
X89.95 Y44 I-0.842 J-2
G1 Y28
G2 X87.78 Y25.83 I-2.17
G1 X79.102
G2 X77.941 Y23.802 I-37.601 J20.171
G3 X79.311 Y13.98 I6.687 J-4.073
G1 X82.974 Y10.593
G2 X83.67 Y9 I-1.474 J-1.593
G1 Y1
G2 X81.5 Y-1.17 I-2.17
G1 X1.5
G2 X-0.67 Y1 J2.17
G1 Y9
G2 X0.026 Y10.593 I2.17
G1 X3.689 Y13.98
G3 X5.059 Y23.802 I-5.317 J5.748
G2 X20.405 Y83.091 I36.441 J22.198
G3 X21.33 Y84.681 I-0.905 J1.591
G1 Y87.28
G2 X23.5 Y89.45 I2.17
G1 X59.5
G2 X61.67 Y87.28 J-2.17
G1 Y84.681
G3 X62.595 Y83.091 I1.83
G2 X79.102 Y66.17 I-21.095 J-37.091
G1 X87.78
G2 X89.95 Y64 J-2.17
G3 X90.384 Y63.566 I0.434 F200
G1 X90.818
G18 G2 X91.252 Z8.434 K0.434
G1 Y64.434
Z7.934 F333.3
G3 X90.818 Z7.5 I-0.434
G1 X90.384 F200
G17 G3 X89.95 Y64 J-0.434
G1 Y48 F400
G2 X88.622 Y46 I-2.17
X89.95 Y44 I-0.842 J-2
G1 Y28
G2 X87.78 Y25.83 I-2.17
G1 X79.102
G2 X77.941 Y23.802 I-37.601 J20.171
G3 X79.311 Y13.98 I6.687 J-4.073
G1 X82.974 Y10.593
G2 X83.67 Y9 I-1.474 J-1.593
G1 Y1
G2 X81.5 Y-1.17 I-2.17
G1 X1.5
G2 X-0.67 Y1 J2.17
G1 Y9
G2 X0.026 Y10.593 I2.17
G1 X3.689 Y13.98
G3 X5.059 Y23.802 I-5.317 J5.748
G2 X20.405 Y83.091 I36.441 J22.198
G3 X21.33 Y84.681 I-0.905 J1.591
G1 Y87.28
G2 X23.5 Y89.45 I2.17
G1 X59.5
G2 X61.67 Y87.28 J-2.17
G1 Y84.681
G3 X62.595 Y83.091 I1.83
G2 X79.102 Y66.17 I-21.095 J-37.091
G1 X87.78
G2 X89.95 Y64 J-2.17
G3 X90.384 Y63.566 I0.434 F200
G1 X90.818
G18 G2 X91.252 Z7.934 K0.434
G1 Y64.434
Z7.434 F333.3
G3 X90.818 Z7 I-0.434
G1 X90.384 F200
G17 G3 X89.95 Y64 J-0.434
G1 Y48 F400
G2 X88.622 Y46 I-2.17
X89.95 Y44 I-0.842 J-2
G1 Y28
G2 X87.78 Y25.83 I-2.17
G1 X79.102
G2 X77.941 Y23.802 I-37.601 J20.171
G3 X79.311 Y13.98 I6.687 J-4.073
G1 X82.974 Y10.593
G2 X83.67 Y9 I-1.474 J-1.593
G1 Y1
G2 X81.5 Y-1.17 I-2.17
G1 X1.5
G2 X-0.67 Y1 J2.17
G1 Y9
G2 X0.026 Y10.593 I2.17
G1 X3.689 Y13.98
G3 X5.059 Y23.802 I-5.317 J5.748
G2 X20.405 Y83.091 I36.441 J22.198
G3 X21.33 Y84.681 I-0.905 J1.591
G1 Y87.28
G2 X23.5 Y89.45 I2.17
G1 X59.5
G2 X61.67 Y87.28 J-2.17
G1 Y84.681
G3 X62.595 Y83.091 I1.83
G2 X79.102 Y66.17 I-21.095 J-37.091
G1 X87.78
G2 X89.95 Y64 J-2.17
G3 X90.384 Y63.566 I0.434 F200
G1 X90.818
G18 G2 X91.252 Z7.434 K0.434
G1 Y64.434
Z6.934 F333.3
G3 X90.818 Z6.5 I-0.434
G1 X90.384 F200
G17 G3 X89.95 Y64 J-0.434
G1 Y48 F400
G2 X88.622 Y46 I-2.17
X89.95 Y44 I-0.842 J-2
G1 Y28
G2 X87.78 Y25.83 I-2.17
G1 X79.102
G2 X77.941 Y23.802 I-37.601 J20.171
G3 X79.311 Y13.98 I6.687 J-4.073
G1 X82.974 Y10.593
G2 X83.67 Y9 I-1.474 J-1.593
G1 Y1
G2 X81.5 Y-1.17 I-2.17
G1 X1.5
G2 X-0.67 Y1 J2.17
G1 Y9
G2 X0.026 Y10.593 I2.17
G1 X3.689 Y13.98
G3 X5.059 Y23.802 I-5.317 J5.748
G2 X20.405 Y83.091 I36.441 J22.198
G3 X21.33 Y84.681 I-0.905 J1.591
G1 Y87.28
G2 X23.5 Y89.45 I2.17
G1 X59.5
G2 X61.67 Y87.28 J-2.17
G1 Y84.681
G3 X62.595 Y83.091 I1.83
G2 X79.102 Y66.17 I-21.095 J-37.091
G1 X87.78
G2 X89.95 Y64 J-2.17
G3 X90.384 Y63.566 I0.434 F200
G1 X90.818
G18 G2 X91.252 Z6.934 K0.434
G1 Y64.434
Z6.434 F333.3
G3 X90.818 Z6 I-0.434
G1 X90.384 F200
G17 G3 X89.95 Y64 J-0.434
G1 Y48 F400
G2 X88.622 Y46 I-2.17
X89.95 Y44 I-0.842 J-2
G1 Y28
G2 X87.78 Y25.83 I-2.17
G1 X79.102
G2 X77.941 Y23.802 I-37.601 J20.171
G3 X79.311 Y13.98 I6.687 J-4.073
G1 X82.974 Y10.593
G2 X83.67 Y9 I-1.474 J-1.593
G1 Y1
G2 X81.5 Y-1.17 I-2.17
G1 X1.5
G2 X-0.67 Y1 J2.17
G1 Y9
G2 X0.026 Y10.593 I2.17
G1 X3.689 Y13.98
G3 X5.059 Y23.802 I-5.317 J5.748
G2 X20.405 Y83.091 I36.441 J22.198
G3 X21.33 Y84.681 I-0.905 J1.591
G1 Y87.28
G2 X23.5 Y89.45 I2.17
G1 X59.5
G2 X61.67 Y87.28 J-2.17
G1 Y84.681
G3 X62.595 Y83.091 I1.83
G2 X79.102 Y66.17 I-21.095 J-37.091
G1 X87.78
G2 X89.95 Y64 J-2.17
G3 X90.384 Y63.566 I0.434 F200
G1 X90.818
G18 G2 X91.252 Z6.434 K0.434
G1 Y64.434
Z5.934 F333.3
G3 X90.818 Z5.5 I-0.434
G1 X90.384 F200
G17 G3 X89.95 Y64 J-0.434
G1 Y48 F400
G2 X88.622 Y46 I-2.17
X89.95 Y44 I-0.842 J-2
G1 Y28
G2 X87.78 Y25.83 I-2.17
G1 X79.102
G2 X77.941 Y23.802 I-37.601 J20.171
G3 X79.311 Y13.98 I6.687 J-4.073
G1 X82.974 Y10.593
G2 X83.67 Y9 I-1.474 J-1.593
G1 Y1
G2 X81.5 Y-1.17 I-2.17
G1 X1.5
G2 X-0.67 Y1 J2.17
G1 Y9
G2 X0.026 Y10.593 I2.17
G1 X3.689 Y13.98
G3 X5.059 Y23.802 I-5.317 J5.748
G2 X20.405 Y83.091 I36.441 J22.198
G3 X21.33 Y84.681 I-0.905 J1.591
G1 Y87.28
G2 X23.5 Y89.45 I2.17
G1 X59.5
G2 X61.67 Y87.28 J-2.17
G1 Y84.681
G3 X62.595 Y83.091 I1.83
G2 X79.102 Y66.17 I-21.095 J-37.091
G1 X87.78
G2 X89.95 Y64 J-2.17
G3 X90.384 Y63.566 I0.434 F200
G1 X90.818
G18 G2 X91.252 Z5.934 K0.434
G1 Y64.434
Z5.434 F333.3
G3 X90.818 Z5 I-0.434
G1 X90.384 F200
G17 G3 X89.95 Y64 J-0.434
G1 Y48 F400
G2 X88.622 Y46 I-2.17
X89.95 Y44 I-0.842 J-2
G1 Y28
G2 X87.78 Y25.83 I-2.17
G1 X79.102
G2 X77.941 Y23.802 I-37.601 J20.171
G3 X79.311 Y13.98 I6.687 J-4.073
G1 X82.974 Y10.593
G2 X83.67 Y9 I-1.474 J-1.593
G1 Y1
G2 X81.5 Y-1.17 I-2.17
G1 X1.5
G2 X-0.67 Y1 J2.17
G1 Y9
G2 X0.026 Y10.593 I2.17
G1 X3.689 Y13.98
G3 X5.059 Y23.802 I-5.317 J5.748
G2 X20.405 Y83.091 I36.441 J22.198
G3 X21.33 Y84.681 I-0.905 J1.591
G1 Y87.28
G2 X23.5 Y89.45 I2.17
G1 X59.5
G2 X61.67 Y87.28 J-2.17
G1 Y84.681
G3 X62.595 Y83.091 I1.83
G2 X79.102 Y66.17 I-21.095 J-37.091
G1 X87.78
G2 X89.95 Y64 J-2.17
G3 X90.384 Y63.566 I0.434 F200
G1 X90.818
G18 G2 X91.252 Z5.434 K0.434
G1 Y64.434
Z4.934 F333.3
G3 X90.818 Z4.5 I-0.434
G1 X90.384 F200
G17 G3 X89.95 Y64 J-0.434
G1 Y48 F400
G2 X88.622 Y46 I-2.17
X89.95 Y44 I-0.842 J-2
G1 Y28
G2 X87.78 Y25.83 I-2.17
G1 X79.102
G2 X77.941 Y23.802 I-37.601 J20.171
G3 X79.311 Y13.98 I6.687 J-4.073
G1 X82.974 Y10.593
G2 X83.67 Y9 I-1.474 J-1.593
G1 Y1
G2 X81.5 Y-1.17 I-2.17
G1 X1.5
G2 X-0.67 Y1 J2.17
G1 Y9
G2 X0.026 Y10.593 I2.17
G1 X3.689 Y13.98
G3 X5.059 Y23.802 I-5.317 J5.748
G2 X20.405 Y83.091 I36.441 J22.198
G3 X21.33 Y84.681 I-0.905 J1.591
G1 Y87.28
G2 X23.5 Y89.45 I2.17
G1 X59.5
G2 X61.67 Y87.28 J-2.17
G1 Y84.681
G3 X62.595 Y83.091 I1.83
G2 X79.102 Y66.17 I-21.095 J-37.091
G1 X87.78
G2 X89.95 Y64 J-2.17
G3 X90.384 Y63.566 I0.434 F200
G1 X90.818
G18 G2 X91.252 Z4.934 K0.434
G1 Y64.434
Z4.434 F333.3
G3 X90.818 Z4 I-0.434
G1 X90.384 F200
G17 G3 X89.95 Y64 J-0.434
G1 Y48 F400
G2 X88.622 Y46 I-2.17
X89.95 Y44 I-0.842 J-2
G1 Y28
G2 X87.78 Y25.83 I-2.17
G1 X79.102
G2 X77.941 Y23.802 I-37.601 J20.171
G3 X79.311 Y13.98 I6.687 J-4.073
G1 X82.974 Y10.593
G2 X83.67 Y9 I-1.474 J-1.593
G1 Y1
G2 X81.5 Y-1.17 I-2.17
G1 X1.5
G2 X-0.67 Y1 J2.17
G1 Y9
G2 X0.026 Y10.593 I2.17
G1 X3.689 Y13.98
G3 X5.059 Y23.802 I-5.317 J5.748
G2 X20.405 Y83.091 I36.441 J22.198
G3 X21.33 Y84.681 I-0.905 J1.591
G1 Y87.28
G2 X23.5 Y89.45 I2.17
G1 X59.5
G2 X61.67 Y87.28 J-2.17
G1 Y84.681
G3 X62.595 Y83.091 I1.83
G2 X79.102 Y66.17 I-21.095 J-37.091
G1 X87.78
G2 X89.95 Y64 J-2.17
G3 X90.384 Y63.566 I0.434 F200
G1 X90.818
G18 G2 X91.252 Z4.434 K0.434
G1 Y64.434
Z3.934 F333.3
G3 X90.818 Z3.5 I-0.434
G1 X90.384 F200
G17 G3 X89.95 Y64 J-0.434
G1 Y48 F400
G2 X88.622 Y46 I-2.17
X89.95 Y44 I-0.842 J-2
G1 Y28
G2 X87.78 Y25.83 I-2.17
G1 X79.102
G2 X77.941 Y23.802 I-37.601 J20.171
G3 X79.311 Y13.98 I6.687 J-4.073
G1 X82.974 Y10.593
G2 X83.67 Y9 I-1.474 J-1.593
G1 Y1
G2 X81.5 Y-1.17 I-2.17
G1 X1.5
G2 X-0.67 Y1 J2.17
G1 Y9
G2 X0.026 Y10.593 I2.17
G1 X3.689 Y13.98
G3 X5.059 Y23.802 I-5.317 J5.748
G2 X20.405 Y83.091 I36.441 J22.198
G3 X21.33 Y84.681 I-0.905 J1.591
G1 Y87.28
G2 X23.5 Y89.45 I2.17
G1 X59.5
G2 X61.67 Y87.28 J-2.17
G1 Y84.681
G3 X62.595 Y83.091 I1.83
G2 X79.102 Y66.17 I-21.095 J-37.091
G1 X87.78
G2 X89.95 Y64 J-2.17
G3 X90.384 Y63.566 I0.434 F200
G1 X90.818
G18 G2 X91.252 Z3.934 K0.434
G1 Y64.434
Z3.434 F333.3
G3 X90.818 Z3 I-0.434
G1 X90.384 F200
G17 G3 X89.95 Y64 J-0.434
G1 Y48 F400
G2 X88.622 Y46 I-2.17
X89.95 Y44 I-0.842 J-2
G1 Y28
G2 X87.78 Y25.83 I-2.17
G1 X79.102
G2 X77.941 Y23.802 I-37.601 J20.171
G3 X79.311 Y13.98 I6.687 J-4.073
G1 X82.974 Y10.593
G2 X83.67 Y9 I-1.474 J-1.593
G1 Y1
G2 X81.5 Y-1.17 I-2.17
G1 X1.5
G2 X-0.67 Y1 J2.17
G1 Y9
G2 X0.026 Y10.593 I2.17
G1 X3.689 Y13.98
G3 X5.059 Y23.802 I-5.317 J5.748
G2 X20.405 Y83.091 I36.441 J22.198
G3 X21.33 Y84.681 I-0.905 J1.591
G1 Y87.28
G2 X23.5 Y89.45 I2.17
G1 X59.5
G2 X61.67 Y87.28 J-2.17
G1 Y84.681
G3 X62.595 Y83.091 I1.83
G2 X79.102 Y66.17 I-21.095 J-37.091
G1 X87.78
G2 X89.95 Y64 J-2.17
G3 X90.384 Y63.566 I0.434 F200
G1 X90.818
G18 G2 X91.252 Z3.434 K0.434
G1 Y64.434
Z2.934 F333.3
G3 X90.818 Z2.5 I-0.434
G1 X90.384 F200
G17 G3 X89.95 Y64 J-0.434
G1 Y48 F400
G2 X88.622 Y46 I-2.17
X89.95 Y44 I-0.842 J-2
G1 Y28
G2 X87.78 Y25.83 I-2.17
G1 X79.102
G2 X77.941 Y23.802 I-37.601 J20.171
G3 X79.311 Y13.98 I6.687 J-4.073
G1 X82.974 Y10.593
G2 X83.67 Y9 I-1.474 J-1.593
G1 Y1
G2 X81.5 Y-1.17 I-2.17
G1 X1.5
G2 X-0.67 Y1 J2.17
G1 Y9
G2 X0.026 Y10.593 I2.17
G1 X3.689 Y13.98
G3 X5.059 Y23.802 I-5.317 J5.748
G2 X20.405 Y83.091 I36.441 J22.198
G3 X21.33 Y84.681 I-0.905 J1.591
G1 Y87.28
G2 X23.5 Y89.45 I2.17
G1 X59.5
G2 X61.67 Y87.28 J-2.17
G1 Y84.681
G3 X62.595 Y83.091 I1.83
G2 X79.102 Y66.17 I-21.095 J-37.091
G1 X87.78
G2 X89.95 Y64 J-2.17
G3 X90.384 Y63.566 I0.434 F200
G1 X90.818
G18 G2 X91.252 Z2.934 K0.434
G1 Y64.434
Z2.434 F333.3
G3 X90.818 Z2 I-0.434
G1 X90.384 F200
G17 G3 X89.95 Y64 J-0.434
G1 Y48 F400
G2 X88.622 Y46 I-2.17
X89.95 Y44 I-0.842 J-2
G1 Y28
G2 X87.78 Y25.83 I-2.17
G1 X79.102
G2 X77.941 Y23.802 I-37.601 J20.171
G3 X79.311 Y13.98 I6.687 J-4.073
G1 X82.974 Y10.593
G2 X83.67 Y9 I-1.474 J-1.593
G1 Y1
G2 X81.5 Y-1.17 I-2.17
G1 X1.5
G2 X-0.67 Y1 J2.17
G1 Y9
G2 X0.026 Y10.593 I2.17
G1 X3.689 Y13.98
G3 X5.059 Y23.802 I-5.317 J5.748
G2 X20.405 Y83.091 I36.441 J22.198
G3 X21.33 Y84.681 I-0.905 J1.591
G1 Y87.28
G2 X23.5 Y89.45 I2.17
G1 X59.5
G2 X61.67 Y87.28 J-2.17
G1 Y84.681
G3 X62.595 Y83.091 I1.83
G2 X79.102 Y66.17 I-21.095 J-37.091
G1 X87.78
G2 X89.95 Y64 J-2.17
G3 X90.384 Y63.566 I0.434 F200
G1 X90.818
G18 G2 X91.252 Z2.434 K0.434
G1 Y64.434
Z1.934 F333.3
G3 X90.818 Z1.5 I-0.434
G1 X90.384 F200
G17 G3 X89.95 Y64 J-0.434
G1 Y48 F400
G2 X88.622 Y46 I-2.17
X89.95 Y44 I-0.842 J-2
G1 Y28
G2 X87.78 Y25.83 I-2.17
G1 X79.102
G2 X77.941 Y23.802 I-37.601 J20.171
G3 X79.311 Y13.98 I6.687 J-4.073
G1 X82.974 Y10.593
G2 X83.67 Y9 I-1.474 J-1.593
G1 Y1
G2 X81.5 Y-1.17 I-2.17
G1 X1.5
G2 X-0.67 Y1 J2.17
G1 Y9
G2 X0.026 Y10.593 I2.17
G1 X3.689 Y13.98
G3 X5.059 Y23.802 I-5.317 J5.748
G2 X20.405 Y83.091 I36.441 J22.198
G3 X21.33 Y84.681 I-0.905 J1.591
G1 Y87.28
G2 X23.5 Y89.45 I2.17
G1 X59.5
G2 X61.67 Y87.28 J-2.17
G1 Y84.681
G3 X62.595 Y83.091 I1.83
G2 X79.102 Y66.17 I-21.095 J-37.091
G1 X87.78
G2 X89.95 Y64 J-2.17
G3 X90.384 Y63.566 I0.434 F200
G1 X90.818
G18 G2 X91.252 Z1.934 K0.434
G1 Y64.434
Z1.434 F333.3
G3 X90.818 Z1 I-0.434
G1 X90.384 F200
G17 G3 X89.95 Y64 J-0.434
G1 Y48 F400
G2 X88.622 Y46 I-2.17
X89.95 Y44 I-0.842 J-2
G1 Y28
G2 X87.78 Y25.83 I-2.17
G1 X79.102
G2 X77.941 Y23.802 I-37.601 J20.171
G3 X79.311 Y13.98 I6.687 J-4.073
G1 X82.974 Y10.593
G2 X83.67 Y9 I-1.474 J-1.593
G1 Y1
G2 X81.5 Y-1.17 I-2.17
G1 X1.5
G2 X-0.67 Y1 J2.17
G1 Y9
G2 X0.026 Y10.593 I2.17
G1 X3.689 Y13.98
G3 X5.059 Y23.802 I-5.317 J5.748
G2 X20.405 Y83.091 I36.441 J22.198
G3 X21.33 Y84.681 I-0.905 J1.591
G1 Y87.28
G2 X23.5 Y89.45 I2.17
G1 X59.5
G2 X61.67 Y87.28 J-2.17
G1 Y84.681
G3 X62.595 Y83.091 I1.83
G2 X79.102 Y66.17 I-21.095 J-37.091
G1 X87.78
G2 X89.95 Y64 J-2.17
G3 X90.384 Y63.566 I0.434 F200
G1 X90.818
G18 G2 X91.252 Z1.434 K0.434
G1 Y64.434
Z0.934 F333.3
G3 X90.818 Z0.5 I-0.434
G1 X90.384 F200
G17 G3 X89.95 Y64 J-0.434
G1 Y48 F400
G2 X88.622 Y46 I-2.17
X89.95 Y44 I-0.842 J-2
G1 Y28
G2 X87.78 Y25.83 I-2.17
G1 X79.102
G2 X77.941 Y23.802 I-37.601 J20.171
G3 X79.311 Y13.98 I6.687 J-4.073
G1 X82.974 Y10.593
G2 X83.67 Y9 I-1.474 J-1.593
G1 Y1
G2 X81.5 Y-1.17 I-2.17
G1 X1.5
G2 X-0.67 Y1 J2.17
G1 Y9
G2 X0.026 Y10.593 I2.17
G1 X3.689 Y13.98
G3 X5.059 Y23.802 I-5.317 J5.748
G2 X20.405 Y83.091 I36.441 J22.198
G3 X21.33 Y84.681 I-0.905 J1.591
G1 Y87.28
G2 X23.5 Y89.45 I2.17
G1 X59.5
G2 X61.67 Y87.28 J-2.17
G1 Y84.681
G3 X62.595 Y83.091 I1.83
G2 X79.102 Y66.17 I-21.095 J-37.091
G1 X87.78
G2 X89.95 Y64 J-2.17
G3 X90.384 Y63.566 I0.434 F200
G1 X90.818
G18 G2 X91.252 Z0.934 K0.434
G1 Y64.434
Z0.434 F333.3
G3 X90.818 Z0 I-0.434
G1 X90.384 F200
G17 G3 X89.95 Y64 J-0.434
G1 Y48 F400
G2 X88.622 Y46 I-2.17
X89.95 Y44 I-0.842 J-2
G1 Y28
G2 X87.78 Y25.83 I-2.17
G1 X79.102
G2 X77.941 Y23.802 I-37.601 J20.171
G3 X79.311 Y13.98 I6.687 J-4.073
G1 X82.974 Y10.593
G2 X83.67 Y9 I-1.474 J-1.593
G1 Y1
G2 X81.5 Y-1.17 I-2.17
G1 X1.5
G2 X-0.67 Y1 J2.17
G1 Y9
G2 X0.026 Y10.593 I2.17
G1 X3.689 Y13.98
G3 X5.059 Y23.802 I-5.317 J5.748
G2 X20.405 Y83.091 I36.441 J22.198
G3 X21.33 Y84.681 I-0.905 J1.591
G1 Y87.28
G2 X23.5 Y89.45 I2.17
G1 X59.5
G2 X61.67 Y87.28 J-2.17
G1 Y84.681
G3 X62.595 Y83.091 I1.83
G2 X79.102 Y66.17 I-21.095 J-37.091
G1 X87.78
G2 X89.95 Y64 J-2.17
G3 X90.384 Y63.566 I0.434 F200
G1 X90.818
G18 G2 X91.252 Z0.434 K0.434
G0 Z36
G17
M9
G28 G91 Z0
G28 X0 Y0
M30
%
