%
(1001)
(T4  D=4.34 CR=0 - ZMIN=0 - flat end mill)
G90 G94
G17
G21
G28 G91 Z0
G90

(2D Contour1)
M9
T4 M6
S5000 M3
G54
M8
G0 X70.433 Y43.334
Z36
Z26
G1 Z22.5 F200
Z20.934 F333.3
X70.439 Z20.859
X70.459 Y43.332 Z20.786
X70.491 Y43.33 Z20.717
X70.534 Y43.326 Z20.655
X70.587 Y43.322 Z20.602
X70.649 Y43.318 Z20.558
X70.717 Y43.312 Z20.526
X70.79 Y43.307 Z20.507
X70.865 Y43.301 Z20.5
X71.298 Y43.268 F200
G3 X71.764 Y43.667 I0.033 J0.433
G2 X73.949 Y45.67 I2.164 J-0.167 F400
G1 X87.78
G2 X89.95 Y43.5 J-2.17
G1 Y28
G2 X87.78 Y25.83 I-2.17
G1 X79.102
G2 X77.941 Y23.802 I-37.601 J20.171
G3 X79.311 Y13.98 I6.687 J-4.073
G1 X82.974 Y10.593
G2 X83.67 Y9 I-1.474 J-1.593
G1 Y1
G2 X81.5 Y-1.17 I-2.17
G1 X1.5
G2 X-0.67 Y1 J2.17
G1 Y9
G2 X0.026 Y10.593 I2.17
G1 X3.689 Y13.98
G3 X5.059 Y23.802 I-5.317 J5.748
G2 X20.405 Y83.091 I36.441 J22.198
G3 X21.33 Y84.681 I-0.905 J1.591
G1 Y87.28
G2 X23.5 Y89.45 I2.17
G1 X59.5
G2 X61.67 Y87.28 J-2.17
G1 Y84.681
G3 X62.595 Y83.091 I1.83
G2 X79.102 Y66.17 I-21.095 J-37.091
G1 X87.78
G2 X89.95 Y64 J-2.17
G1 Y48.5
G2 X87.78 Y46.33 I-2.17
G1 X73.949
G2 X71.764 Y48.333 I-0.021 J2.17
G3 X11.236 Y43.667 I-30.264 J-2.333
X23.216 Y21.77 I30.264 J2.333
G2 X25.67 Y16.845 I-3.717 J-4.925
G1 Y11.17
X57.33
Y16.845
G2 X59.783 Y21.77 I6.17
G3 X71.764 Y43.667 I-18.283 J24.23
X71.365 Y44.133 I-0.433 J0.033 F200
G1 X70.932 Y44.166
X70.857 Y44.172 Z20.507
X70.784 Y44.178 Z20.526
X70.716 Y44.183 Z20.558
X70.654 Y44.188 Z20.602
X70.601 Y44.192 Z20.655
X70.557 Y44.195 Z20.717
X70.525 Y44.198 Z20.786
X70.506 Y44.199 Z20.859
X70.499 Y44.2 Z20.934
X70.433 Y43.334
Z20.434 F333.3
X70.439 Z20.359
X70.459 Y43.332 Z20.286
X70.491 Y43.33 Z20.217
X70.534 Y43.326 Z20.155
X70.587 Y43.322 Z20.102
X70.649 Y43.318 Z20.058
X70.717 Y43.312 Z20.026
X70.79 Y43.307 Z20.007
X70.865 Y43.301 Z20
X71.298 Y43.268 F200
G3 X71.764 Y43.667 I0.033 J0.433
G2 X73.949 Y45.67 I2.164 J-0.167 F400
G1 X87.78
G2 X89.95 Y43.5 J-2.17
G1 Y28
G2 X87.78 Y25.83 I-2.17
G1 X79.102
G2 X77.941 Y23.802 I-37.601 J20.171
G3 X79.311 Y13.98 I6.687 J-4.073
G1 X82.974 Y10.593
G2 X83.67 Y9 I-1.474 J-1.593
G1 Y1
G2 X81.5 Y-1.17 I-2.17
G1 X1.5
G2 X-0.67 Y1 J2.17
G1 Y9
G2 X0.026 Y10.593 I2.17
G1 X3.689 Y13.98
G3 X5.059 Y23.802 I-5.317 J5.748
G2 X20.405 Y83.091 I36.441 J22.198
G3 X21.33 Y84.681 I-0.905 J1.591
G1 Y87.28
G2 X23.5 Y89.45 I2.17
G1 X59.5
G2 X61.67 Y87.28 J-2.17
G1 Y84.681
G3 X62.595 Y83.091 I1.83
G2 X79.102 Y66.17 I-21.095 J-37.091
G1 X87.78
G2 X89.95 Y64 J-2.17
G1 Y48.5
G2 X87.78 Y46.33 I-2.17
G1 X73.949
G2 X71.764 Y48.333 I-0.021 J2.17
G3 X11.236 Y43.667 I-30.264 J-2.333
X23.216 Y21.77 I30.264 J2.333
G2 X25.67 Y16.845 I-3.717 J-4.925
G1 Y11.17
X57.33
Y16.845
G2 X59.783 Y21.77 I6.17
G3 X71.764 Y43.667 I-18.283 J24.23
X71.365 Y44.133 I-0.433 J0.033 F200
G1 X70.932 Y44.166
X70.857 Y44.172 Z20.007
X70.784 Y44.178 Z20.026
X70.716 Y44.183 Z20.058
X70.654 Y44.188 Z20.102
X70.601 Y44.192 Z20.155
X70.557 Y44.195 Z20.217
X70.525 Y44.198 Z20.286
X70.506 Y44.199 Z20.359
X70.499 Y44.2 Z20.434
X70.433 Y43.334
Z19.934 F333.3
X70.439 Z19.859
X70.459 Y43.332 Z19.786
X70.491 Y43.33 Z19.717
X70.534 Y43.326 Z19.655
X70.587 Y43.322 Z19.602
X70.649 Y43.318 Z19.558
X70.717 Y43.312 Z19.526
X70.79 Y43.307 Z19.507
X70.865 Y43.301 Z19.5
X71.298 Y43.268 F200
G3 X71.764 Y43.667 I0.033 J0.433
G2 X73.949 Y45.67 I2.164 J-0.167 F400
G1 X87.78
G2 X89.95 Y43.5 J-2.17
G1 Y28
G2 X87.78 Y25.83 I-2.17
G1 X79.102
G2 X77.941 Y23.802 I-37.601 J20.171
G3 X79.311 Y13.98 I6.687 J-4.073
G1 X82.974 Y10.593
G2 X83.67 Y9 I-1.474 J-1.593
G1 Y1
G2 X81.5 Y-1.17 I-2.17
G1 X1.5
G2 X-0.67 Y1 J2.17
G1 Y9
G2 X0.026 Y10.593 I2.17
G1 X3.689 Y13.98
G3 X5.059 Y23.802 I-5.317 J5.748
G2 X20.405 Y83.091 I36.441 J22.198
G3 X21.33 Y84.681 I-0.905 J1.591
G1 Y87.28
G2 X23.5 Y89.45 I2.17
G1 X59.5
G2 X61.67 Y87.28 J-2.17
G1 Y84.681
G3 X62.595 Y83.091 I1.83
G2 X79.102 Y66.17 I-21.095 J-37.091
G1 X87.78
G2 X89.95 Y64 J-2.17
G1 Y48.5
G2 X87.78 Y46.33 I-2.17
G1 X73.949
G2 X71.764 Y48.333 I-0.021 J2.17
G3 X11.236 Y43.667 I-30.264 J-2.333
X23.216 Y21.77 I30.264 J2.333
G2 X25.67 Y16.845 I-3.717 J-4.925
G1 Y11.17
X57.33
Y16.845
G2 X59.783 Y21.77 I6.17
G3 X71.764 Y43.667 I-18.283 J24.23
X71.365 Y44.133 I-0.433 J0.033 F200
G1 X70.932 Y44.166
X70.857 Y44.172 Z19.507
X70.784 Y44.178 Z19.526
X70.716 Y44.183 Z19.558
X70.654 Y44.188 Z19.602
X70.601 Y44.192 Z19.655
X70.557 Y44.195 Z19.717
X70.525 Y44.198 Z19.786
X70.506 Y44.199 Z19.859
X70.499 Y44.2 Z19.934
X70.433 Y43.334
Z19.434 F333.3
X70.439 Z19.359
X70.459 Y43.332 Z19.286
X70.491 Y43.33 Z19.217
X70.534 Y43.326 Z19.155
X70.587 Y43.322 Z19.102
X70.649 Y43.318 Z19.058
X70.717 Y43.312 Z19.026
X70.79 Y43.307 Z19.007
X70.865 Y43.301 Z19
X71.298 Y43.268 F200
G3 X71.764 Y43.667 I0.033 J0.433
G2 X73.949 Y45.67 I2.164 J-0.167 F400
G1 X87.78
G2 X89.95 Y43.5 J-2.17
G1 Y28
G2 X87.78 Y25.83 I-2.17
G1 X79.102
G2 X77.941 Y23.802 I-37.601 J20.171
G3 X79.311 Y13.98 I6.687 J-4.073
G1 X82.974 Y10.593
G2 X83.67 Y9 I-1.474 J-1.593
G1 Y1
G2 X81.5 Y-1.17 I-2.17
G1 X1.5
G2 X-0.67 Y1 J2.17
G1 Y9
G2 X0.026 Y10.593 I2.17
G1 X3.689 Y13.98
G3 X5.059 Y23.802 I-5.317 J5.748
G2 X20.405 Y83.091 I36.441 J22.198
G3 X21.33 Y84.681 I-0.905 J1.591
G1 Y87.28
G2 X23.5 Y89.45 I2.17
G1 X59.5
G2 X61.67 Y87.28 J-2.17
G1 Y84.681
G3 X62.595 Y83.091 I1.83
G2 X79.102 Y66.17 I-21.095 J-37.091
G1 X87.78
G2 X89.95 Y64 J-2.17
G1 Y48.5
G2 X87.78 Y46.33 I-2.17
G1 X73.949
G2 X71.764 Y48.333 I-0.021 J2.17
G3 X11.236 Y43.667 I-30.264 J-2.333
X23.216 Y21.77 I30.264 J2.333
G2 X25.67 Y16.845 I-3.717 J-4.925
G1 Y11.17
X57.33
Y16.845
G2 X59.783 Y21.77 I6.17
G3 X71.764 Y43.667 I-18.283 J24.23
X71.365 Y44.133 I-0.433 J0.033 F200
G1 X70.932 Y44.166
X70.857 Y44.172 Z19.007
X70.784 Y44.178 Z19.026
X70.716 Y44.183 Z19.058
X70.654 Y44.188 Z19.102
X70.601 Y44.192 Z19.155
X70.557 Y44.195 Z19.217
X70.525 Y44.198 Z19.286
X70.506 Y44.199 Z19.359
X70.499 Y44.2 Z19.434
X70.433 Y43.334
Z18.934 F333.3
X70.439 Z18.859
X70.459 Y43.332 Z18.786
X70.491 Y43.33 Z18.717
X70.534 Y43.326 Z18.655
X70.587 Y43.322 Z18.602
X70.649 Y43.318 Z18.558
X70.717 Y43.312 Z18.526
X70.79 Y43.307 Z18.507
X70.865 Y43.301 Z18.5
X71.298 Y43.268 F200
G3 X71.764 Y43.667 I0.033 J0.433
G2 X73.949 Y45.67 I2.164 J-0.167 F400
G1 X87.78
G2 X89.95 Y43.5 J-2.17
G1 Y28
G2 X87.78 Y25.83 I-2.17
G1 X79.102
G2 X77.941 Y23.802 I-37.601 J20.171
G3 X79.311 Y13.98 I6.687 J-4.073
G1 X82.974 Y10.593
G2 X83.67 Y9 I-1.474 J-1.593
G1 Y1
G2 X81.5 Y-1.17 I-2.17
G1 X1.5
G2 X-0.67 Y1 J2.17
G1 Y9
G2 X0.026 Y10.593 I2.17
G1 X3.689 Y13.98
G3 X5.059 Y23.802 I-5.317 J5.748
G2 X20.405 Y83.091 I36.441 J22.198
G3 X21.33 Y84.681 I-0.905 J1.591
G1 Y87.28
G2 X23.5 Y89.45 I2.17
G1 X59.5
G2 X61.67 Y87.28 J-2.17
G1 Y84.681
G3 X62.595 Y83.091 I1.83
G2 X79.102 Y66.17 I-21.095 J-37.091
G1 X87.78
G2 X89.95 Y64 J-2.17
G1 Y48.5
G2 X87.78 Y46.33 I-2.17
G1 X73.949
G2 X71.764 Y48.333 I-0.021 J2.17
G3 X11.236 Y43.667 I-30.264 J-2.333
X23.216 Y21.77 I30.264 J2.333
G2 X25.67 Y16.845 I-3.717 J-4.925
G1 Y11.17
X57.33
Y16.845
G2 X59.783 Y21.77 I6.17
G3 X71.764 Y43.667 I-18.283 J24.23
X71.365 Y44.133 I-0.433 J0.033 F200
G1 X70.932 Y44.166
X70.857 Y44.172 Z18.507
X70.784 Y44.178 Z18.526
X70.716 Y44.183 Z18.558
X70.654 Y44.188 Z18.602
X70.601 Y44.192 Z18.655
X70.557 Y44.195 Z18.717
X70.525 Y44.198 Z18.786
X70.506 Y44.199 Z18.859
X70.499 Y44.2 Z18.934
X70.433 Y43.334
Z18.434 F333.3
X70.439 Z18.359
X70.459 Y43.332 Z18.286
X70.491 Y43.33 Z18.217
X70.534 Y43.326 Z18.155
X70.587 Y43.322 Z18.102
X70.649 Y43.318 Z18.058
X70.717 Y43.312 Z18.026
X70.79 Y43.307 Z18.007
X70.865 Y43.301 Z18
X71.298 Y43.268 F200
G3 X71.764 Y43.667 I0.033 J0.433
G2 X73.949 Y45.67 I2.164 J-0.167 F400
G1 X87.78
G2 X89.95 Y43.5 J-2.17
G1 Y28
G2 X87.78 Y25.83 I-2.17
G1 X79.102
G2 X77.941 Y23.802 I-37.601 J20.171
G3 X79.311 Y13.98 I6.687 J-4.073
G1 X82.974 Y10.593
G2 X83.67 Y9 I-1.474 J-1.593
G1 Y1
G2 X81.5 Y-1.17 I-2.17
G1 X1.5
G2 X-0.67 Y1 J2.17
G1 Y9
G2 X0.026 Y10.593 I2.17
G1 X3.689 Y13.98
G3 X5.059 Y23.802 I-5.317 J5.748
G2 X20.405 Y83.091 I36.441 J22.198
G3 X21.33 Y84.681 I-0.905 J1.591
G1 Y87.28
G2 X23.5 Y89.45 I2.17
G1 X59.5
G2 X61.67 Y87.28 J-2.17
G1 Y84.681
G3 X62.595 Y83.091 I1.83
G2 X79.102 Y66.17 I-21.095 J-37.091
G1 X87.78
G2 X89.95 Y64 J-2.17
G1 Y48.5
G2 X87.78 Y46.33 I-2.17
G1 X73.949
G2 X71.764 Y48.333 I-0.021 J2.17
G3 X11.236 Y43.667 I-30.264 J-2.333
X23.216 Y21.77 I30.264 J2.333
G2 X25.67 Y16.845 I-3.717 J-4.925
G1 Y11.17
X57.33
Y16.845
G2 X59.783 Y21.77 I6.17
G3 X71.764 Y43.667 I-18.283 J24.23
X71.365 Y44.133 I-0.433 J0.033 F200
G1 X70.932 Y44.166
X70.857 Y44.172 Z18.007
X70.784 Y44.178 Z18.026
X70.716 Y44.183 Z18.058
X70.654 Y44.188 Z18.102
X70.601 Y44.192 Z18.155
X70.557 Y44.195 Z18.217
X70.525 Y44.198 Z18.286
X70.506 Y44.199 Z18.359
X70.499 Y44.2 Z18.434
X70.433 Y43.334
Z17.934 F333.3
X70.439 Z17.859
X70.459 Y43.332 Z17.786
X70.491 Y43.33 Z17.717
X70.534 Y43.326 Z17.655
X70.587 Y43.322 Z17.602
X70.649 Y43.318 Z17.558
X70.717 Y43.312 Z17.526
X70.79 Y43.307 Z17.507
X70.865 Y43.301 Z17.5
X71.298 Y43.268 F200
G3 X71.764 Y43.667 I0.033 J0.433
G2 X73.949 Y45.67 I2.164 J-0.167 F400
G1 X87.78
G2 X89.95 Y43.5 J-2.17
G1 Y28
G2 X87.78 Y25.83 I-2.17
G1 X79.102
G2 X77.941 Y23.802 I-37.601 J20.171
G3 X79.311 Y13.98 I6.687 J-4.073
G1 X82.974 Y10.593
G2 X83.67 Y9 I-1.474 J-1.593
G1 Y1
G2 X81.5 Y-1.17 I-2.17
G1 X1.5
G2 X-0.67 Y1 J2.17
G1 Y9
G2 X0.026 Y10.593 I2.17
G1 X3.689 Y13.98
G3 X5.059 Y23.802 I-5.317 J5.748
G2 X20.405 Y83.091 I36.441 J22.198
G3 X21.33 Y84.681 I-0.905 J1.591
G1 Y87.28
G2 X23.5 Y89.45 I2.17
G1 X59.5
G2 X61.67 Y87.28 J-2.17
G1 Y84.681
G3 X62.595 Y83.091 I1.83
G2 X79.102 Y66.17 I-21.095 J-37.091
G1 X87.78
G2 X89.95 Y64 J-2.17
G1 Y48.5
G2 X87.78 Y46.33 I-2.17
G1 X73.949
G2 X71.764 Y48.333 I-0.021 J2.17
G3 X11.236 Y43.667 I-30.264 J-2.333
X23.216 Y21.77 I30.264 J2.333
G2 X25.67 Y16.845 I-3.717 J-4.925
G1 Y11.17
X57.33
Y16.845
G2 X59.783 Y21.77 I6.17
G3 X71.764 Y43.667 I-18.283 J24.23
X71.365 Y44.133 I-0.433 J0.033 F200
G1 X70.932 Y44.166
X70.857 Y44.172 Z17.507
X70.784 Y44.178 Z17.526
X70.716 Y44.183 Z17.558
X70.654 Y44.188 Z17.602
X70.601 Y44.192 Z17.655
X70.557 Y44.195 Z17.717
X70.525 Y44.198 Z17.786
X70.506 Y44.199 Z17.859
X70.499 Y44.2 Z17.934
X70.433 Y43.334
Z17.434 F333.3
X70.439 Z17.359
X70.459 Y43.332 Z17.286
X70.491 Y43.33 Z17.217
X70.534 Y43.326 Z17.155
X70.587 Y43.322 Z17.102
X70.649 Y43.318 Z17.058
X70.717 Y43.312 Z17.026
X70.79 Y43.307 Z17.007
X70.865 Y43.301 Z17
X71.298 Y43.268 F200
G3 X71.764 Y43.667 I0.033 J0.433
G2 X73.949 Y45.67 I2.164 J-0.167 F400
G1 X87.78
G2 X89.95 Y43.5 J-2.17
G1 Y28
G2 X87.78 Y25.83 I-2.17
G1 X79.102
G2 X77.941 Y23.802 I-37.601 J20.171
G3 X79.311 Y13.98 I6.687 J-4.073
G1 X82.974 Y10.593
G2 X83.67 Y9 I-1.474 J-1.593
G1 Y1
G2 X81.5 Y-1.17 I-2.17
G1 X1.5
G2 X-0.67 Y1 J2.17
G1 Y9
G2 X0.026 Y10.593 I2.17
G1 X3.689 Y13.98
G3 X5.059 Y23.802 I-5.317 J5.748
G2 X20.405 Y83.091 I36.441 J22.198
G3 X21.33 Y84.681 I-0.905 J1.591
G1 Y87.28
G2 X23.5 Y89.45 I2.17
G1 X59.5
G2 X61.67 Y87.28 J-2.17
G1 Y84.681
G3 X62.595 Y83.091 I1.83
G2 X79.102 Y66.17 I-21.095 J-37.091
G1 X87.78
G2 X89.95 Y64 J-2.17
G1 Y48.5
G2 X87.78 Y46.33 I-2.17
G1 X73.949
G2 X71.764 Y48.333 I-0.021 J2.17
G3 X11.236 Y43.667 I-30.264 J-2.333
X23.216 Y21.77 I30.264 J2.333
G2 X25.67 Y16.845 I-3.717 J-4.925
G1 Y11.17
X57.33
Y16.845
G2 X59.783 Y21.77 I6.17
G3 X71.764 Y43.667 I-18.283 J24.23
X71.365 Y44.133 I-0.433 J0.033 F200
G1 X70.932 Y44.166
X70.857 Y44.172 Z17.007
X70.784 Y44.178 Z17.026
X70.716 Y44.183 Z17.058
X70.654 Y44.188 Z17.102
X70.601 Y44.192 Z17.155
X70.557 Y44.195 Z17.217
X70.525 Y44.198 Z17.286
X70.506 Y44.199 Z17.359
X70.499 Y44.2 Z17.434
X70.433 Y43.334
Z16.934 F333.3
X70.439 Z16.859
X70.459 Y43.332 Z16.786
X70.491 Y43.33 Z16.717
X70.534 Y43.326 Z16.655
X70.587 Y43.322 Z16.602
X70.649 Y43.318 Z16.558
X70.717 Y43.312 Z16.526
X70.79 Y43.307 Z16.507
X70.865 Y43.301 Z16.5
X71.298 Y43.268 F200
G3 X71.764 Y43.667 I0.033 J0.433
G2 X73.949 Y45.67 I2.164 J-0.167 F400
G1 X87.78
G2 X89.95 Y43.5 J-2.17
G1 Y28
G2 X87.78 Y25.83 I-2.17
G1 X79.102
G2 X77.941 Y23.802 I-37.601 J20.171
G3 X79.311 Y13.98 I6.687 J-4.073
G1 X82.974 Y10.593
G2 X83.67 Y9 I-1.474 J-1.593
G1 Y1
G2 X81.5 Y-1.17 I-2.17
G1 X1.5
G2 X-0.67 Y1 J2.17
G1 Y9
G2 X0.026 Y10.593 I2.17
G1 X3.689 Y13.98
G3 X5.059 Y23.802 I-5.317 J5.748
G2 X20.405 Y83.091 I36.441 J22.198
G3 X21.33 Y84.681 I-0.905 J1.591
G1 Y87.28
G2 X23.5 Y89.45 I2.17
G1 X59.5
G2 X61.67 Y87.28 J-2.17
G1 Y84.681
G3 X62.595 Y83.091 I1.83
G2 X79.102 Y66.17 I-21.095 J-37.091
G1 X87.78
G2 X89.95 Y64 J-2.17
G1 Y48.5
G2 X87.78 Y46.33 I-2.17
G1 X73.949
G2 X71.764 Y48.333 I-0.021 J2.17
G3 X11.236 Y43.667 I-30.264 J-2.333
X23.216 Y21.77 I30.264 J2.333
G2 X25.67 Y16.845 I-3.717 J-4.925
G1 Y11.17
X57.33
Y16.845
G2 X59.783 Y21.77 I6.17
G3 X71.764 Y43.667 I-18.283 J24.23
X71.365 Y44.133 I-0.433 J0.033 F200
G1 X70.932 Y44.166
X70.857 Y44.172 Z16.507
X70.784 Y44.178 Z16.526
X70.716 Y44.183 Z16.558
X70.654 Y44.188 Z16.602
X70.601 Y44.192 Z16.655
X70.557 Y44.195 Z16.717
X70.525 Y44.198 Z16.786
X70.506 Y44.199 Z16.859
X70.499 Y44.2 Z16.934
X70.433 Y43.334
Z16.434 F333.3
X70.439 Z16.359
X70.459 Y43.332 Z16.286
X70.491 Y43.33 Z16.217
X70.534 Y43.326 Z16.155
X70.587 Y43.322 Z16.102
X70.649 Y43.318 Z16.058
X70.717 Y43.312 Z16.026
X70.79 Y43.307 Z16.007
X70.865 Y43.301 Z16
X71.298 Y43.268 F200
G3 X71.764 Y43.667 I0.033 J0.433
G2 X73.949 Y45.67 I2.164 J-0.167 F400
G1 X87.78
G2 X89.95 Y43.5 J-2.17
G1 Y28
G2 X87.78 Y25.83 I-2.17
G1 X79.102
G2 X77.941 Y23.802 I-37.601 J20.171
G3 X79.311 Y13.98 I6.687 J-4.073
G1 X82.974 Y10.593
G2 X83.67 Y9 I-1.474 J-1.593
G1 Y1
G2 X81.5 Y-1.17 I-2.17
G1 X1.5
G2 X-0.67 Y1 J2.17
G1 Y9
G2 X0.026 Y10.593 I2.17
G1 X3.689 Y13.98
G3 X5.059 Y23.802 I-5.317 J5.748
G2 X20.405 Y83.091 I36.441 J22.198
G3 X21.33 Y84.681 I-0.905 J1.591
G1 Y87.28
G2 X23.5 Y89.45 I2.17
G1 X59.5
G2 X61.67 Y87.28 J-2.17
G1 Y84.681
G3 X62.595 Y83.091 I1.83
G2 X79.102 Y66.17 I-21.095 J-37.091
G1 X87.78
G2 X89.95 Y64 J-2.17
G1 Y48.5
G2 X87.78 Y46.33 I-2.17
G1 X73.949
G2 X71.764 Y48.333 I-0.021 J2.17
G3 X11.236 Y43.667 I-30.264 J-2.333
X23.216 Y21.77 I30.264 J2.333
G2 X25.67 Y16.845 I-3.717 J-4.925
G1 Y11.17
X57.33
Y16.845
G2 X59.783 Y21.77 I6.17
G3 X71.764 Y43.667 I-18.283 J24.23
X71.365 Y44.133 I-0.433 J0.033 F200
G1 X70.932 Y44.166
X70.857 Y44.172 Z16.007
X70.784 Y44.178 Z16.026
X70.716 Y44.183 Z16.058
X70.654 Y44.188 Z16.102
X70.601 Y44.192 Z16.155
X70.557 Y44.195 Z16.217
X70.525 Y44.198 Z16.286
X70.506 Y44.199 Z16.359
X70.499 Y44.2 Z16.434
X70.433 Y43.334
Z15.934 F333.3
X70.439 Z15.859
X70.459 Y43.332 Z15.786
X70.491 Y43.33 Z15.717
X70.534 Y43.326 Z15.655
X70.587 Y43.322 Z15.602
X70.649 Y43.318 Z15.558
X70.717 Y43.312 Z15.526
X70.79 Y43.307 Z15.507
X70.865 Y43.301 Z15.5
X71.298 Y43.268 F200
G3 X71.764 Y43.667 I0.033 J0.433
G2 X73.949 Y45.67 I2.164 J-0.167 F400
G1 X87.78
G2 X89.95 Y43.5 J-2.17
G1 Y28
G2 X87.78 Y25.83 I-2.17
G1 X79.102
G2 X77.941 Y23.802 I-37.601 J20.171
G3 X79.311 Y13.98 I6.687 J-4.073
G1 X82.974 Y10.593
G2 X83.67 Y9 I-1.474 J-1.593
G1 Y1
G2 X81.5 Y-1.17 I-2.17
G1 X1.5
G2 X-0.67 Y1 J2.17
G1 Y9
G2 X0.026 Y10.593 I2.17
G1 X3.689 Y13.98
G3 X5.059 Y23.802 I-5.317 J5.748
G2 X20.405 Y83.091 I36.441 J22.198
G3 X21.33 Y84.681 I-0.905 J1.591
G1 Y87.28
G2 X23.5 Y89.45 I2.17
G1 X59.5
G2 X61.67 Y87.28 J-2.17
G1 Y84.681
G3 X62.595 Y83.091 I1.83
G2 X79.102 Y66.17 I-21.095 J-37.091
G1 X87.78
G2 X89.95 Y64 J-2.17
G1 Y48.5
G2 X87.78 Y46.33 I-2.17
G1 X73.949
G2 X71.764 Y48.333 I-0.021 J2.17
G3 X11.236 Y43.667 I-30.264 J-2.333
X23.216 Y21.77 I30.264 J2.333
G2 X25.67 Y16.845 I-3.717 J-4.925
G1 Y11.17
X57.33
Y16.845
G2 X59.783 Y21.77 I6.17
G3 X71.764 Y43.667 I-18.283 J24.23
X71.365 Y44.133 I-0.433 J0.033 F200
G1 X70.932 Y44.166
X70.857 Y44.172 Z15.507
X70.784 Y44.178 Z15.526
X70.716 Y44.183 Z15.558
X70.654 Y44.188 Z15.602
X70.601 Y44.192 Z15.655
X70.557 Y44.195 Z15.717
X70.525 Y44.198 Z15.786
X70.506 Y44.199 Z15.859
X70.499 Y44.2 Z15.934
X70.433 Y43.334
Z15.434 F333.3
X70.439 Z15.359
X70.459 Y43.332 Z15.286
X70.491 Y43.33 Z15.217
X70.534 Y43.326 Z15.155
X70.587 Y43.322 Z15.102
X70.649 Y43.318 Z15.058
X70.717 Y43.312 Z15.026
X70.79 Y43.307 Z15.007
X70.865 Y43.301 Z15
X71.298 Y43.268 F200
G3 X71.764 Y43.667 I0.033 J0.433
G2 X73.949 Y45.67 I2.164 J-0.167 F400
G1 X87.78
G2 X89.95 Y43.5 J-2.17
G1 Y28
G2 X87.78 Y25.83 I-2.17
G1 X79.102
G2 X77.941 Y23.802 I-37.601 J20.171
G3 X79.311 Y13.98 I6.687 J-4.073
G1 X82.974 Y10.593
G2 X83.67 Y9 I-1.474 J-1.593
G1 Y1
G2 X81.5 Y-1.17 I-2.17
G1 X1.5
G2 X-0.67 Y1 J2.17
G1 Y9
G2 X0.026 Y10.593 I2.17
G1 X3.689 Y13.98
G3 X5.059 Y23.802 I-5.317 J5.748
G2 X20.405 Y83.091 I36.441 J22.198
G3 X21.33 Y84.681 I-0.905 J1.591
G1 Y87.28
G2 X23.5 Y89.45 I2.17
G1 X59.5
G2 X61.67 Y87.28 J-2.17
G1 Y84.681
G3 X62.595 Y83.091 I1.83
G2 X79.102 Y66.17 I-21.095 J-37.091
G1 X87.78
G2 X89.95 Y64 J-2.17
G1 Y48.5
G2 X87.78 Y46.33 I-2.17
G1 X73.949
G2 X71.764 Y48.333 I-0.021 J2.17
G3 X11.236 Y43.667 I-30.264 J-2.333
X23.216 Y21.77 I30.264 J2.333
G2 X25.67 Y16.845 I-3.717 J-4.925
G1 Y11.17
X57.33
Y16.845
G2 X59.783 Y21.77 I6.17
G3 X71.764 Y43.667 I-18.283 J24.23
X71.365 Y44.133 I-0.433 J0.033 F200
G1 X70.932 Y44.166
X70.857 Y44.172 Z15.007
X70.784 Y44.178 Z15.026
X70.716 Y44.183 Z15.058
X70.654 Y44.188 Z15.102
X70.601 Y44.192 Z15.155
X70.557 Y44.195 Z15.217
X70.525 Y44.198 Z15.286
X70.506 Y44.199 Z15.359
X70.499 Y44.2 Z15.434
X70.433 Y43.334
Z14.934 F333.3
X70.439 Z14.859
X70.459 Y43.332 Z14.786
X70.491 Y43.33 Z14.717
X70.534 Y43.326 Z14.655
X70.587 Y43.322 Z14.602
X70.649 Y43.318 Z14.558
X70.717 Y43.312 Z14.526
X70.79 Y43.307 Z14.507
X70.865 Y43.301 Z14.5
X71.298 Y43.268 F200
G3 X71.764 Y43.667 I0.033 J0.433
G2 X73.949 Y45.67 I2.164 J-0.167 F400
G1 X87.78
G2 X89.95 Y43.5 J-2.17
G1 Y28
G2 X87.78 Y25.83 I-2.17
G1 X79.102
G2 X77.941 Y23.802 I-37.601 J20.171
G3 X79.311 Y13.98 I6.687 J-4.073
G1 X82.974 Y10.593
G2 X83.67 Y9 I-1.474 J-1.593
G1 Y1
G2 X81.5 Y-1.17 I-2.17
G1 X1.5
G2 X-0.67 Y1 J2.17
G1 Y9
G2 X0.026 Y10.593 I2.17
G1 X3.689 Y13.98
G3 X5.059 Y23.802 I-5.317 J5.748
G2 X20.405 Y83.091 I36.441 J22.198
G3 X21.33 Y84.681 I-0.905 J1.591
G1 Y87.28
G2 X23.5 Y89.45 I2.17
G1 X59.5
G2 X61.67 Y87.28 J-2.17
G1 Y84.681
G3 X62.595 Y83.091 I1.83
G2 X79.102 Y66.17 I-21.095 J-37.091
G1 X87.78
G2 X89.95 Y64 J-2.17
G1 Y48.5
G2 X87.78 Y46.33 I-2.17
G1 X73.949
G2 X71.764 Y48.333 I-0.021 J2.17
G3 X11.236 Y43.667 I-30.264 J-2.333
X23.216 Y21.77 I30.264 J2.333
G2 X25.67 Y16.845 I-3.717 J-4.925
G1 Y11.17
X57.33
Y16.845
G2 X59.783 Y21.77 I6.17
G3 X71.764 Y43.667 I-18.283 J24.23
X71.365 Y44.133 I-0.433 J0.033 F200
G1 X70.932 Y44.166
X70.857 Y44.172 Z14.507
X70.784 Y44.178 Z14.526
X70.716 Y44.183 Z14.558
X70.654 Y44.188 Z14.602
X70.601 Y44.192 Z14.655
X70.557 Y44.195 Z14.717
X70.525 Y44.198 Z14.786
X70.506 Y44.199 Z14.859
X70.499 Y44.2 Z14.934
X70.433 Y43.334
Z14.434 F333.3
X70.439 Z14.359
X70.459 Y43.332 Z14.286
X70.491 Y43.33 Z14.217
X70.534 Y43.326 Z14.155
X70.587 Y43.322 Z14.102
X70.649 Y43.318 Z14.058
X70.717 Y43.312 Z14.026
X70.79 Y43.307 Z14.007
X70.865 Y43.301 Z14
X71.298 Y43.268 F200
G3 X71.764 Y43.667 I0.033 J0.433
G2 X73.949 Y45.67 I2.164 J-0.167 F400
G1 X87.78
G2 X89.95 Y43.5 J-2.17
G1 Y28
G2 X87.78 Y25.83 I-2.17
G1 X79.102
G2 X77.941 Y23.802 I-37.601 J20.171
G3 X79.311 Y13.98 I6.687 J-4.073
G1 X82.974 Y10.593
G2 X83.67 Y9 I-1.474 J-1.593
G1 Y1
G2 X81.5 Y-1.17 I-2.17
G1 X1.5
G2 X-0.67 Y1 J2.17
G1 Y9
G2 X0.026 Y10.593 I2.17
G1 X3.689 Y13.98
G3 X5.059 Y23.802 I-5.317 J5.748
G2 X20.405 Y83.091 I36.441 J22.198
G3 X21.33 Y84.681 I-0.905 J1.591
G1 Y87.28
G2 X23.5 Y89.45 I2.17
G1 X59.5
G2 X61.67 Y87.28 J-2.17
G1 Y84.681
G3 X62.595 Y83.091 I1.83
G2 X79.102 Y66.17 I-21.095 J-37.091
G1 X87.78
G2 X89.95 Y64 J-2.17
G1 Y48.5
G2 X87.78 Y46.33 I-2.17
G1 X73.949
G2 X71.764 Y48.333 I-0.021 J2.17
G3 X11.236 Y43.667 I-30.264 J-2.333
X23.216 Y21.77 I30.264 J2.333
G2 X25.67 Y16.845 I-3.717 J-4.925
G1 Y11.17
X57.33
Y16.845
G2 X59.783 Y21.77 I6.17
G3 X71.764 Y43.667 I-18.283 J24.23
X71.365 Y44.133 I-0.433 J0.033 F200
G1 X70.932 Y44.166
X70.857 Y44.172 Z14.007
X70.784 Y44.178 Z14.026
X70.716 Y44.183 Z14.058
X70.654 Y44.188 Z14.102
X70.601 Y44.192 Z14.155
X70.557 Y44.195 Z14.217
X70.525 Y44.198 Z14.286
X70.506 Y44.199 Z14.359
X70.499 Y44.2 Z14.434
X70.433 Y43.334
Z13.934 F333.3
X70.439 Z13.859
X70.459 Y43.332 Z13.786
X70.491 Y43.33 Z13.717
X70.534 Y43.326 Z13.655
X70.587 Y43.322 Z13.602
X70.649 Y43.318 Z13.558
X70.717 Y43.312 Z13.526
X70.79 Y43.307 Z13.507
X70.865 Y43.301 Z13.5
X71.298 Y43.268 F200
G3 X71.764 Y43.667 I0.033 J0.433
G2 X73.949 Y45.67 I2.164 J-0.167 F400
G1 X87.78
G2 X89.95 Y43.5 J-2.17
G1 Y28
G2 X87.78 Y25.83 I-2.17
G1 X79.102
G2 X77.941 Y23.802 I-37.601 J20.171
G3 X79.311 Y13.98 I6.687 J-4.073
G1 X82.974 Y10.593
G2 X83.67 Y9 I-1.474 J-1.593
G1 Y1
G2 X81.5 Y-1.17 I-2.17
G1 X1.5
G2 X-0.67 Y1 J2.17
G1 Y9
G2 X0.026 Y10.593 I2.17
G1 X3.689 Y13.98
G3 X5.059 Y23.802 I-5.317 J5.748
G2 X20.405 Y83.091 I36.441 J22.198
G3 X21.33 Y84.681 I-0.905 J1.591
G1 Y87.28
G2 X23.5 Y89.45 I2.17
G1 X59.5
G2 X61.67 Y87.28 J-2.17
G1 Y84.681
G3 X62.595 Y83.091 I1.83
G2 X79.102 Y66.17 I-21.095 J-37.091
G1 X87.78
G2 X89.95 Y64 J-2.17
G1 Y48.5
G2 X87.78 Y46.33 I-2.17
G1 X73.949
G2 X71.764 Y48.333 I-0.021 J2.17
G3 X11.236 Y43.667 I-30.264 J-2.333
X23.216 Y21.77 I30.264 J2.333
G2 X25.67 Y16.845 I-3.717 J-4.925
G1 Y11.17
X57.33
Y16.845
G2 X59.783 Y21.77 I6.17
G3 X71.764 Y43.667 I-18.283 J24.23
X71.365 Y44.133 I-0.433 J0.033 F200
G1 X70.932 Y44.166
X70.857 Y44.172 Z13.507
X70.784 Y44.178 Z13.526
X70.716 Y44.183 Z13.558
X70.654 Y44.188 Z13.602
X70.601 Y44.192 Z13.655
X70.557 Y44.195 Z13.717
X70.525 Y44.198 Z13.786
X70.506 Y44.199 Z13.859
X70.499 Y44.2 Z13.934
X70.433 Y43.334
Z13.434 F333.3
X70.439 Z13.359
X70.459 Y43.332 Z13.286
X70.491 Y43.33 Z13.217
X70.534 Y43.326 Z13.155
X70.587 Y43.322 Z13.102
X70.649 Y43.318 Z13.058
X70.717 Y43.312 Z13.026
X70.79 Y43.307 Z13.007
X70.865 Y43.301 Z13
X71.298 Y43.268 F200
G3 X71.764 Y43.667 I0.033 J0.433
G2 X73.949 Y45.67 I2.164 J-0.167 F400
G1 X87.78
G2 X89.95 Y43.5 J-2.17
G1 Y28
G2 X87.78 Y25.83 I-2.17
G1 X79.102
G2 X77.941 Y23.802 I-37.601 J20.171
G3 X79.311 Y13.98 I6.687 J-4.073
G1 X82.974 Y10.593
G2 X83.67 Y9 I-1.474 J-1.593
G1 Y1
G2 X81.5 Y-1.17 I-2.17
G1 X1.5
G2 X-0.67 Y1 J2.17
G1 Y9
G2 X0.026 Y10.593 I2.17
G1 X3.689 Y13.98
G3 X5.059 Y23.802 I-5.317 J5.748
G2 X20.405 Y83.091 I36.441 J22.198
G3 X21.33 Y84.681 I-0.905 J1.591
G1 Y87.28
G2 X23.5 Y89.45 I2.17
G1 X59.5
G2 X61.67 Y87.28 J-2.17
G1 Y84.681
G3 X62.595 Y83.091 I1.83
G2 X79.102 Y66.17 I-21.095 J-37.091
G1 X87.78
G2 X89.95 Y64 J-2.17
G1 Y48.5
G2 X87.78 Y46.33 I-2.17
G1 X73.949
G2 X71.764 Y48.333 I-0.021 J2.17
G3 X11.236 Y43.667 I-30.264 J-2.333
X23.216 Y21.77 I30.264 J2.333
G2 X25.67 Y16.845 I-3.717 J-4.925
G1 Y11.17
X57.33
Y16.845
G2 X59.783 Y21.77 I6.17
G3 X71.764 Y43.667 I-18.283 J24.23
X71.365 Y44.133 I-0.433 J0.033 F200
G1 X70.932 Y44.166
X70.857 Y44.172 Z13.007
X70.784 Y44.178 Z13.026
X70.716 Y44.183 Z13.058
X70.654 Y44.188 Z13.102
X70.601 Y44.192 Z13.155
X70.557 Y44.195 Z13.217
X70.525 Y44.198 Z13.286
X70.506 Y44.199 Z13.359
X70.499 Y44.2 Z13.434
X70.433 Y43.334
Z12.934 F333.3
X70.439 Z12.859
X70.459 Y43.332 Z12.786
X70.491 Y43.33 Z12.717
X70.534 Y43.326 Z12.655
X70.587 Y43.322 Z12.602
X70.649 Y43.318 Z12.558
X70.717 Y43.312 Z12.526
X70.79 Y43.307 Z12.507
X70.865 Y43.301 Z12.5
X71.298 Y43.268 F200
G3 X71.764 Y43.667 I0.033 J0.433
G2 X73.949 Y45.67 I2.164 J-0.167 F400
G1 X87.78
G2 X89.95 Y43.5 J-2.17
G1 Y28
G2 X87.78 Y25.83 I-2.17
G1 X79.102
G2 X77.941 Y23.802 I-37.601 J20.171
G3 X79.311 Y13.98 I6.687 J-4.073
G1 X82.974 Y10.593
G2 X83.67 Y9 I-1.474 J-1.593
G1 Y1
G2 X81.5 Y-1.17 I-2.17
G1 X1.5
G2 X-0.67 Y1 J2.17
G1 Y9
G2 X0.026 Y10.593 I2.17
G1 X3.689 Y13.98
G3 X5.059 Y23.802 I-5.317 J5.748
G2 X20.405 Y83.091 I36.441 J22.198
G3 X21.33 Y84.681 I-0.905 J1.591
G1 Y87.28
G2 X23.5 Y89.45 I2.17
G1 X59.5
G2 X61.67 Y87.28 J-2.17
G1 Y84.681
G3 X62.595 Y83.091 I1.83
G2 X79.102 Y66.17 I-21.095 J-37.091
G1 X87.78
G2 X89.95 Y64 J-2.17
G1 Y48.5
G2 X87.78 Y46.33 I-2.17
G1 X73.949
G2 X71.764 Y48.333 I-0.021 J2.17
G3 X11.236 Y43.667 I-30.264 J-2.333
X23.216 Y21.77 I30.264 J2.333
G2 X25.67 Y16.845 I-3.717 J-4.925
G1 Y11.17
X57.33
Y16.845
G2 X59.783 Y21.77 I6.17
G3 X71.764 Y43.667 I-18.283 J24.23
X71.365 Y44.133 I-0.433 J0.033 F200
G1 X70.932 Y44.166
X70.857 Y44.172 Z12.507
X70.784 Y44.178 Z12.526
X70.716 Y44.183 Z12.558
X70.654 Y44.188 Z12.602
X70.601 Y44.192 Z12.655
X70.557 Y44.195 Z12.717
X70.525 Y44.198 Z12.786
X70.506 Y44.199 Z12.859
X70.499 Y44.2 Z12.934
X70.433 Y43.334
Z12.434 F333.3
X70.439 Z12.359
X70.459 Y43.332 Z12.286
X70.491 Y43.33 Z12.217
X70.534 Y43.326 Z12.155
X70.587 Y43.322 Z12.102
X70.649 Y43.318 Z12.058
X70.717 Y43.312 Z12.026
X70.79 Y43.307 Z12.007
X70.865 Y43.301 Z12
X71.298 Y43.268 F200
G3 X71.764 Y43.667 I0.033 J0.433
G2 X73.949 Y45.67 I2.164 J-0.167 F400
G1 X87.78
G2 X89.95 Y43.5 J-2.17
G1 Y28
G2 X87.78 Y25.83 I-2.17
G1 X79.102
G2 X77.941 Y23.802 I-37.601 J20.171
G3 X79.311 Y13.98 I6.687 J-4.073
G1 X82.974 Y10.593
G2 X83.67 Y9 I-1.474 J-1.593
G1 Y1
G2 X81.5 Y-1.17 I-2.17
G1 X1.5
G2 X-0.67 Y1 J2.17
G1 Y9
G2 X0.026 Y10.593 I2.17
G1 X3.689 Y13.98
G3 X5.059 Y23.802 I-5.317 J5.748
G2 X20.405 Y83.091 I36.441 J22.198
G3 X21.33 Y84.681 I-0.905 J1.591
G1 Y87.28
G2 X23.5 Y89.45 I2.17
G1 X59.5
G2 X61.67 Y87.28 J-2.17
G1 Y84.681
G3 X62.595 Y83.091 I1.83
G2 X79.102 Y66.17 I-21.095 J-37.091
G1 X87.78
G2 X89.95 Y64 J-2.17
G1 Y48.5
G2 X87.78 Y46.33 I-2.17
G1 X73.949
G2 X71.764 Y48.333 I-0.021 J2.17
G3 X11.236 Y43.667 I-30.264 J-2.333
X23.216 Y21.77 I30.264 J2.333
G2 X25.67 Y16.845 I-3.717 J-4.925
G1 Y11.17
X57.33
Y16.845
G2 X59.783 Y21.77 I6.17
G3 X71.764 Y43.667 I-18.283 J24.23
X71.365 Y44.133 I-0.433 J0.033 F200
G1 X70.932 Y44.166
X70.857 Y44.172 Z12.007
X70.784 Y44.178 Z12.026
X70.716 Y44.183 Z12.058
X70.654 Y44.188 Z12.102
X70.601 Y44.192 Z12.155
X70.557 Y44.195 Z12.217
X70.525 Y44.198 Z12.286
X70.506 Y44.199 Z12.359
X70.499 Y44.2 Z12.434
X70.433 Y43.334
Z11.934 F333.3
X70.439 Z11.859
X70.459 Y43.332 Z11.786
X70.491 Y43.33 Z11.717
X70.534 Y43.326 Z11.655
X70.587 Y43.322 Z11.602
X70.649 Y43.318 Z11.558
X70.717 Y43.312 Z11.526
X70.79 Y43.307 Z11.507
X70.865 Y43.301 Z11.5
X71.298 Y43.268 F200
G3 X71.764 Y43.667 I0.033 J0.433
G2 X73.949 Y45.67 I2.164 J-0.167 F400
G1 X87.78
G2 X89.95 Y43.5 J-2.17
G1 Y28
G2 X87.78 Y25.83 I-2.17
G1 X79.102
G2 X77.941 Y23.802 I-37.601 J20.171
G3 X79.311 Y13.98 I6.687 J-4.073
G1 X82.974 Y10.593
G2 X83.67 Y9 I-1.474 J-1.593
G1 Y1
G2 X81.5 Y-1.17 I-2.17
G1 X1.5
G2 X-0.67 Y1 J2.17
G1 Y9
G2 X0.026 Y10.593 I2.17
G1 X3.689 Y13.98
G3 X5.059 Y23.802 I-5.317 J5.748
G2 X20.405 Y83.091 I36.441 J22.198
G3 X21.33 Y84.681 I-0.905 J1.591
G1 Y87.28
G2 X23.5 Y89.45 I2.17
G1 X59.5
G2 X61.67 Y87.28 J-2.17
G1 Y84.681
G3 X62.595 Y83.091 I1.83
G2 X79.102 Y66.17 I-21.095 J-37.091
G1 X87.78
G2 X89.95 Y64 J-2.17
G1 Y48.5
G2 X87.78 Y46.33 I-2.17
G1 X73.949
G2 X71.764 Y48.333 I-0.021 J2.17
G3 X11.236 Y43.667 I-30.264 J-2.333
X23.216 Y21.77 I30.264 J2.333
G2 X25.67 Y16.845 I-3.717 J-4.925
G1 Y11.17
X57.33
Y16.845
G2 X59.783 Y21.77 I6.17
G3 X71.764 Y43.667 I-18.283 J24.23
X71.365 Y44.133 I-0.433 J0.033 F200
G1 X70.932 Y44.166
X70.857 Y44.172 Z11.507
X70.784 Y44.178 Z11.526
X70.716 Y44.183 Z11.558
X70.654 Y44.188 Z11.602
X70.601 Y44.192 Z11.655
X70.557 Y44.195 Z11.717
X70.525 Y44.198 Z11.786
X70.506 Y44.199 Z11.859
X70.499 Y44.2 Z11.934
X70.433 Y43.334
Z11.434 F333.3
X70.439 Z11.359
X70.459 Y43.332 Z11.286
X70.491 Y43.33 Z11.217
X70.534 Y43.326 Z11.155
X70.587 Y43.322 Z11.102
X70.649 Y43.318 Z11.058
X70.717 Y43.312 Z11.026
X70.79 Y43.307 Z11.007
X70.865 Y43.301 Z11
X71.298 Y43.268 F200
G3 X71.764 Y43.667 I0.033 J0.433
G2 X73.949 Y45.67 I2.164 J-0.167 F400
G1 X87.78
G2 X89.95 Y43.5 J-2.17
G1 Y28
G2 X87.78 Y25.83 I-2.17
G1 X79.102
G2 X77.941 Y23.802 I-37.601 J20.171
G3 X79.311 Y13.98 I6.687 J-4.073
G1 X82.974 Y10.593
G2 X83.67 Y9 I-1.474 J-1.593
G1 Y1
G2 X81.5 Y-1.17 I-2.17
G1 X1.5
G2 X-0.67 Y1 J2.17
G1 Y9
G2 X0.026 Y10.593 I2.17
G1 X3.689 Y13.98
G3 X5.059 Y23.802 I-5.317 J5.748
G2 X20.405 Y83.091 I36.441 J22.198
G3 X21.33 Y84.681 I-0.905 J1.591
G1 Y87.28
G2 X23.5 Y89.45 I2.17
G1 X59.5
G2 X61.67 Y87.28 J-2.17
G1 Y84.681
G3 X62.595 Y83.091 I1.83
G2 X79.102 Y66.17 I-21.095 J-37.091
G1 X87.78
G2 X89.95 Y64 J-2.17
G1 Y48.5
G2 X87.78 Y46.33 I-2.17
G1 X73.949
G2 X71.764 Y48.333 I-0.021 J2.17
G3 X11.236 Y43.667 I-30.264 J-2.333
X23.216 Y21.77 I30.264 J2.333
G2 X25.67 Y16.845 I-3.717 J-4.925
G1 Y11.17
X57.33
Y16.845
G2 X59.783 Y21.77 I6.17
G3 X71.764 Y43.667 I-18.283 J24.23
X71.365 Y44.133 I-0.433 J0.033 F200
G1 X70.932 Y44.166
X70.857 Y44.172 Z11.007
X70.784 Y44.178 Z11.026
X70.716 Y44.183 Z11.058
X70.654 Y44.188 Z11.102
X70.601 Y44.192 Z11.155
X70.557 Y44.195 Z11.217
X70.525 Y44.198 Z11.286
X70.506 Y44.199 Z11.359
X70.499 Y44.2 Z11.434
X70.433 Y43.334
Z10.934 F333.3
X70.439 Z10.859
X70.459 Y43.332 Z10.786
X70.491 Y43.33 Z10.717
X70.534 Y43.326 Z10.655
X70.587 Y43.322 Z10.602
X70.649 Y43.318 Z10.558
X70.717 Y43.312 Z10.526
X70.79 Y43.307 Z10.507
X70.865 Y43.301 Z10.5
X71.298 Y43.268 F200
G3 X71.764 Y43.667 I0.033 J0.433
G2 X73.949 Y45.67 I2.164 J-0.167 F400
G1 X87.78
G2 X89.95 Y43.5 J-2.17
G1 Y28
G2 X87.78 Y25.83 I-2.17
G1 X79.102
G2 X77.941 Y23.802 I-37.601 J20.171
G3 X79.311 Y13.98 I6.687 J-4.073
G1 X82.974 Y10.593
G2 X83.67 Y9 I-1.474 J-1.593
G1 Y1
G2 X81.5 Y-1.17 I-2.17
G1 X1.5
G2 X-0.67 Y1 J2.17
G1 Y9
G2 X0.026 Y10.593 I2.17
G1 X3.689 Y13.98
G3 X5.059 Y23.802 I-5.317 J5.748
G2 X20.405 Y83.091 I36.441 J22.198
G3 X21.33 Y84.681 I-0.905 J1.591
G1 Y87.28
G2 X23.5 Y89.45 I2.17
G1 X59.5
G2 X61.67 Y87.28 J-2.17
G1 Y84.681
G3 X62.595 Y83.091 I1.83
G2 X79.102 Y66.17 I-21.095 J-37.091
G1 X87.78
G2 X89.95 Y64 J-2.17
G1 Y48.5
G2 X87.78 Y46.33 I-2.17
G1 X73.949
G2 X71.764 Y48.333 I-0.021 J2.17
G3 X11.236 Y43.667 I-30.264 J-2.333
X23.216 Y21.77 I30.264 J2.333
G2 X25.67 Y16.845 I-3.717 J-4.925
G1 Y11.17
X57.33
Y16.845
G2 X59.783 Y21.77 I6.17
G3 X71.764 Y43.667 I-18.283 J24.23
X71.365 Y44.133 I-0.433 J0.033 F200
G1 X70.932 Y44.166
X70.857 Y44.172 Z10.507
X70.784 Y44.178 Z10.526
X70.716 Y44.183 Z10.558
X70.654 Y44.188 Z10.602
X70.601 Y44.192 Z10.655
X70.557 Y44.195 Z10.717
X70.525 Y44.198 Z10.786
X70.506 Y44.199 Z10.859
X70.499 Y44.2 Z10.934
X70.433 Y43.334
Z10.434 F333.3
X70.439 Z10.359
X70.459 Y43.332 Z10.286
X70.491 Y43.33 Z10.217
X70.534 Y43.326 Z10.155
X70.587 Y43.322 Z10.102
X70.649 Y43.318 Z10.058
X70.717 Y43.312 Z10.026
X70.79 Y43.307 Z10.007
X70.865 Y43.301 Z10
X71.298 Y43.268 F200
G3 X71.764 Y43.667 I0.033 J0.433
G2 X73.949 Y45.67 I2.164 J-0.167 F400
G1 X87.78
G2 X89.95 Y43.5 J-2.17
G1 Y28
G2 X87.78 Y25.83 I-2.17
G1 X79.102
G2 X77.941 Y23.802 I-37.601 J20.171
G3 X79.311 Y13.98 I6.687 J-4.073
G1 X82.974 Y10.593
G2 X83.67 Y9 I-1.474 J-1.593
G1 Y1
G2 X81.5 Y-1.17 I-2.17
G1 X1.5
G2 X-0.67 Y1 J2.17
G1 Y9
G2 X0.026 Y10.593 I2.17
G1 X3.689 Y13.98
G3 X5.059 Y23.802 I-5.317 J5.748
G2 X20.405 Y83.091 I36.441 J22.198
G3 X21.33 Y84.681 I-0.905 J1.591
G1 Y87.28
G2 X23.5 Y89.45 I2.17
G1 X59.5
G2 X61.67 Y87.28 J-2.17
G1 Y84.681
G3 X62.595 Y83.091 I1.83
G2 X79.102 Y66.17 I-21.095 J-37.091
G1 X87.78
G2 X89.95 Y64 J-2.17
G1 Y48.5
G2 X87.78 Y46.33 I-2.17
G1 X73.949
G2 X71.764 Y48.333 I-0.021 J2.17
G3 X11.236 Y43.667 I-30.264 J-2.333
X23.216 Y21.77 I30.264 J2.333
G2 X25.67 Y16.845 I-3.717 J-4.925
G1 Y11.17
X57.33
Y16.845
G2 X59.783 Y21.77 I6.17
G3 X71.764 Y43.667 I-18.283 J24.23
X71.365 Y44.133 I-0.433 J0.033 F200
G1 X70.932 Y44.166
X70.857 Y44.172 Z10.007
X70.784 Y44.178 Z10.026
X70.716 Y44.183 Z10.058
X70.654 Y44.188 Z10.102
X70.601 Y44.192 Z10.155
X70.557 Y44.195 Z10.217
X70.525 Y44.198 Z10.286
X70.506 Y44.199 Z10.359
X70.499 Y44.2 Z10.434
X70.433 Y43.334
Z9.934 F333.3
X70.439 Z9.859
X70.459 Y43.332 Z9.786
X70.491 Y43.33 Z9.717
X70.534 Y43.326 Z9.655
X70.587 Y43.322 Z9.602
X70.649 Y43.318 Z9.558
X70.717 Y43.312 Z9.526
X70.79 Y43.307 Z9.507
X70.865 Y43.301 Z9.5
X71.298 Y43.268 F200
G3 X71.764 Y43.667 I0.033 J0.433
G2 X73.949 Y45.67 I2.164 J-0.167 F400
G1 X87.78
G2 X89.95 Y43.5 J-2.17
G1 Y28
G2 X87.78 Y25.83 I-2.17
G1 X79.102
G2 X77.941 Y23.802 I-37.601 J20.171
G3 X79.311 Y13.98 I6.687 J-4.073
G1 X82.974 Y10.593
G2 X83.67 Y9 I-1.474 J-1.593
G1 Y1
G2 X81.5 Y-1.17 I-2.17
G1 X1.5
G2 X-0.67 Y1 J2.17
G1 Y9
G2 X0.026 Y10.593 I2.17
G1 X3.689 Y13.98
G3 X5.059 Y23.802 I-5.317 J5.748
G2 X20.405 Y83.091 I36.441 J22.198
G3 X21.33 Y84.681 I-0.905 J1.591
G1 Y87.28
G2 X23.5 Y89.45 I2.17
G1 X59.5
G2 X61.67 Y87.28 J-2.17
G1 Y84.681
G3 X62.595 Y83.091 I1.83
G2 X79.102 Y66.17 I-21.095 J-37.091
G1 X87.78
G2 X89.95 Y64 J-2.17
G1 Y48.5
G2 X87.78 Y46.33 I-2.17
G1 X73.949
G2 X71.764 Y48.333 I-0.021 J2.17
G3 X11.236 Y43.667 I-30.264 J-2.333
X23.216 Y21.77 I30.264 J2.333
G2 X25.67 Y16.845 I-3.717 J-4.925
G1 Y11.17
X57.33
Y16.845
G2 X59.783 Y21.77 I6.17
G3 X71.764 Y43.667 I-18.283 J24.23
X71.365 Y44.133 I-0.433 J0.033 F200
G1 X70.932 Y44.166
X70.857 Y44.172 Z9.507
X70.784 Y44.178 Z9.526
X70.716 Y44.183 Z9.558
X70.654 Y44.188 Z9.602
X70.601 Y44.192 Z9.655
X70.557 Y44.195 Z9.717
X70.525 Y44.198 Z9.786
X70.506 Y44.199 Z9.859
X70.499 Y44.2 Z9.934
X70.433 Y43.334
Z9.434 F333.3
X70.439 Z9.359
X70.459 Y43.332 Z9.286
X70.491 Y43.33 Z9.217
X70.534 Y43.326 Z9.155
X70.587 Y43.322 Z9.102
X70.649 Y43.318 Z9.058
X70.717 Y43.312 Z9.026
X70.79 Y43.307 Z9.007
X70.865 Y43.301 Z9
X71.298 Y43.268 F200
G3 X71.764 Y43.667 I0.033 J0.433
G2 X73.949 Y45.67 I2.164 J-0.167 F400
G1 X87.78
G2 X89.95 Y43.5 J-2.17
G1 Y28
G2 X87.78 Y25.83 I-2.17
G1 X79.102
G2 X77.941 Y23.802 I-37.601 J20.171
G3 X79.311 Y13.98 I6.687 J-4.073
G1 X82.974 Y10.593
G2 X83.67 Y9 I-1.474 J-1.593
G1 Y1
G2 X81.5 Y-1.17 I-2.17
G1 X1.5
G2 X-0.67 Y1 J2.17
G1 Y9
G2 X0.026 Y10.593 I2.17
G1 X3.689 Y13.98
G3 X5.059 Y23.802 I-5.317 J5.748
G2 X20.405 Y83.091 I36.441 J22.198
G3 X21.33 Y84.681 I-0.905 J1.591
G1 Y87.28
G2 X23.5 Y89.45 I2.17
G1 X59.5
G2 X61.67 Y87.28 J-2.17
G1 Y84.681
G3 X62.595 Y83.091 I1.83
G2 X79.102 Y66.17 I-21.095 J-37.091
G1 X87.78
G2 X89.95 Y64 J-2.17
G1 Y48.5
G2 X87.78 Y46.33 I-2.17
G1 X73.949
G2 X71.764 Y48.333 I-0.021 J2.17
G3 X11.236 Y43.667 I-30.264 J-2.333
X23.216 Y21.77 I30.264 J2.333
G2 X25.67 Y16.845 I-3.717 J-4.925
G1 Y11.17
X57.33
Y16.845
G2 X59.783 Y21.77 I6.17
G3 X71.764 Y43.667 I-18.283 J24.23
X71.365 Y44.133 I-0.433 J0.033 F200
G1 X70.932 Y44.166
X70.857 Y44.172 Z9.007
X70.784 Y44.178 Z9.026
X70.716 Y44.183 Z9.058
X70.654 Y44.188 Z9.102
X70.601 Y44.192 Z9.155
X70.557 Y44.195 Z9.217
X70.525 Y44.198 Z9.286
X70.506 Y44.199 Z9.359
X70.499 Y44.2 Z9.434
X70.433 Y43.334
Z8.934 F333.3
X70.439 Z8.859
X70.459 Y43.332 Z8.786
X70.491 Y43.33 Z8.717
X70.534 Y43.326 Z8.655
X70.587 Y43.322 Z8.602
X70.649 Y43.318 Z8.558
X70.717 Y43.312 Z8.526
X70.79 Y43.307 Z8.507
X70.865 Y43.301 Z8.5
X71.298 Y43.268 F200
G3 X71.764 Y43.667 I0.033 J0.433
G2 X73.949 Y45.67 I2.164 J-0.167 F400
G1 X87.78
G2 X89.95 Y43.5 J-2.17
G1 Y28
G2 X87.78 Y25.83 I-2.17
G1 X79.102
G2 X77.941 Y23.802 I-37.601 J20.171
G3 X79.311 Y13.98 I6.687 J-4.073
G1 X82.974 Y10.593
G2 X83.67 Y9 I-1.474 J-1.593
G1 Y1
G2 X81.5 Y-1.17 I-2.17
G1 X1.5
G2 X-0.67 Y1 J2.17
G1 Y9
G2 X0.026 Y10.593 I2.17
G1 X3.689 Y13.98
G3 X5.059 Y23.802 I-5.317 J5.748
G2 X20.405 Y83.091 I36.441 J22.198
G3 X21.33 Y84.681 I-0.905 J1.591
G1 Y87.28
G2 X23.5 Y89.45 I2.17
G1 X59.5
G2 X61.67 Y87.28 J-2.17
G1 Y84.681
G3 X62.595 Y83.091 I1.83
G2 X79.102 Y66.17 I-21.095 J-37.091
G1 X87.78
G2 X89.95 Y64 J-2.17
G1 Y48.5
G2 X87.78 Y46.33 I-2.17
G1 X73.949
G2 X71.764 Y48.333 I-0.021 J2.17
G3 X11.236 Y43.667 I-30.264 J-2.333
X23.216 Y21.77 I30.264 J2.333
G2 X25.67 Y16.845 I-3.717 J-4.925
G1 Y11.17
X57.33
Y16.845
G2 X59.783 Y21.77 I6.17
G3 X71.764 Y43.667 I-18.283 J24.23
X71.365 Y44.133 I-0.433 J0.033 F200
G1 X70.932 Y44.166
X70.857 Y44.172 Z8.507
X70.784 Y44.178 Z8.526
X70.716 Y44.183 Z8.558
X70.654 Y44.188 Z8.602
X70.601 Y44.192 Z8.655
X70.557 Y44.195 Z8.717
X70.525 Y44.198 Z8.786
X70.506 Y44.199 Z8.859
X70.499 Y44.2 Z8.934
X70.433 Y43.334
Z8.434 F333.3
X70.439 Z8.359
X70.459 Y43.332 Z8.286
X70.491 Y43.33 Z8.217
X70.534 Y43.326 Z8.155
X70.587 Y43.322 Z8.102
X70.649 Y43.318 Z8.058
X70.717 Y43.312 Z8.026
X70.79 Y43.307 Z8.007
X70.865 Y43.301 Z8
X71.298 Y43.268 F200
G3 X71.764 Y43.667 I0.033 J0.433
G2 X73.949 Y45.67 I2.164 J-0.167 F400
G1 X87.78
G2 X89.95 Y43.5 J-2.17
G1 Y28
G2 X87.78 Y25.83 I-2.17
G1 X79.102
G2 X77.941 Y23.802 I-37.601 J20.171
G3 X79.311 Y13.98 I6.687 J-4.073
G1 X82.974 Y10.593
G2 X83.67 Y9 I-1.474 J-1.593
G1 Y1
G2 X81.5 Y-1.17 I-2.17
G1 X1.5
G2 X-0.67 Y1 J2.17
G1 Y9
G2 X0.026 Y10.593 I2.17
G1 X3.689 Y13.98
G3 X5.059 Y23.802 I-5.317 J5.748
G2 X20.405 Y83.091 I36.441 J22.198
G3 X21.33 Y84.681 I-0.905 J1.591
G1 Y87.28
G2 X23.5 Y89.45 I2.17
G1 X59.5
G2 X61.67 Y87.28 J-2.17
G1 Y84.681
G3 X62.595 Y83.091 I1.83
G2 X79.102 Y66.17 I-21.095 J-37.091
G1 X87.78
G2 X89.95 Y64 J-2.17
G1 Y48.5
G2 X87.78 Y46.33 I-2.17
G1 X73.949
G2 X71.764 Y48.333 I-0.021 J2.17
G3 X11.236 Y43.667 I-30.264 J-2.333
X23.216 Y21.77 I30.264 J2.333
G2 X25.67 Y16.845 I-3.717 J-4.925
G1 Y11.17
X57.33
Y16.845
G2 X59.783 Y21.77 I6.17
G3 X71.764 Y43.667 I-18.283 J24.23
X71.365 Y44.133 I-0.433 J0.033 F200
G1 X70.932 Y44.166
X70.857 Y44.172 Z8.007
X70.784 Y44.178 Z8.026
X70.716 Y44.183 Z8.058
X70.654 Y44.188 Z8.102
X70.601 Y44.192 Z8.155
X70.557 Y44.195 Z8.217
X70.525 Y44.198 Z8.286
X70.506 Y44.199 Z8.359
X70.499 Y44.2 Z8.434
X70.433 Y43.334
Z7.934 F333.3
X70.439 Z7.859
X70.459 Y43.332 Z7.786
X70.491 Y43.33 Z7.717
X70.534 Y43.326 Z7.655
X70.587 Y43.322 Z7.602
X70.649 Y43.318 Z7.558
X70.717 Y43.312 Z7.526
X70.79 Y43.307 Z7.507
X70.865 Y43.301 Z7.5
X71.298 Y43.268 F200
G3 X71.764 Y43.667 I0.033 J0.433
G2 X73.949 Y45.67 I2.164 J-0.167 F400
G1 X87.78
G2 X89.95 Y43.5 J-2.17
G1 Y28
G2 X87.78 Y25.83 I-2.17
G1 X79.102
G2 X77.941 Y23.802 I-37.601 J20.171
G3 X79.311 Y13.98 I6.687 J-4.073
G1 X82.974 Y10.593
G2 X83.67 Y9 I-1.474 J-1.593
G1 Y1
G2 X81.5 Y-1.17 I-2.17
G1 X1.5
G2 X-0.67 Y1 J2.17
G1 Y9
G2 X0.026 Y10.593 I2.17
G1 X3.689 Y13.98
G3 X5.059 Y23.802 I-5.317 J5.748
G2 X20.405 Y83.091 I36.441 J22.198
G3 X21.33 Y84.681 I-0.905 J1.591
G1 Y87.28
G2 X23.5 Y89.45 I2.17
G1 X59.5
G2 X61.67 Y87.28 J-2.17
G1 Y84.681
G3 X62.595 Y83.091 I1.83
G2 X79.102 Y66.17 I-21.095 J-37.091
G1 X87.78
G2 X89.95 Y64 J-2.17
G1 Y48.5
G2 X87.78 Y46.33 I-2.17
G1 X73.949
G2 X71.764 Y48.333 I-0.021 J2.17
G3 X11.236 Y43.667 I-30.264 J-2.333
X23.216 Y21.77 I30.264 J2.333
G2 X25.67 Y16.845 I-3.717 J-4.925
G1 Y11.17
X57.33
Y16.845
G2 X59.783 Y21.77 I6.17
G3 X71.764 Y43.667 I-18.283 J24.23
X71.365 Y44.133 I-0.433 J0.033 F200
G1 X70.932 Y44.166
X70.857 Y44.172 Z7.507
X70.784 Y44.178 Z7.526
X70.716 Y44.183 Z7.558
X70.654 Y44.188 Z7.602
X70.601 Y44.192 Z7.655
X70.557 Y44.195 Z7.717
X70.525 Y44.198 Z7.786
X70.506 Y44.199 Z7.859
X70.499 Y44.2 Z7.934
X70.433 Y43.334
Z7.434 F333.3
X70.439 Z7.359
X70.459 Y43.332 Z7.286
X70.491 Y43.33 Z7.217
X70.534 Y43.326 Z7.155
X70.587 Y43.322 Z7.102
X70.649 Y43.318 Z7.058
X70.717 Y43.312 Z7.026
X70.79 Y43.307 Z7.007
X70.865 Y43.301 Z7
X71.298 Y43.268 F200
G3 X71.764 Y43.667 I0.033 J0.433
G2 X73.949 Y45.67 I2.164 J-0.167 F400
G1 X87.78
G2 X89.95 Y43.5 J-2.17
G1 Y28
G2 X87.78 Y25.83 I-2.17
G1 X79.102
G2 X77.941 Y23.802 I-37.601 J20.171
G3 X79.311 Y13.98 I6.687 J-4.073
G1 X82.974 Y10.593
G2 X83.67 Y9 I-1.474 J-1.593
G1 Y1
G2 X81.5 Y-1.17 I-2.17
G1 X1.5
G2 X-0.67 Y1 J2.17
G1 Y9
G2 X0.026 Y10.593 I2.17
G1 X3.689 Y13.98
G3 X5.059 Y23.802 I-5.317 J5.748
G2 X20.405 Y83.091 I36.441 J22.198
G3 X21.33 Y84.681 I-0.905 J1.591
G1 Y87.28
G2 X23.5 Y89.45 I2.17
G1 X59.5
G2 X61.67 Y87.28 J-2.17
G1 Y84.681
G3 X62.595 Y83.091 I1.83
G2 X79.102 Y66.17 I-21.095 J-37.091
G1 X87.78
G2 X89.95 Y64 J-2.17
G1 Y48.5
G2 X87.78 Y46.33 I-2.17
G1 X73.949
G2 X71.764 Y48.333 I-0.021 J2.17
G3 X11.236 Y43.667 I-30.264 J-2.333
X23.216 Y21.77 I30.264 J2.333
G2 X25.67 Y16.845 I-3.717 J-4.925
G1 Y11.17
X57.33
Y16.845
G2 X59.783 Y21.77 I6.17
G3 X71.764 Y43.667 I-18.283 J24.23
X71.365 Y44.133 I-0.433 J0.033 F200
G1 X70.932 Y44.166
X70.857 Y44.172 Z7.007
X70.784 Y44.178 Z7.026
X70.716 Y44.183 Z7.058
X70.654 Y44.188 Z7.102
X70.601 Y44.192 Z7.155
X70.557 Y44.195 Z7.217
X70.525 Y44.198 Z7.286
X70.506 Y44.199 Z7.359
X70.499 Y44.2 Z7.434
X70.433 Y43.334
Z6.934 F333.3
X70.439 Z6.859
X70.459 Y43.332 Z6.786
X70.491 Y43.33 Z6.717
X70.534 Y43.326 Z6.655
X70.587 Y43.322 Z6.602
X70.649 Y43.318 Z6.558
X70.717 Y43.312 Z6.526
X70.79 Y43.307 Z6.507
X70.865 Y43.301 Z6.5
X71.298 Y43.268 F200
G3 X71.764 Y43.667 I0.033 J0.433
G2 X73.949 Y45.67 I2.164 J-0.167 F400
G1 X87.78
G2 X89.95 Y43.5 J-2.17
G1 Y28
G2 X87.78 Y25.83 I-2.17
G1 X79.102
G2 X77.941 Y23.802 I-37.601 J20.171
G3 X79.311 Y13.98 I6.687 J-4.073
G1 X82.974 Y10.593
G2 X83.67 Y9 I-1.474 J-1.593
G1 Y1
G2 X81.5 Y-1.17 I-2.17
G1 X1.5
G2 X-0.67 Y1 J2.17
G1 Y9
G2 X0.026 Y10.593 I2.17
G1 X3.689 Y13.98
G3 X5.059 Y23.802 I-5.317 J5.748
G2 X20.405 Y83.091 I36.441 J22.198
G3 X21.33 Y84.681 I-0.905 J1.591
G1 Y87.28
G2 X23.5 Y89.45 I2.17
G1 X59.5
G2 X61.67 Y87.28 J-2.17
G1 Y84.681
G3 X62.595 Y83.091 I1.83
G2 X79.102 Y66.17 I-21.095 J-37.091
G1 X87.78
G2 X89.95 Y64 J-2.17
G1 Y48.5
G2 X87.78 Y46.33 I-2.17
G1 X73.949
G2 X71.764 Y48.333 I-0.021 J2.17
G3 X11.236 Y43.667 I-30.264 J-2.333
X23.216 Y21.77 I30.264 J2.333
G2 X25.67 Y16.845 I-3.717 J-4.925
G1 Y11.17
X57.33
Y16.845
G2 X59.783 Y21.77 I6.17
G3 X71.764 Y43.667 I-18.283 J24.23
X71.365 Y44.133 I-0.433 J0.033 F200
G1 X70.932 Y44.166
X70.857 Y44.172 Z6.507
X70.784 Y44.178 Z6.526
X70.716 Y44.183 Z6.558
X70.654 Y44.188 Z6.602
X70.601 Y44.192 Z6.655
X70.557 Y44.195 Z6.717
X70.525 Y44.198 Z6.786
X70.506 Y44.199 Z6.859
X70.499 Y44.2 Z6.934
X70.433 Y43.334
Z6.434 F333.3
X70.439 Z6.359
X70.459 Y43.332 Z6.286
X70.491 Y43.33 Z6.217
X70.534 Y43.326 Z6.155
X70.587 Y43.322 Z6.102
X70.649 Y43.318 Z6.058
X70.717 Y43.312 Z6.026
X70.79 Y43.307 Z6.007
X70.865 Y43.301 Z6
X71.298 Y43.268 F200
G3 X71.764 Y43.667 I0.033 J0.433
G2 X73.949 Y45.67 I2.164 J-0.167 F400
G1 X87.78
G2 X89.95 Y43.5 J-2.17
G1 Y28
G2 X87.78 Y25.83 I-2.17
G1 X79.102
G2 X77.941 Y23.802 I-37.601 J20.171
G3 X79.311 Y13.98 I6.687 J-4.073
G1 X82.974 Y10.593
G2 X83.67 Y9 I-1.474 J-1.593
G1 Y1
G2 X81.5 Y-1.17 I-2.17
G1 X1.5
G2 X-0.67 Y1 J2.17
G1 Y9
G2 X0.026 Y10.593 I2.17
G1 X3.689 Y13.98
G3 X5.059 Y23.802 I-5.317 J5.748
G2 X20.405 Y83.091 I36.441 J22.198
G3 X21.33 Y84.681 I-0.905 J1.591
G1 Y87.28
G2 X23.5 Y89.45 I2.17
G1 X59.5
G2 X61.67 Y87.28 J-2.17
G1 Y84.681
G3 X62.595 Y83.091 I1.83
G2 X79.102 Y66.17 I-21.095 J-37.091
G1 X87.78
G2 X89.95 Y64 J-2.17
G1 Y48.5
G2 X87.78 Y46.33 I-2.17
G1 X73.949
G2 X71.764 Y48.333 I-0.021 J2.17
G3 X11.236 Y43.667 I-30.264 J-2.333
X23.216 Y21.77 I30.264 J2.333
G2 X25.67 Y16.845 I-3.717 J-4.925
G1 Y11.17
X57.33
Y16.845
G2 X59.783 Y21.77 I6.17
G3 X71.764 Y43.667 I-18.283 J24.23
X71.365 Y44.133 I-0.433 J0.033 F200
G1 X70.932 Y44.166
X70.857 Y44.172 Z6.007
X70.784 Y44.178 Z6.026
X70.716 Y44.183 Z6.058
X70.654 Y44.188 Z6.102
X70.601 Y44.192 Z6.155
X70.557 Y44.195 Z6.217
X70.525 Y44.198 Z6.286
X70.506 Y44.199 Z6.359
X70.499 Y44.2 Z6.434
X70.433 Y43.334
Z5.934 F333.3
X70.439 Z5.859
X70.459 Y43.332 Z5.786
X70.491 Y43.33 Z5.717
X70.534 Y43.326 Z5.655
X70.587 Y43.322 Z5.602
X70.649 Y43.318 Z5.558
X70.717 Y43.312 Z5.526
X70.79 Y43.307 Z5.507
X70.865 Y43.301 Z5.5
X71.298 Y43.268 F200
G3 X71.764 Y43.667 I0.033 J0.433
G2 X73.949 Y45.67 I2.164 J-0.167 F400
G1 X87.78
G2 X89.95 Y43.5 J-2.17
G1 Y28
G2 X87.78 Y25.83 I-2.17
G1 X79.102
G2 X77.941 Y23.802 I-37.601 J20.171
G3 X79.311 Y13.98 I6.687 J-4.073
G1 X82.974 Y10.593
G2 X83.67 Y9 I-1.474 J-1.593
G1 Y1
G2 X81.5 Y-1.17 I-2.17
G1 X1.5
G2 X-0.67 Y1 J2.17
G1 Y9
G2 X0.026 Y10.593 I2.17
G1 X3.689 Y13.98
G3 X5.059 Y23.802 I-5.317 J5.748
G2 X20.405 Y83.091 I36.441 J22.198
G3 X21.33 Y84.681 I-0.905 J1.591
G1 Y87.28
G2 X23.5 Y89.45 I2.17
G1 X59.5
G2 X61.67 Y87.28 J-2.17
G1 Y84.681
G3 X62.595 Y83.091 I1.83
G2 X79.102 Y66.17 I-21.095 J-37.091
G1 X87.78
G2 X89.95 Y64 J-2.17
G1 Y48.5
G2 X87.78 Y46.33 I-2.17
G1 X73.949
G2 X71.764 Y48.333 I-0.021 J2.17
G3 X11.236 Y43.667 I-30.264 J-2.333
X23.216 Y21.77 I30.264 J2.333
G2 X25.67 Y16.845 I-3.717 J-4.925
G1 Y11.17
X57.33
Y16.845
G2 X59.783 Y21.77 I6.17
G3 X71.764 Y43.667 I-18.283 J24.23
X71.365 Y44.133 I-0.433 J0.033 F200
G1 X70.932 Y44.166
X70.857 Y44.172 Z5.507
X70.784 Y44.178 Z5.526
X70.716 Y44.183 Z5.558
X70.654 Y44.188 Z5.602
X70.601 Y44.192 Z5.655
X70.557 Y44.195 Z5.717
X70.525 Y44.198 Z5.786
X70.506 Y44.199 Z5.859
X70.499 Y44.2 Z5.934
X70.433 Y43.334
Z5.434 F333.3
X70.439 Z5.359
X70.459 Y43.332 Z5.286
X70.491 Y43.33 Z5.217
X70.534 Y43.326 Z5.155
X70.587 Y43.322 Z5.102
X70.649 Y43.318 Z5.058
X70.717 Y43.312 Z5.026
X70.79 Y43.307 Z5.007
X70.865 Y43.301 Z5
X71.298 Y43.268 F200
G3 X71.764 Y43.667 I0.033 J0.433
G2 X73.949 Y45.67 I2.164 J-0.167 F400
G1 X87.78
G2 X89.95 Y43.5 J-2.17
G1 Y28
G2 X87.78 Y25.83 I-2.17
G1 X79.102
G2 X77.941 Y23.802 I-37.601 J20.171
G3 X79.311 Y13.98 I6.687 J-4.073
G1 X82.974 Y10.593
G2 X83.67 Y9 I-1.474 J-1.593
G1 Y1
G2 X81.5 Y-1.17 I-2.17
G1 X1.5
G2 X-0.67 Y1 J2.17
G1 Y9
G2 X0.026 Y10.593 I2.17
G1 X3.689 Y13.98
G3 X5.059 Y23.802 I-5.317 J5.748
G2 X20.405 Y83.091 I36.441 J22.198
G3 X21.33 Y84.681 I-0.905 J1.591
G1 Y87.28
G2 X23.5 Y89.45 I2.17
G1 X59.5
G2 X61.67 Y87.28 J-2.17
G1 Y84.681
G3 X62.595 Y83.091 I1.83
G2 X79.102 Y66.17 I-21.095 J-37.091
G1 X87.78
G2 X89.95 Y64 J-2.17
G1 Y48.5
G2 X87.78 Y46.33 I-2.17
G1 X73.949
G2 X71.764 Y48.333 I-0.021 J2.17
G3 X11.236 Y43.667 I-30.264 J-2.333
X23.216 Y21.77 I30.264 J2.333
G2 X25.67 Y16.845 I-3.717 J-4.925
G1 Y11.17
X57.33
Y16.845
G2 X59.783 Y21.77 I6.17
G3 X71.764 Y43.667 I-18.283 J24.23
X71.365 Y44.133 I-0.433 J0.033 F200
G1 X70.932 Y44.166
X70.857 Y44.172 Z5.007
X70.784 Y44.178 Z5.026
X70.716 Y44.183 Z5.058
X70.654 Y44.188 Z5.102
X70.601 Y44.192 Z5.155
X70.557 Y44.195 Z5.217
X70.525 Y44.198 Z5.286
X70.506 Y44.199 Z5.359
X70.499 Y44.2 Z5.434
X70.433 Y43.334
Z4.934 F333.3
X70.439 Z4.859
X70.459 Y43.332 Z4.786
X70.491 Y43.33 Z4.717
X70.534 Y43.326 Z4.655
X70.587 Y43.322 Z4.602
X70.649 Y43.318 Z4.558
X70.717 Y43.312 Z4.526
X70.79 Y43.307 Z4.507
X70.865 Y43.301 Z4.5
X71.298 Y43.268 F200
G3 X71.764 Y43.667 I0.033 J0.433
G2 X73.949 Y45.67 I2.164 J-0.167 F400
G1 X87.78
G2 X89.95 Y43.5 J-2.17
G1 Y28
G2 X87.78 Y25.83 I-2.17
G1 X79.102
G2 X77.941 Y23.802 I-37.601 J20.171
G3 X79.311 Y13.98 I6.687 J-4.073
G1 X82.974 Y10.593
G2 X83.67 Y9 I-1.474 J-1.593
G1 Y1
G2 X81.5 Y-1.17 I-2.17
G1 X1.5
G2 X-0.67 Y1 J2.17
G1 Y9
G2 X0.026 Y10.593 I2.17
G1 X3.689 Y13.98
G3 X5.059 Y23.802 I-5.317 J5.748
G2 X20.405 Y83.091 I36.441 J22.198
G3 X21.33 Y84.681 I-0.905 J1.591
G1 Y87.28
G2 X23.5 Y89.45 I2.17
G1 X59.5
G2 X61.67 Y87.28 J-2.17
G1 Y84.681
G3 X62.595 Y83.091 I1.83
G2 X79.102 Y66.17 I-21.095 J-37.091
G1 X87.78
G2 X89.95 Y64 J-2.17
G1 Y48.5
G2 X87.78 Y46.33 I-2.17
G1 X73.949
G2 X71.764 Y48.333 I-0.021 J2.17
G3 X11.236 Y43.667 I-30.264 J-2.333
X23.216 Y21.77 I30.264 J2.333
G2 X25.67 Y16.845 I-3.717 J-4.925
G1 Y11.17
X57.33
Y16.845
G2 X59.783 Y21.77 I6.17
G3 X71.764 Y43.667 I-18.283 J24.23
X71.365 Y44.133 I-0.433 J0.033 F200
G1 X70.932 Y44.166
X70.857 Y44.172 Z4.507
X70.784 Y44.178 Z4.526
X70.716 Y44.183 Z4.558
X70.654 Y44.188 Z4.602
X70.601 Y44.192 Z4.655
X70.557 Y44.195 Z4.717
X70.525 Y44.198 Z4.786
X70.506 Y44.199 Z4.859
X70.499 Y44.2 Z4.934
X70.433 Y43.334
Z4.434 F333.3
X70.439 Z4.359
X70.459 Y43.332 Z4.286
X70.491 Y43.33 Z4.217
X70.534 Y43.326 Z4.155
X70.587 Y43.322 Z4.102
X70.649 Y43.318 Z4.058
X70.717 Y43.312 Z4.026
X70.79 Y43.307 Z4.007
X70.865 Y43.301 Z4
X71.298 Y43.268 F200
G3 X71.764 Y43.667 I0.033 J0.433
G2 X73.949 Y45.67 I2.164 J-0.167 F400
G1 X87.78
G2 X89.95 Y43.5 J-2.17
G1 Y28
G2 X87.78 Y25.83 I-2.17
G1 X79.102
G2 X77.941 Y23.802 I-37.601 J20.171
G3 X79.311 Y13.98 I6.687 J-4.073
G1 X82.974 Y10.593
G2 X83.67 Y9 I-1.474 J-1.593
G1 Y1
G2 X81.5 Y-1.17 I-2.17
G1 X1.5
G2 X-0.67 Y1 J2.17
G1 Y9
G2 X0.026 Y10.593 I2.17
G1 X3.689 Y13.98
G3 X5.059 Y23.802 I-5.317 J5.748
G2 X20.405 Y83.091 I36.441 J22.198
G3 X21.33 Y84.681 I-0.905 J1.591
G1 Y87.28
G2 X23.5 Y89.45 I2.17
G1 X59.5
G2 X61.67 Y87.28 J-2.17
G1 Y84.681
G3 X62.595 Y83.091 I1.83
G2 X79.102 Y66.17 I-21.095 J-37.091
G1 X87.78
G2 X89.95 Y64 J-2.17
G1 Y48.5
G2 X87.78 Y46.33 I-2.17
G1 X73.949
G2 X71.764 Y48.333 I-0.021 J2.17
G3 X11.236 Y43.667 I-30.264 J-2.333
X23.216 Y21.77 I30.264 J2.333
G2 X25.67 Y16.845 I-3.717 J-4.925
G1 Y11.17
X57.33
Y16.845
G2 X59.783 Y21.77 I6.17
G3 X71.764 Y43.667 I-18.283 J24.23
X71.365 Y44.133 I-0.433 J0.033 F200
G1 X70.932 Y44.166
X70.857 Y44.172 Z4.007
X70.784 Y44.178 Z4.026
X70.716 Y44.183 Z4.058
X70.654 Y44.188 Z4.102
X70.601 Y44.192 Z4.155
X70.557 Y44.195 Z4.217
X70.525 Y44.198 Z4.286
X70.506 Y44.199 Z4.359
X70.499 Y44.2 Z4.434
X70.433 Y43.334
Z3.934 F333.3
X70.439 Z3.859
X70.459 Y43.332 Z3.786
X70.491 Y43.33 Z3.717
X70.534 Y43.326 Z3.655
X70.587 Y43.322 Z3.602
X70.649 Y43.318 Z3.558
X70.717 Y43.312 Z3.526
X70.79 Y43.307 Z3.507
X70.865 Y43.301 Z3.5
X71.298 Y43.268 F200
G3 X71.764 Y43.667 I0.033 J0.433
G2 X73.949 Y45.67 I2.164 J-0.167 F400
G1 X87.78
G2 X89.95 Y43.5 J-2.17
G1 Y28
G2 X87.78 Y25.83 I-2.17
G1 X79.102
G2 X77.941 Y23.802 I-37.601 J20.171
G3 X79.311 Y13.98 I6.687 J-4.073
G1 X82.974 Y10.593
G2 X83.67 Y9 I-1.474 J-1.593
G1 Y1
G2 X81.5 Y-1.17 I-2.17
G1 X1.5
G2 X-0.67 Y1 J2.17
G1 Y9
G2 X0.026 Y10.593 I2.17
G1 X3.689 Y13.98
G3 X5.059 Y23.802 I-5.317 J5.748
G2 X20.405 Y83.091 I36.441 J22.198
G3 X21.33 Y84.681 I-0.905 J1.591
G1 Y87.28
G2 X23.5 Y89.45 I2.17
G1 X59.5
G2 X61.67 Y87.28 J-2.17
G1 Y84.681
G3 X62.595 Y83.091 I1.83
G2 X79.102 Y66.17 I-21.095 J-37.091
G1 X87.78
G2 X89.95 Y64 J-2.17
G1 Y48.5
G2 X87.78 Y46.33 I-2.17
G1 X73.949
G2 X71.764 Y48.333 I-0.021 J2.17
G3 X11.236 Y43.667 I-30.264 J-2.333
X23.216 Y21.77 I30.264 J2.333
G2 X25.67 Y16.845 I-3.717 J-4.925
G1 Y11.17
X57.33
Y16.845
G2 X59.783 Y21.77 I6.17
G3 X71.764 Y43.667 I-18.283 J24.23
X71.365 Y44.133 I-0.433 J0.033 F200
G1 X70.932 Y44.166
X70.857 Y44.172 Z3.507
X70.784 Y44.178 Z3.526
X70.716 Y44.183 Z3.558
X70.654 Y44.188 Z3.602
X70.601 Y44.192 Z3.655
X70.557 Y44.195 Z3.717
X70.525 Y44.198 Z3.786
X70.506 Y44.199 Z3.859
X70.499 Y44.2 Z3.934
X70.433 Y43.334
Z3.434 F333.3
X70.439 Z3.359
X70.459 Y43.332 Z3.286
X70.491 Y43.33 Z3.217
X70.534 Y43.326 Z3.155
X70.587 Y43.322 Z3.102
X70.649 Y43.318 Z3.058
X70.717 Y43.312 Z3.026
X70.79 Y43.307 Z3.007
X70.865 Y43.301 Z3
X71.298 Y43.268 F200
G3 X71.764 Y43.667 I0.033 J0.433
G2 X73.949 Y45.67 I2.164 J-0.167 F400
G1 X87.78
G2 X89.95 Y43.5 J-2.17
G1 Y28
G2 X87.78 Y25.83 I-2.17
G1 X79.102
G2 X77.941 Y23.802 I-37.601 J20.171
G3 X79.311 Y13.98 I6.687 J-4.073
G1 X82.974 Y10.593
G2 X83.67 Y9 I-1.474 J-1.593
G1 Y1
G2 X81.5 Y-1.17 I-2.17
G1 X1.5
G2 X-0.67 Y1 J2.17
G1 Y9
G2 X0.026 Y10.593 I2.17
G1 X3.689 Y13.98
G3 X5.059 Y23.802 I-5.317 J5.748
G2 X20.405 Y83.091 I36.441 J22.198
G3 X21.33 Y84.681 I-0.905 J1.591
G1 Y87.28
G2 X23.5 Y89.45 I2.17
G1 X59.5
G2 X61.67 Y87.28 J-2.17
G1 Y84.681
G3 X62.595 Y83.091 I1.83
G2 X79.102 Y66.17 I-21.095 J-37.091
G1 X87.78
G2 X89.95 Y64 J-2.17
G1 Y48.5
G2 X87.78 Y46.33 I-2.17
G1 X73.949
G2 X71.764 Y48.333 I-0.021 J2.17
G3 X11.236 Y43.667 I-30.264 J-2.333
X23.216 Y21.77 I30.264 J2.333
G2 X25.67 Y16.845 I-3.717 J-4.925
G1 Y11.17
X57.33
Y16.845
G2 X59.783 Y21.77 I6.17
G3 X71.764 Y43.667 I-18.283 J24.23
X71.365 Y44.133 I-0.433 J0.033 F200
G1 X70.932 Y44.166
X70.857 Y44.172 Z3.007
X70.784 Y44.178 Z3.026
X70.716 Y44.183 Z3.058
X70.654 Y44.188 Z3.102
X70.601 Y44.192 Z3.155
X70.557 Y44.195 Z3.217
X70.525 Y44.198 Z3.286
X70.506 Y44.199 Z3.359
X70.499 Y44.2 Z3.434
X70.433 Y43.334
Z2.934 F333.3
X70.439 Z2.859
X70.459 Y43.332 Z2.786
X70.491 Y43.33 Z2.717
X70.534 Y43.326 Z2.655
X70.587 Y43.322 Z2.602
X70.649 Y43.318 Z2.558
X70.717 Y43.312 Z2.526
X70.79 Y43.307 Z2.507
X70.865 Y43.301 Z2.5
X71.298 Y43.268 F200
G3 X71.764 Y43.667 I0.033 J0.433
G2 X73.949 Y45.67 I2.164 J-0.167 F400
G1 X87.78
G2 X89.95 Y43.5 J-2.17
G1 Y28
G2 X87.78 Y25.83 I-2.17
G1 X79.102
G2 X77.941 Y23.802 I-37.601 J20.171
G3 X79.311 Y13.98 I6.687 J-4.073
G1 X82.974 Y10.593
G2 X83.67 Y9 I-1.474 J-1.593
G1 Y1
G2 X81.5 Y-1.17 I-2.17
G1 X1.5
G2 X-0.67 Y1 J2.17
G1 Y9
G2 X0.026 Y10.593 I2.17
G1 X3.689 Y13.98
G3 X5.059 Y23.802 I-5.317 J5.748
G2 X20.405 Y83.091 I36.441 J22.198
G3 X21.33 Y84.681 I-0.905 J1.591
G1 Y87.28
G2 X23.5 Y89.45 I2.17
G1 X59.5
G2 X61.67 Y87.28 J-2.17
G1 Y84.681
G3 X62.595 Y83.091 I1.83
G2 X79.102 Y66.17 I-21.095 J-37.091
G1 X87.78
G2 X89.95 Y64 J-2.17
G1 Y48.5
G2 X87.78 Y46.33 I-2.17
G1 X73.949
G2 X71.764 Y48.333 I-0.021 J2.17
G3 X11.236 Y43.667 I-30.264 J-2.333
X23.216 Y21.77 I30.264 J2.333
G2 X25.67 Y16.845 I-3.717 J-4.925
G1 Y11.17
X57.33
Y16.845
G2 X59.783 Y21.77 I6.17
G3 X71.764 Y43.667 I-18.283 J24.23
X71.365 Y44.133 I-0.433 J0.033 F200
G1 X70.932 Y44.166
X70.857 Y44.172 Z2.507
X70.784 Y44.178 Z2.526
X70.716 Y44.183 Z2.558
X70.654 Y44.188 Z2.602
X70.601 Y44.192 Z2.655
X70.557 Y44.195 Z2.717
X70.525 Y44.198 Z2.786
X70.506 Y44.199 Z2.859
X70.499 Y44.2 Z2.934
X70.433 Y43.334
Z2.434 F333.3
X70.439 Z2.359
X70.459 Y43.332 Z2.286
X70.491 Y43.33 Z2.217
X70.534 Y43.326 Z2.155
X70.587 Y43.322 Z2.102
X70.649 Y43.318 Z2.058
X70.717 Y43.312 Z2.026
X70.79 Y43.307 Z2.007
X70.865 Y43.301 Z2
X71.298 Y43.268 F200
G3 X71.764 Y43.667 I0.033 J0.433
G2 X73.949 Y45.67 I2.164 J-0.167 F400
G1 X87.78
G2 X89.95 Y43.5 J-2.17
G1 Y28
G2 X87.78 Y25.83 I-2.17
G1 X79.102
G2 X77.941 Y23.802 I-37.601 J20.171
G3 X79.311 Y13.98 I6.687 J-4.073
G1 X82.974 Y10.593
G2 X83.67 Y9 I-1.474 J-1.593
G1 Y1
G2 X81.5 Y-1.17 I-2.17
G1 X1.5
G2 X-0.67 Y1 J2.17
G1 Y9
G2 X0.026 Y10.593 I2.17
G1 X3.689 Y13.98
G3 X5.059 Y23.802 I-5.317 J5.748
G2 X20.405 Y83.091 I36.441 J22.198
G3 X21.33 Y84.681 I-0.905 J1.591
G1 Y87.28
G2 X23.5 Y89.45 I2.17
G1 X59.5
G2 X61.67 Y87.28 J-2.17
G1 Y84.681
G3 X62.595 Y83.091 I1.83
G2 X79.102 Y66.17 I-21.095 J-37.091
G1 X87.78
G2 X89.95 Y64 J-2.17
G1 Y48.5
G2 X87.78 Y46.33 I-2.17
G1 X73.949
G2 X71.764 Y48.333 I-0.021 J2.17
G3 X11.236 Y43.667 I-30.264 J-2.333
X23.216 Y21.77 I30.264 J2.333
G2 X25.67 Y16.845 I-3.717 J-4.925
G1 Y11.17
X57.33
Y16.845
G2 X59.783 Y21.77 I6.17
G3 X71.764 Y43.667 I-18.283 J24.23
X71.365 Y44.133 I-0.433 J0.033 F200
G1 X70.932 Y44.166
X70.857 Y44.172 Z2.007
X70.784 Y44.178 Z2.026
X70.716 Y44.183 Z2.058
X70.654 Y44.188 Z2.102
X70.601 Y44.192 Z2.155
X70.557 Y44.195 Z2.217
X70.525 Y44.198 Z2.286
X70.506 Y44.199 Z2.359
X70.499 Y44.2 Z2.434
X70.433 Y43.334
Z1.934 F333.3
X70.439 Z1.859
X70.459 Y43.332 Z1.786
X70.491 Y43.33 Z1.717
X70.534 Y43.326 Z1.655
X70.587 Y43.322 Z1.602
X70.649 Y43.318 Z1.558
X70.717 Y43.312 Z1.526
X70.79 Y43.307 Z1.507
X70.865 Y43.301 Z1.5
X71.298 Y43.268 F200
G3 X71.764 Y43.667 I0.033 J0.433
G2 X73.949 Y45.67 I2.164 J-0.167 F400
G1 X87.78
G2 X89.95 Y43.5 J-2.17
G1 Y28
G2 X87.78 Y25.83 I-2.17
G1 X79.102
G2 X77.941 Y23.802 I-37.601 J20.171
G3 X79.311 Y13.98 I6.687 J-4.073
G1 X82.974 Y10.593
G2 X83.67 Y9 I-1.474 J-1.593
G1 Y1
G2 X81.5 Y-1.17 I-2.17
G1 X1.5
G2 X-0.67 Y1 J2.17
G1 Y9
G2 X0.026 Y10.593 I2.17
G1 X3.689 Y13.98
G3 X5.059 Y23.802 I-5.317 J5.748
G2 X20.405 Y83.091 I36.441 J22.198
G3 X21.33 Y84.681 I-0.905 J1.591
G1 Y87.28
G2 X23.5 Y89.45 I2.17
G1 X59.5
G2 X61.67 Y87.28 J-2.17
G1 Y84.681
G3 X62.595 Y83.091 I1.83
G2 X79.102 Y66.17 I-21.095 J-37.091
G1 X87.78
G2 X89.95 Y64 J-2.17
G1 Y48.5
G2 X87.78 Y46.33 I-2.17
G1 X73.949
G2 X71.764 Y48.333 I-0.021 J2.17
G3 X11.236 Y43.667 I-30.264 J-2.333
X23.216 Y21.77 I30.264 J2.333
G2 X25.67 Y16.845 I-3.717 J-4.925
G1 Y11.17
X57.33
Y16.845
G2 X59.783 Y21.77 I6.17
G3 X71.764 Y43.667 I-18.283 J24.23
X71.365 Y44.133 I-0.433 J0.033 F200
G1 X70.932 Y44.166
X70.857 Y44.172 Z1.507
X70.784 Y44.178 Z1.526
X70.716 Y44.183 Z1.558
X70.654 Y44.188 Z1.602
X70.601 Y44.192 Z1.655
X70.557 Y44.195 Z1.717
X70.525 Y44.198 Z1.786
X70.506 Y44.199 Z1.859
X70.499 Y44.2 Z1.934
X70.433 Y43.334
Z1.434 F333.3
X70.439 Z1.359
X70.459 Y43.332 Z1.286
X70.491 Y43.33 Z1.217
X70.534 Y43.326 Z1.155
X70.587 Y43.322 Z1.102
X70.649 Y43.318 Z1.058
X70.717 Y43.312 Z1.026
X70.79 Y43.307 Z1.007
X70.865 Y43.301 Z1
X71.298 Y43.268 F200
G3 X71.764 Y43.667 I0.033 J0.433
G2 X73.949 Y45.67 I2.164 J-0.167 F400
G1 X87.78
G2 X89.95 Y43.5 J-2.17
G1 Y28
G2 X87.78 Y25.83 I-2.17
G1 X79.102
G2 X77.941 Y23.802 I-37.601 J20.171
G3 X79.311 Y13.98 I6.687 J-4.073
G1 X82.974 Y10.593
G2 X83.67 Y9 I-1.474 J-1.593
G1 Y1
G2 X81.5 Y-1.17 I-2.17
G1 X1.5
G2 X-0.67 Y1 J2.17
G1 Y9
G2 X0.026 Y10.593 I2.17
G1 X3.689 Y13.98
G3 X5.059 Y23.802 I-5.317 J5.748
G2 X20.405 Y83.091 I36.441 J22.198
G3 X21.33 Y84.681 I-0.905 J1.591
G1 Y87.28
G2 X23.5 Y89.45 I2.17
G1 X59.5
G2 X61.67 Y87.28 J-2.17
G1 Y84.681
G3 X62.595 Y83.091 I1.83
G2 X79.102 Y66.17 I-21.095 J-37.091
G1 X87.78
G2 X89.95 Y64 J-2.17
G1 Y48.5
G2 X87.78 Y46.33 I-2.17
G1 X73.949
G2 X71.764 Y48.333 I-0.021 J2.17
G3 X11.236 Y43.667 I-30.264 J-2.333
X23.216 Y21.77 I30.264 J2.333
G2 X25.67 Y16.845 I-3.717 J-4.925
G1 Y11.17
X57.33
Y16.845
G2 X59.783 Y21.77 I6.17
G3 X71.764 Y43.667 I-18.283 J24.23
X71.365 Y44.133 I-0.433 J0.033 F200
G1 X70.932 Y44.166
X70.857 Y44.172 Z1.007
X70.784 Y44.178 Z1.026
X70.716 Y44.183 Z1.058
X70.654 Y44.188 Z1.102
X70.601 Y44.192 Z1.155
X70.557 Y44.195 Z1.217
X70.525 Y44.198 Z1.286
X70.506 Y44.199 Z1.359
X70.499 Y44.2 Z1.434
X70.433 Y43.334
Z0.934 F333.3
X70.439 Z0.859
X70.459 Y43.332 Z0.786
X70.491 Y43.33 Z0.717
X70.534 Y43.326 Z0.655
X70.587 Y43.322 Z0.602
X70.649 Y43.318 Z0.558
X70.717 Y43.312 Z0.526
X70.79 Y43.307 Z0.507
X70.865 Y43.301 Z0.5
X71.298 Y43.268 F200
G3 X71.764 Y43.667 I0.033 J0.433
G2 X73.949 Y45.67 I2.164 J-0.167 F400
G1 X87.78
G2 X89.95 Y43.5 J-2.17
G1 Y28
G2 X87.78 Y25.83 I-2.17
G1 X79.102
G2 X77.941 Y23.802 I-37.601 J20.171
G3 X79.311 Y13.98 I6.687 J-4.073
G1 X82.974 Y10.593
G2 X83.67 Y9 I-1.474 J-1.593
G1 Y1
G2 X81.5 Y-1.17 I-2.17
G1 X1.5
G2 X-0.67 Y1 J2.17
G1 Y9
G2 X0.026 Y10.593 I2.17
G1 X3.689 Y13.98
G3 X5.059 Y23.802 I-5.317 J5.748
G2 X20.405 Y83.091 I36.441 J22.198
G3 X21.33 Y84.681 I-0.905 J1.591
G1 Y87.28
G2 X23.5 Y89.45 I2.17
G1 X59.5
G2 X61.67 Y87.28 J-2.17
G1 Y84.681
G3 X62.595 Y83.091 I1.83
G2 X79.102 Y66.17 I-21.095 J-37.091
G1 X87.78
G2 X89.95 Y64 J-2.17
G1 Y48.5
G2 X87.78 Y46.33 I-2.17
G1 X73.949
G2 X71.764 Y48.333 I-0.021 J2.17
G3 X11.236 Y43.667 I-30.264 J-2.333
X23.216 Y21.77 I30.264 J2.333
G2 X25.67 Y16.845 I-3.717 J-4.925
G1 Y11.17
X57.33
Y16.845
G2 X59.783 Y21.77 I6.17
G3 X71.764 Y43.667 I-18.283 J24.23
X71.365 Y44.133 I-0.433 J0.033 F200
G1 X70.932 Y44.166
X70.857 Y44.172 Z0.507
X70.784 Y44.178 Z0.526
X70.716 Y44.183 Z0.558
X70.654 Y44.188 Z0.602
X70.601 Y44.192 Z0.655
X70.557 Y44.195 Z0.717
X70.525 Y44.198 Z0.786
X70.506 Y44.199 Z0.859
X70.499 Y44.2 Z0.934
X70.433 Y43.334
Z0.434 F333.3
X70.439 Z0.359
X70.459 Y43.332 Z0.286
X70.491 Y43.33 Z0.217
X70.534 Y43.326 Z0.155
X70.587 Y43.322 Z0.102
X70.649 Y43.318 Z0.058
X70.717 Y43.312 Z0.026
X70.79 Y43.307 Z0.007
X70.865 Y43.301 Z0
X71.298 Y43.268 F200
G3 X71.764 Y43.667 I0.033 J0.433
G2 X73.949 Y45.67 I2.164 J-0.167 F400
G1 X87.78
G2 X89.95 Y43.5 J-2.17
G1 Y28
G2 X87.78 Y25.83 I-2.17
G1 X79.102
G2 X77.941 Y23.802 I-37.601 J20.171
G3 X79.311 Y13.98 I6.687 J-4.073
G1 X82.974 Y10.593
G2 X83.67 Y9 I-1.474 J-1.593
G1 Y1
G2 X81.5 Y-1.17 I-2.17
G1 X1.5
G2 X-0.67 Y1 J2.17
G1 Y9
G2 X0.026 Y10.593 I2.17
G1 X3.689 Y13.98
G3 X5.059 Y23.802 I-5.317 J5.748
G2 X20.405 Y83.091 I36.441 J22.198
G3 X21.33 Y84.681 I-0.905 J1.591
G1 Y87.28
G2 X23.5 Y89.45 I2.17
G1 X59.5
G2 X61.67 Y87.28 J-2.17
G1 Y84.681
G3 X62.595 Y83.091 I1.83
G2 X79.102 Y66.17 I-21.095 J-37.091
G1 X87.78
G2 X89.95 Y64 J-2.17
G1 Y48.5
G2 X87.78 Y46.33 I-2.17
G1 X73.949
G2 X71.764 Y48.333 I-0.021 J2.17
G3 X11.236 Y43.667 I-30.264 J-2.333
X23.216 Y21.77 I30.264 J2.333
G2 X25.67 Y16.845 I-3.717 J-4.925
G1 Y11.17
X57.33
Y16.845
G2 X59.783 Y21.77 I6.17
G3 X71.764 Y43.667 I-18.283 J24.23
X71.365 Y44.133 I-0.433 J0.033 F200
G1 X70.932 Y44.166
X70.857 Y44.172 Z0.007
X70.784 Y44.178 Z0.026
X70.716 Y44.183 Z0.058
X70.654 Y44.188 Z0.102
X70.601 Y44.192 Z0.155
X70.557 Y44.195 Z0.217
X70.525 Y44.198 Z0.286
X70.506 Y44.199 Z0.359
X70.499 Y44.2 Z0.434
G0 Z36
M9
G28 G91 Z0
G28 X0 Y0
M30
%
